; generated by Slic3r 1.3.0 on 2022-01-24 at 09:44:55

; external perimeters extrusion width = 0.55mm (6.64mm^3/s)
; perimeters extrusion width = 0.52mm (12.53mm^3/s)
; infill extrusion width = 0.52mm (16.71mm^3/s)
; solid infill extrusion width = 0.52mm (4.18mm^3/s)
; top infill extrusion width = 0.52mm (3.13mm^3/s)

M107
M104 S200 ; set temperature
G1 Z5 F5000 ; lift nozzle

; Filament gcode

M109 S200 ; set temperature and wait for it to be reached
G21 ; set units to millimeters
G90 ; use absolute coordinates
M82 ; use absolute distances for extrusion
G92 E0
G1 Z0.900 F7800.000
G1 E-2.00000 F2400.00000
G92 E0
G1 X0.106 Y-15.690 F7800.000
G1 E2.00000 F2400.00000
G1 F1800
G1 X0.852 Y-15.676 E2.13756
G1 X1.626 Y-15.636 E2.28053
G1 X3.072 Y-15.487 E2.54853
G1 X4.523 Y-15.243 E2.81980
G1 X5.957 Y-14.906 E3.09129
G1 X6.727 Y-14.684 E3.23921
G1 X7.464 Y-14.444 E3.38208
G1 X8.838 Y-13.920 E3.65322
G1 X9.577 Y-13.595 E3.80204
G1 X10.229 Y-13.281 E3.93535
G1 X11.482 Y-12.603 E4.19812
G1 X12.727 Y-11.824 E4.46891
G1 X13.946 Y-10.946 E4.74587
G1 X14.586 Y-10.433 E4.89705
G1 X15.139 Y-9.958 E5.03154
G1 X16.216 Y-8.937 E5.30516
G1 X17.227 Y-7.844 E5.57953
G1 X17.728 Y-7.246 E5.72344
G1 X18.166 Y-6.685 E5.85476
G1 X18.993 Y-5.518 E6.11835
G1 X19.442 Y-4.812 E6.27262
G1 X19.795 Y-4.211 E6.40113
G1 X20.206 Y-3.366 E6.57440
G1 X20.403 Y-2.855 E6.67544
G1 X20.527 Y-2.472 E6.74957
G1 X20.655 Y-1.997 E6.84037
G1 X20.757 Y-1.503 E6.93338
G1 X20.870 Y-0.598 E7.10153
G1 X20.890 Y-0.037 E7.20494
G1 X20.881 Y0.385 E7.28281
G1 X20.817 Y1.115 E7.41790
G1 X20.656 Y1.992 E7.58228
G1 X20.405 Y2.849 E7.74682
G1 X20.085 Y3.639 E7.90400
G1 X19.678 Y4.418 E8.06605
G1 X18.973 Y5.549 E8.31180
G1 X18.169 Y6.681 E8.56775
G1 X17.384 Y7.661 E8.79936
G1 X16.581 Y8.558 E9.02129
G1 X15.660 Y9.480 E9.26153
G1 X14.766 Y10.281 E9.48292
G1 X14.002 Y10.903 E9.66458
G1 X13.150 Y11.533 E9.85987
G1 X12.363 Y12.064 E10.03495
G1 X11.555 Y12.561 E10.20981
G1 X10.669 Y13.054 E10.39682
G1 X9.800 Y13.490 E10.57606
G1 X8.899 Y13.894 E10.75801
G1 X8.091 Y14.218 E10.91862
G1 X7.198 Y14.534 E11.09327
G1 X6.279 Y14.818 E11.27049
G1 X5.252 Y15.084 E11.46613
G1 X4.298 Y15.288 E11.64598
G1 X3.317 Y15.453 E11.82941
G1 X2.367 Y15.571 E12.00583
G1 X1.365 Y15.652 E12.19133
G1 X0.397 Y15.688 E12.36993
G1 X-0.531 Y15.683 E12.54103
G1 X-1.406 Y15.645 E12.70242
G1 X-24.860 Y14.159 E17.03527
G1 X-25.693 Y14.068 E17.18976
G1 X-26.316 Y13.949 E17.30666
G1 X-27.034 Y13.756 E17.44393
G1 X-27.608 Y13.555 E17.55602
G1 X-28.087 Y13.353 E17.65172
G1 X-28.683 Y13.054 E17.77475
G1 X-29.318 Y12.671 E17.91136
G1 X-29.838 Y12.300 E18.02928
G1 X-30.373 Y11.856 E18.15740
G1 X-30.830 Y11.414 E18.27464
G1 X-31.182 Y11.027 E18.37103
G1 X-31.578 Y10.531 E18.48818
G1 X-31.964 Y9.968 E18.61395
G1 X-32.268 Y9.448 E18.72504
G1 X-32.550 Y8.882 E18.84160
G1 X-32.798 Y8.280 E18.96167
G1 X-33.020 Y7.602 E19.09310
G1 X-33.169 Y7.005 E19.20653
G1 X-33.282 Y6.373 E19.32490
G1 X-33.342 Y5.843 E19.42335
G1 X-33.378 Y5.032 E19.57306
G1 X-33.370 Y-5.395 E21.49542
G1 X-33.342 Y-5.843 E21.57825
G1 X-33.279 Y-6.393 E21.68025
G1 X-33.135 Y-7.159 E21.82394
G1 X-33.017 Y-7.611 E21.91008
G1 X-32.840 Y-8.163 E22.01704
G1 X-32.550 Y-8.882 E22.15987
G1 X-32.330 Y-9.331 E22.25213
G1 X-32.030 Y-9.861 E22.36430
G1 X-31.553 Y-10.565 E22.52120
G1 X-31.185 Y-11.024 E22.62960
G1 X-30.832 Y-11.412 E22.72635
G1 X-30.282 Y-11.936 E22.86642
G1 X-29.718 Y-12.391 E23.00002
G1 X-29.217 Y-12.737 E23.11222
G1 X-28.660 Y-13.067 E23.23165
G1 X-28.087 Y-13.353 E23.34975
G1 X-27.480 Y-13.603 E23.47071
G1 X-26.905 Y-13.795 E23.58241
G1 X-26.316 Y-13.949 E23.69481
G1 X-25.838 Y-14.044 E23.78463
G1 X-25.219 Y-14.129 E23.89976
G1 X-1.407 Y-15.644 E28.29884
G1 X0.031 Y-15.690 E28.56409
G1 E26.56409 F2400.00000
G92 E0
G1 X-21.922 Y-2.870 F7800.000
G1 E2.00000 F2400.00000
G1 F1800
G1 X-0.756 Y-4.210 E6.80784
G1 X-0.002 Y-4.235 E6.97891
G1 X0.748 Y-4.213 E7.14894
G1 X1.429 Y-4.150 E7.30404
G1 X2.125 Y-4.041 E7.46371
G1 X2.953 Y-3.852 E7.65624
G1 X3.741 Y-3.611 E7.84294
G1 X4.382 Y-3.368 E7.99844
G1 X4.996 Y-3.090 E8.15130
G1 X5.699 Y-2.715 E8.33190
G1 X6.334 Y-2.319 E8.50157
G1 X6.962 Y-1.866 E8.67709
G1 X7.526 Y-1.398 E8.84323
G1 X8.096 Y-0.857 E9.02149
G1 X8.546 Y-0.370 E9.17166
G1 X8.857 Y0.012 E9.28330
G1 X8.048 Y0.907 E9.55675
G1 X7.283 Y1.610 E9.79230
G1 X6.456 Y2.238 E10.02768
G1 X5.588 Y2.779 E10.25941
G1 X4.865 Y3.153 E10.44406
G1 X4.152 Y3.460 E10.61995
G1 X3.494 Y3.694 E10.77831
G1 X2.776 Y3.898 E10.94747
G1 X2.050 Y4.055 E11.11581
G1 X1.338 Y4.161 E11.27913
G1 X0.678 Y4.218 E11.42920
G1 X-0.026 Y4.236 E11.58894
G1 X-0.744 Y4.211 E11.75185
G1 X-21.924 Y2.869 E16.56288
G1 X-21.922 Y-2.795 E17.84686
G1 E15.84686 F2400.00000
G92 E0
G1 X-23.528 Y-4.378 F7800.000
G1 E2.00000 F2400.00000
G1 F1800
G1 X-0.834 Y-5.815 E7.15503
G1 X-0.005 Y-5.843 E7.34295
G1 X0.846 Y-5.818 E7.53604
G1 X1.629 Y-5.745 E7.71423
G1 X2.429 Y-5.619 E7.89778
G1 X3.366 Y-5.406 E8.11586
G1 X4.261 Y-5.133 E8.32784
G1 X4.999 Y-4.853 E8.50683
G1 X5.706 Y-4.532 E8.68284
G1 X6.503 Y-4.107 E8.88756
G1 X7.230 Y-3.654 E9.08185
G1 X7.946 Y-3.137 E9.28197
G1 X8.594 Y-2.600 E9.47267
G1 X9.241 Y-1.986 E9.67500
G1 X9.761 Y-1.423 E9.84862
G1 X10.316 Y-0.740 E10.04833
G1 X10.837 Y-0.007 E10.25207
G1 X10.283 Y0.784 E10.47109
G1 X9.931 Y1.225 E10.59898
G1 X9.187 Y2.041 E10.84927
G1 X8.714 Y2.493 E10.99752
G1 X7.897 Y3.176 E11.23899
G1 X7.368 Y3.561 E11.38729
G1 X6.818 Y3.920 E11.53612
G1 X6.365 Y4.187 E11.65542
G1 X5.552 Y4.606 E11.86273
G1 X4.740 Y4.956 E12.06321
G1 X3.984 Y5.225 E12.24516
G1 X3.166 Y5.458 E12.43791
G1 X2.338 Y5.636 E12.62987
G1 X1.526 Y5.757 E12.81610
G1 X0.768 Y5.823 E12.98842
G1 X-0.034 Y5.844 E13.17029
G1 X-0.823 Y5.816 E13.34941
G1 X-23.532 Y4.378 E18.50764
G1 X-23.528 Y-4.303 E20.47546
G1 E18.47546 F2400.00000
G92 E0
G1 X-25.011 Y5.543 F7800.000
G1 E2.00000 F2400.00000
G1 F1800
G1 X-25.103 Y5.316 E2.05544
G1 X-25.139 Y5.004 E2.12680
G1 X-25.135 Y-5.092 E4.41548
G1 X-25.098 Y-5.330 E4.46995
G1 X-25.063 Y-5.436 E4.49544
G1 X-25.011 Y-5.543 E4.52237
G1 X-24.877 Y-5.715 E4.57188
G1 X-24.725 Y-5.825 E4.61430
G1 X-24.530 Y-5.901 E4.66187
G1 X-24.294 Y-5.939 E4.71589
G1 X-0.912 Y-7.420 E10.02722
G1 X-0.009 Y-7.451 E10.23200
G1 X0.944 Y-7.423 E10.44814
G1 X1.828 Y-7.340 E10.64942
G1 X2.732 Y-7.198 E10.85686
G1 X3.780 Y-6.959 E11.10049
G1 X4.781 Y-6.654 E11.33775
G1 X5.616 Y-6.337 E11.54022
G1 X6.416 Y-5.975 E11.73938
G1 X7.307 Y-5.500 E11.96822
G1 X8.127 Y-4.989 E12.18712
G1 X8.931 Y-4.409 E12.41186
G1 X9.661 Y-3.803 E12.62711
G1 X10.385 Y-3.115 E12.85352
G1 X10.976 Y-2.476 E13.05059
G1 X11.596 Y-1.713 E13.27362
G1 X12.111 Y-0.989 E13.47498
G1 X12.712 Y-0.012 E13.73494
G1 X12.348 Y0.618 E13.89988
G1 X11.969 Y1.198 E14.05690
G1 X11.561 Y1.759 E14.21417
G1 X11.164 Y2.256 E14.35830
G1 X10.775 Y2.701 E14.49230
G1 X10.326 Y3.175 E14.64037
G1 X9.799 Y3.679 E14.80580
G1 X9.344 Y4.076 E14.94262
G1 X8.872 Y4.454 E15.07960
G1 X8.281 Y4.884 E15.24549
G1 X7.665 Y5.286 E15.41212
G1 X7.141 Y5.594 E15.54996
G1 X6.240 Y6.060 E15.77992
G1 X5.328 Y6.453 E16.00498
G1 X4.473 Y6.756 E16.21053
G1 X3.556 Y7.018 E16.42686
G1 X2.626 Y7.218 E16.64245
G1 X1.713 Y7.354 E16.85159
G1 X0.858 Y7.428 E17.04615
G1 X-0.041 Y7.451 E17.25016
G1 X-0.902 Y7.421 E17.44549
G1 X-24.294 Y5.939 E22.75895
G1 X-24.647 Y5.864 E22.84076
G1 X-24.888 Y5.703 E22.90641
G1 X-24.969 Y5.605 E22.93521
G1 X-24.952 Y5.440 F7800.000
G1 E20.93521 F2400.00000
G92 E0
G1 X-19.691 Y-1.986 F7800.000
G1 E2.00000 F2400.00000
G1 F1800
G1 X-20.941 Y-0.736 E2.41644
G1 X-20.942 Y1.626 E2.97293
G1 X-17.170 Y-2.146 E4.22957
G1 X-14.649 Y-2.305 E4.82465
G1 X-19.059 Y2.105 E6.29407
G1 X-16.839 Y2.246 E6.81827
G1 X-12.128 Y-2.465 E8.38774
G1 X-9.607 Y-2.625 E8.98282
G1 X-14.618 Y2.387 E10.65234
G1 X-12.397 Y2.527 E11.17653
G1 X-7.085 Y-2.784 E12.94610
G1 X-4.564 Y-2.944 E13.54118
G1 X-10.176 Y2.668 E15.41080
G1 X-7.956 Y2.809 E15.93499
G1 X-2.043 Y-3.104 E17.90466
G1 X-0.053 Y-3.230 E18.37436
G1 X0.461 Y-3.247 E18.49571
G1 X-5.735 Y2.949 E20.55998
G1 X-3.514 Y3.090 E21.08418
G1 X2.622 Y-3.046 E23.12846
G1 X3.164 Y-2.923 E23.25943
G1 X3.845 Y-2.715 E23.42717
G1 X4.428 Y-2.491 E23.57427
G1 X-1.293 Y3.230 E25.48038
G1 X-0.644 Y3.253 E25.63354
G1 X-0.037 Y3.238 E25.77653
G1 X0.525 Y3.189 E25.90937
G1 X1.218 Y3.081 E26.07460
G1 X5.967 Y-1.669 E27.65684
G1 X6.603 Y-1.220 E27.84017
G1 X7.084 Y-0.821 E27.98730
G1 X7.287 Y-0.627 E28.05349
G1 X6.036 Y0.624 E28.47043
G1 Z1.400 F7800.000
G1 X-19.702 Y2.016 F7800.000
G1 F3600
G1 X-19.702 Y-2.016 E28.60241
G1 X-25.249 Y-2.016 E28.78401
G1 X-25.238 Y-5.518 E28.89865
G1 X-25.195 Y-5.698 E28.90472
G1 X-25.127 Y-5.827 E28.90949
G1 X-24.968 Y-5.979 E28.91669
G1 X-24.808 Y-6.052 E28.92247
G1 X-24.622 Y-6.082 E28.92863
G1 X-0.945 Y-7.704 E29.70560
G1 X0.140 Y-7.733 E29.74110
G1 X1.168 Y-7.689 E29.77479
G1 X2.037 Y-7.599 E29.80339
G1 X3.013 Y-7.436 E29.83579
G1 X3.964 Y-7.214 E29.86776
G1 X5.019 Y-6.893 E29.90387
G1 X5.898 Y-6.559 E29.93466
G1 X6.873 Y-6.114 E29.96974
G1 X7.689 Y-5.674 E30.00009
G1 X8.573 Y-5.123 E30.03420
G1 X9.418 Y-4.513 E30.06833
G1 X10.172 Y-3.887 E30.10039
G1 X10.881 Y-3.217 E30.13234
G1 X11.546 Y-2.503 E30.16426
G1 X12.209 Y-1.687 E30.19870
G1 X12.783 Y-0.878 E30.23118
G1 X13.250 Y-0.116 E30.26042
G1 X13.284 Y-0.004 E30.26427
G1 X13.263 Y0.089 E30.26740
G1 X13.079 Y0.411 E30.27950
G1 X12.645 Y1.083 E30.30573
G1 X12.261 Y1.620 E30.32733
G1 X11.855 Y2.137 E30.34885
G1 X11.430 Y2.634 E30.37026
G1 X10.986 Y3.109 E30.39154
G1 X10.424 Y3.658 E30.41724
G1 X9.940 Y4.088 E30.43846
G1 X9.438 Y4.498 E30.45966
G1 X8.804 Y4.965 E30.48544
G1 X8.379 Y5.252 E30.50224
G1 X7.709 Y5.664 E30.52798
G1 X6.772 Y6.163 E30.56275
G1 X5.794 Y6.602 E30.59784
G1 X4.910 Y6.929 E30.62870
G1 X3.858 Y7.242 E30.66461
G1 X2.895 Y7.459 E30.69694
G1 X1.909 Y7.615 E30.72964
G1 X0.894 Y7.707 E30.76299
G1 X-0.149 Y7.732 E30.79714
G1 X-1.232 Y7.684 E30.83265
G1 X-24.631 Y6.081 E31.60047
G1 X-24.835 Y6.044 E31.60725
G1 X-24.982 Y5.974 E31.61260
G1 X-25.066 Y5.906 E31.61614
G1 X-25.159 Y5.777 E31.62135
G1 X-25.213 Y5.642 E31.62612
G1 X-25.244 Y5.440 E31.63278
G1 X-25.247 Y2.016 E31.74490
G1 X-19.777 Y2.016 E31.92400
G1 X-20.119 Y1.598 F7800.000
G1 F3600
G1 X-20.119 Y-1.598 E32.02864
G1 X-25.666 Y-1.598 E32.21023
G1 X-25.654 Y-5.569 E32.34021
G1 X-25.581 Y-5.862 E32.35011
G1 X-25.475 Y-6.062 E32.35751
G1 X-25.343 Y-6.218 E32.36423
G1 X-25.185 Y-6.340 E32.37074
G1 X-24.948 Y-6.447 E32.37927
G1 X-24.664 Y-6.498 E32.38870
G1 X-0.964 Y-8.121 E33.16641
G1 X0.143 Y-8.151 E33.20267
G1 X1.198 Y-8.106 E33.23725
G1 X2.093 Y-8.013 E33.26669
G1 X3.095 Y-7.846 E33.29995
G1 X4.072 Y-7.618 E33.33281
G1 X5.154 Y-7.288 E33.36983
G1 X6.059 Y-6.945 E33.40153
G1 X7.059 Y-6.488 E33.43751
G1 X7.899 Y-6.036 E33.46874
G1 X8.806 Y-5.470 E33.50375
G1 X9.674 Y-4.843 E33.53881
G1 X10.449 Y-4.199 E33.57177
G1 X11.178 Y-3.511 E33.60458
G1 X11.861 Y-2.777 E33.63741
G1 X12.542 Y-1.940 E33.67275
G1 X13.132 Y-1.108 E33.70614
G1 X13.626 Y-0.302 E33.73709
G1 X13.685 Y-0.150 E33.74244
G1 X13.704 Y-0.016 E33.74686
G1 X13.693 Y0.116 E33.75120
G1 X13.647 Y0.259 E33.75612
G1 X13.437 Y0.628 E33.77001
G1 X12.990 Y1.318 E33.79694
G1 X12.595 Y1.870 E33.81915
G1 X12.179 Y2.402 E33.84127
G1 X11.741 Y2.913 E33.86328
G1 X11.285 Y3.401 E33.88517
G1 X10.709 Y3.963 E33.91152
G1 X10.211 Y4.406 E33.93333
G1 X9.694 Y4.828 E33.95516
G1 X9.045 Y5.306 E33.98156
G1 X8.605 Y5.603 E33.99894
G1 X7.917 Y6.026 E34.02538
G1 X6.956 Y6.539 E34.06104
G1 X5.952 Y6.988 E34.09705
G1 X5.042 Y7.326 E34.12882
G1 X3.964 Y7.646 E34.16565
G1 X2.974 Y7.869 E34.19887
G1 X1.960 Y8.030 E34.23247
G1 X0.918 Y8.125 E34.26673
G1 X-0.153 Y8.150 E34.30180
G1 X-1.256 Y8.101 E34.33794
G1 X-24.673 Y6.497 E35.10639
G1 X-24.979 Y6.438 E35.11658
G1 X-25.194 Y6.337 E35.12435
G1 X-25.382 Y6.181 E35.13235
G1 X-25.519 Y5.992 E35.13998
G1 X-25.577 Y5.873 E35.14432
G1 X-25.621 Y5.739 E35.14895
G1 X-25.662 Y5.472 E35.15778
G1 X-25.666 Y1.598 E35.28461
G1 X-20.194 Y1.598 E35.46373
G1 X-20.549 Y1.168 F7800.000
G1 F1800
G1 X-20.549 Y-1.168 E35.54477
G1 X-26.097 Y-1.168 E35.73724
G1 X-26.096 Y-5.387 E35.88361
G1 X-26.082 Y-5.621 E35.89175
G1 X-26.042 Y-5.835 E35.89930
G1 X-25.978 Y-6.031 E35.90646
G1 X-25.834 Y-6.304 E35.91718
G1 X-25.641 Y-6.531 E35.92752
G1 X-25.408 Y-6.711 E35.93774
G1 X-25.092 Y-6.854 E35.94978
G1 X-24.708 Y-6.926 E35.96334
G1 X-0.985 Y-8.551 E36.78840
G1 X0.146 Y-8.581 E36.82765
G1 X1.230 Y-8.535 E36.86528
G1 X2.150 Y-8.439 E36.89740
G1 X3.179 Y-8.268 E36.93358
G1 X4.184 Y-8.033 E36.96938
G1 X5.251 Y-7.709 E37.00807

G1 F3600
G1 X5.422 Y-7.647 E37.01368

G1 F1800
G1 X5.815 Y-7.498 E37.02827

G1 F3600
G1 X6.225 Y-7.342 E37.04177
G1 X7.251 Y-6.874 E37.07647
G1 X8.115 Y-6.408 E37.10668
G1 X9.046 Y-5.827 E37.14047
G1 X9.938 Y-5.183 E37.17433
G1 X10.734 Y-4.522 E37.20619
G1 X11.483 Y-3.815 E37.23788
G1 X12.185 Y-3.060 E37.26961
G1 X12.885 Y-2.201 E37.30372
G1 X13.492 Y-1.345 E37.33600
G1 X14.013 Y-0.494 E37.36673
G1 X14.104 Y-0.260 E37.37445
G1 X14.137 Y-0.029 E37.38163
G1 X14.117 Y0.202 E37.38877
G1 X14.042 Y0.434 E37.39626
G1 X13.804 Y0.851 E37.41105
G1 X13.346 Y1.560 E37.43705
G1 X12.939 Y2.128 E37.45853
G1 X12.512 Y2.675 E37.47990
G1 X12.062 Y3.200 E37.50117
G1 X11.593 Y3.702 E37.52234
G1 X11.002 Y4.278 E37.54773
G1 X10.490 Y4.733 E37.56882
G1 X9.958 Y5.167 E37.58994
G1 X9.293 Y5.658 E37.61537
G1 X8.838 Y5.965 E37.63227
G1 X8.131 Y6.399 E37.65781
G1 X7.145 Y6.925 E37.69219
G1 X6.115 Y7.387 E37.72695
G1 X5.765 Y7.517 E37.73845

G1 F1800
G1 X5.181 Y7.733 E37.76006

G1 F3600
G1 X5.178 Y7.734 E37.76015

G1 F1800
G1 X4.072 Y8.063 E37.80016
G1 X3.055 Y8.292 E37.83635
G1 X2.014 Y8.457 E37.87294
G1 X0.943 Y8.554 E37.91025
G1 X-0.157 Y8.580 E37.94843
G1 X-1.280 Y8.531 E37.98741
G1 X-24.717 Y6.925 E38.80254
G1 X-24.931 Y6.896 E38.81001
G1 X-25.128 Y6.843 E38.81709
G1 X-25.411 Y6.710 E38.82796
G1 X-25.569 Y6.598 E38.83466
G1 X-25.708 Y6.465 E38.84134
G1 X-25.889 Y6.214 E38.85208
G1 X-25.977 Y6.035 E38.85900
G1 X-26.041 Y5.839 E38.86617
G1 X-26.092 Y5.505 E38.87789
G1 X-26.096 Y1.168 E39.02837
G1 X-20.624 Y1.168 E39.21822
G1 X-20.062 Y1.058 F7800.000
G1 X-19.601 Y-2.271 F7800.000
G1 F1200
G1 X-23.260 Y-5.930 E39.38831
G1 X-23.815 Y-5.892 E39.40659
G1 X-20.194 Y-2.271 E39.57491
G1 X-20.787 Y-2.271 E39.59440
G1 X-24.370 Y-5.854 E39.76095
G1 X-24.737 Y-5.829 E39.77302
G1 X-24.896 Y-5.787 E39.77845
G1 X-21.380 Y-2.271 E39.94189
G1 X-21.973 Y-2.271 E39.96138
G1 X-24.984 Y-5.282 E40.10134
G1 X-24.986 Y-4.691 E40.12077
G1 X-22.566 Y-2.271 E40.23325
G1 X-23.159 Y-2.271 E40.25274
G1 X-24.988 Y-4.100 E40.33773
G1 X-24.989 Y-3.508 E40.35716
G1 X-23.752 Y-2.271 E40.41467
G1 X-24.345 Y-2.271 E40.43416
G1 X-24.991 Y-2.917 E40.46418
G1 E38.46418 F2400.00000
G92 E0
G1 X-24.922 Y5.454 F7800.000
G1 E2.00000 F2400.00000
G1 F1200
G1 X-24.596 Y5.781 E2.01519
G1 X-24.543 Y5.805 E2.01709
G1 X-23.920 Y5.863 E2.03765
G1 X-24.989 Y4.794 E2.08732
G1 X-24.990 Y4.200 E2.10683
G1 X-23.284 Y5.906 E2.18612
G1 X-22.647 Y5.950 E2.20709
G1 X-24.990 Y3.607 E2.31600
G1 X-24.991 Y3.013 E2.33551
G1 X-22.011 Y5.994 E2.47403
G1 X-21.374 Y6.037 E2.49500
G1 X-24.992 Y2.420 E2.66314
G1 X-24.992 Y2.271 E2.66802
G1 X-24.547 Y2.271 E2.68264
G1 X-20.737 Y6.081 E2.85971
G1 X-20.101 Y6.124 E2.88068
G1 X-23.954 Y2.271 E3.05978
G1 X-23.361 Y2.271 E3.07926
G1 X-19.464 Y6.168 E3.26039
G1 X-18.828 Y6.212 E3.28136
G1 X-22.768 Y2.271 E3.46451
G1 X-22.175 Y2.271 E3.48400
G1 X-18.191 Y6.255 E3.66918
G1 X-17.554 Y6.299 E3.69015
G1 X-21.582 Y2.271 E3.87735
G1 X-20.989 Y2.271 E3.89684
G1 X-16.918 Y6.342 E4.08608
G1 X-16.281 Y6.386 E4.10705
G1 X-20.396 Y2.271 E4.29831
G1 X-19.803 Y2.271 E4.31780
G1 X-15.644 Y6.430 E4.51109
G1 X-15.008 Y6.473 E4.53206
G1 X-19.446 Y2.035 E4.73836
G1 X-19.446 Y1.442 E4.75785
G1 X-14.371 Y6.517 E4.99373
G1 X-13.735 Y6.560 E5.01471
G1 X-19.446 Y0.849 E5.28018
G1 X-19.446 Y0.256 E5.29967
G1 X-13.098 Y6.604 E5.59474
G1 X-12.461 Y6.648 E5.61571
G1 X-19.446 Y-0.337 E5.94036
G1 X-19.446 Y-0.930 E5.95985
G1 X-11.825 Y6.691 E6.31410
G1 X-11.188 Y6.735 E6.33507
G1 X-19.446 Y-1.523 E6.71890
G1 X-19.446 Y-2.116 E6.73839
G1 X-10.551 Y6.778 E7.15182
