; generated by Slic3r 1.3.0 on 2022-01-31 at 13:51:49

; external perimeters extrusion width = 0.88mm (9.53mm^3/s)
; perimeters extrusion width = 1.12mm (24.82mm^3/s)
; infill extrusion width = 1.00mm (29.25mm^3/s)
; solid infill extrusion width = 1.12mm (8.27mm^3/s)
; top infill extrusion width = 1.12mm (6.20mm^3/s)

G28 ; Home axis
G29 ; Probe bed
G1 Z5 F5000 ; lift nozzle
M107
M109 S200 ; Set temp

; Filament gcode

G21 ; set units to millimeters
G90 ; use absolute coordinates
M82 ; use absolute distances for extrusion
G92 E0
M106 S255
G1 E-2.00000 F2400.00000
G92 E0
G1 Z2.000 F7800.000
G1 X-0.220 Y-15.313 F7800.000
G1 Z0.600 F7800.000
G1 E2.00000 F2400.00000
G1 F1800
G1 X0.528 Y-15.309 E2.07528
G1 X1.278 Y-15.280 E2.15094
G1 X2.031 Y-15.226 E2.22705
G1 X2.788 Y-15.145 E2.30374
G1 X4.142 Y-14.934 E2.44181
G1 X4.960 Y-14.764 E2.52595
G1 X5.611 Y-14.606 E2.59349
G1 X7.022 Y-14.192 E2.74157
G1 X7.766 Y-13.932 E2.82101
G1 X8.438 Y-13.671 E2.89364
G1 X9.763 Y-13.081 E3.03975
G1 X10.393 Y-12.763 E3.11092
G1 X11.096 Y-12.377 E3.19170
G1 X12.367 Y-11.593 E3.34213
G1 X13.498 Y-10.789 E3.48195
G1 X14.631 Y-9.870 E3.62895
G1 X15.690 Y-8.888 E3.77441
G1 X16.733 Y-7.784 E3.92742
G1 X17.590 Y-6.751 E4.06274
G1 X18.087 Y-6.089 E4.14610
G1 X18.554 Y-5.415 E4.22870
G1 X19.290 Y-4.232 E4.36909
G1 X19.687 Y-3.462 E4.45640
G1 X20.017 Y-2.613 E4.54815
G1 X20.226 Y-1.860 E4.62693
G1 X20.326 Y-1.355 E4.67879
G1 X20.389 Y-0.888 E4.72619
G1 X20.426 Y-0.422 E4.77329
G1 X20.436 Y0.037 E4.81959
G1 X20.423 Y0.474 E4.86369
G1 X20.384 Y0.938 E4.91053
G1 X20.320 Y1.389 E4.95650
G1 X20.226 Y1.863 E5.00513
G1 X19.992 Y2.689 E5.09165
G1 X19.668 Y3.502 E5.17984
G1 X19.262 Y4.280 E5.26821
G1 X18.591 Y5.360 E5.39636
G1 X17.795 Y6.484 E5.53506
G1 X16.977 Y7.503 E5.66677
G1 X16.173 Y8.394 E5.78770
G1 X15.303 Y9.262 E5.91153
G1 X14.435 Y10.038 E6.02882
G1 X13.743 Y10.601 E6.11864
G1 X12.921 Y11.213 E6.22191
G1 X12.084 Y11.778 E6.32368
G1 X11.285 Y12.267 E6.41806
G1 X10.503 Y12.704 E6.50827
G1 X9.579 Y13.169 E6.61258
G1 X8.680 Y13.571 E6.71175
G1 X7.834 Y13.907 E6.80343
G1 X6.935 Y14.221 E6.89938
G1 X6.115 Y14.471 E6.98581
G1 X5.191 Y14.711 E7.08201
G1 X4.247 Y14.914 E7.17929
G1 X3.272 Y15.079 E7.27889
G1 X2.278 Y15.202 E7.37977
G1 X1.371 Y15.275 E7.47148
G1 X0.438 Y15.311 E7.56555
G1 X-0.514 Y15.307 E7.66144
G1 X-1.342 Y15.271 E7.74492
G1 X-24.762 Y13.814 E10.10918
G1 X-25.550 Y13.729 E10.18904
G1 X-26.180 Y13.611 E10.25358
G1 X-26.875 Y13.424 E10.32607
G1 X-27.440 Y13.226 E10.38638
G1 X-27.901 Y13.032 E10.43682
G1 X-28.466 Y12.750 E10.50041
G1 X-28.998 Y12.434 E10.56279
G1 X-29.586 Y12.023 E10.63506
G1 X-30.122 Y11.578 E10.70525
G1 X-30.550 Y11.166 E10.76513
G1 X-30.906 Y10.776 E10.81828
G1 X-31.274 Y10.316 E10.87769
G1 X-31.653 Y9.768 E10.94482
G1 X-31.960 Y9.244 E11.00597
G1 X-32.233 Y8.695 E11.06777
G1 X-32.474 Y8.111 E11.13147
G1 X-32.690 Y7.452 E11.20131
G1 X-32.845 Y6.829 E11.26600
G1 X-32.943 Y6.271 E11.32302
G1 X-33.004 Y5.740 E11.37696
G1 X-33.039 Y4.953 E11.45630
G1 X-33.031 Y-5.303 E12.48961
G1 X-32.945 Y-6.256 E12.58597
G1 X-32.805 Y-7.009 E12.66317
G1 X-32.690 Y-7.452 E12.70933
G1 X-32.516 Y-7.995 E12.76672
G1 X-32.233 Y-8.695 E12.84279
G1 X-31.976 Y-9.216 E12.90138
G1 X-31.731 Y-9.642 E12.95088
G1 X-31.266 Y-10.328 E13.03434
G1 X-30.925 Y-10.753 E13.08930
G1 X-30.568 Y-11.147 E13.14282
G1 X-30.033 Y-11.658 E13.21740
G1 X-29.538 Y-12.060 E13.28164
G1 X-28.998 Y-12.434 E13.34778
G1 X-28.457 Y-12.754 E13.41112
G1 X-27.901 Y-13.032 E13.47377
G1 X-27.324 Y-13.271 E13.53671
G1 X-26.754 Y-13.461 E13.59720
G1 X-26.180 Y-13.611 E13.65701
G1 X-25.491 Y-13.738 E13.72763
G1 X-24.762 Y-13.814 E13.80147
G1 X-1.286 Y-15.275 E16.17128
G1 X-0.340 Y-15.311 E16.26672
G1 E14.26672 F2400.00000
G92 E0
G1 Z2.600 F7800.000
G1 X-0.163 Y-10.846 F7800.000
G1 Z0.600 F7800.000
G1 E2.00000 F2400.00000
G1 F1800
G1 X0.975 Y-10.823 E2.10711
G1 X2.283 Y-10.708 E2.23058
G1 X3.275 Y-10.551 E2.32508
G1 X4.325 Y-10.324 E2.42610
G1 X5.277 Y-10.059 E2.51906
G1 X6.326 Y-9.701 E2.62326
G1 X7.333 Y-9.286 E2.72576
G1 X8.435 Y-8.754 E2.84085
G1 X9.598 Y-8.064 E2.96802
G1 X10.578 Y-7.394 E3.07971
G1 X11.523 Y-6.649 E3.19285
G1 X12.507 Y-5.753 E3.31806
G1 X13.397 Y-4.812 E3.43981
G1 X14.128 Y-3.925 E3.54797
G1 X14.858 Y-2.907 E3.66576
G1 X15.491 Y-1.875 E3.77964
G1 X15.688 Y-1.456 E3.82311
G1 X15.846 Y-0.971 E3.87112
G1 X15.952 Y-0.397 E3.92602
G1 X15.969 Y0.068 E3.96978
G1 X15.908 Y0.705 E4.03001
G1 X15.772 Y1.259 E4.08363
G1 X15.554 Y1.755 E4.13458
G1 X15.426 Y1.991 E4.15985
G1 X14.885 Y2.866 E4.25660
G1 X14.342 Y3.643 E4.34576
G1 X13.706 Y4.451 E4.44244
G1 X13.025 Y5.221 E4.53911
G1 X12.267 Y5.984 E4.64033
G1 X11.484 Y6.683 E4.73906
G1 X10.708 Y7.298 E4.83215
G1 X9.916 Y7.858 E4.92334
G1 X8.787 Y8.550 E5.04788
G1 X7.684 Y9.124 E5.16488
G1 X6.988 Y9.437 E5.23666
G1 X6.407 Y9.671 E5.29552
G1 X5.154 Y10.097 E5.42006
G1 X4.395 Y10.306 E5.49404
G1 X3.794 Y10.446 E5.55210
G1 X3.071 Y10.588 E5.62141
G1 X2.462 Y10.682 E5.67934
G1 X1.267 Y10.805 E5.79232
G1 X-0.056 Y10.847 E5.91688
G1 X-1.037 Y10.814 E6.00920
G1 X-24.728 Y9.333 E8.24170
G1 X-25.114 Y9.272 E8.27844
G1 X-25.692 Y9.111 E8.33490
G1 X-26.176 Y8.908 E8.38427
G1 X-26.522 Y8.716 E8.42153
G1 X-26.940 Y8.423 E8.46955
G1 X-27.257 Y8.143 E8.50923
G1 X-27.611 Y7.753 E8.55883
G1 X-27.842 Y7.436 E8.59569
G1 X-28.138 Y6.910 E8.65245
G1 X-28.356 Y6.355 E8.70861
G1 X-28.502 Y5.762 E8.76600
G1 X-28.565 Y5.205 E8.81873
G1 X-28.560 Y-5.285 E9.80532
G1 X-28.498 Y-5.785 E9.85273
G1 X-28.357 Y-6.354 E9.90786
G1 X-28.224 Y-6.717 E9.94424
G1 X-28.004 Y-7.170 E9.99160
G1 X-27.786 Y-7.519 E10.03026
G1 X-27.407 Y-7.990 E10.08711
G1 X-27.028 Y-8.351 E10.13639
G1 X-26.697 Y-8.601 E10.17537
G1 X-26.256 Y-8.867 E10.22386
G1 X-25.699 Y-9.109 E10.28095
G1 X-25.123 Y-9.270 E10.33722
G1 X-24.540 Y-9.351 E10.39253
G1 X-0.971 Y-10.818 E12.61358
G1 X-0.283 Y-10.844 E12.67827
G1 X-0.151 Y-9.846 F7800.000
G1 F1800
G1 X0.929 Y-9.824 E12.77993
G1 X2.155 Y-9.716 E12.89566
G1 X3.331 Y-9.521 E13.00779
G1 X4.374 Y-9.278 E13.10852
G1 X5.539 Y-8.922 E13.22303
G1 X6.506 Y-8.554 E13.32041
G1 X7.453 Y-8.125 E13.41815
G1 X8.043 Y-7.825 E13.48036
G1 X8.471 Y-7.580 E13.52685
G1 X9.479 Y-6.946 E13.63878
G1 X10.346 Y-6.316 E13.73959
G1 X11.245 Y-5.566 E13.84975
G1 X12.024 Y-4.822 E13.95102
G1 X12.725 Y-4.062 E14.04825
G1 X13.499 Y-3.100 E14.16441
G1 X14.090 Y-2.254 E14.26146
G1 X14.630 Y-1.363 E14.35943
G1 X14.818 Y-0.922 E14.40453
G1 X14.937 Y-0.430 E14.45211
G1 X14.969 Y0.056 E14.49796
G1 X14.922 Y0.533 E14.54306
G1 X14.813 Y0.957 E14.58423
G1 X14.656 Y1.314 E14.62090
G1 X14.051 Y2.314 E14.73087
G1 X13.537 Y3.049 E14.81521
G1 X12.949 Y3.798 E14.90473
G1 X12.371 Y4.456 E14.98712
G1 X11.766 Y5.078 E15.06874
G1 X11.059 Y5.730 E15.15916
G1 X10.404 Y6.272 E15.23914
G1 X9.622 Y6.848 E15.33051
G1 X8.896 Y7.325 E15.41217
G1 X7.921 Y7.885 E15.51789
G1 X6.874 Y8.395 E15.62750
G1 X5.746 Y8.850 E15.74181
G1 X4.627 Y9.209 E15.85241
G1 X3.439 Y9.500 E15.96747
G1 X2.296 Y9.696 E16.07646
G1 X1.025 Y9.819 E16.19657
G1 X-0.118 Y9.846 E16.30412
G1 X-0.987 Y9.815 E16.38590
G1 X-24.621 Y8.339 E18.61305
G1 X-24.906 Y8.294 E18.64022
G1 X-25.354 Y8.170 E18.68396
G1 X-25.738 Y8.008 E18.72313
G1 X-25.992 Y7.868 E18.75042
G1 X-26.377 Y7.592 E18.79492
G1 X-26.672 Y7.312 E18.83318
G1 X-26.865 Y7.083 E18.86138
G1 X-27.094 Y6.746 E18.89975
G1 X-27.304 Y6.326 E18.94387
G1 X-27.401 Y6.058 E18.97071
G1 X-27.506 Y5.651 E19.01020
G1 X-27.566 Y5.158 E19.05690
G1 X-27.563 Y-5.208 E20.03183
G1 X-27.513 Y-5.614 E20.07032
G1 X-27.401 Y-6.057 E20.11335
G1 X-27.304 Y-6.326 E20.14021
G1 X-27.099 Y-6.738 E20.18349
G1 X-26.859 Y-7.092 E20.22370
G1 X-26.624 Y-7.361 E20.25731
G1 X-26.330 Y-7.630 E20.29480
G1 X-25.993 Y-7.867 E20.33351
G1 X-25.737 Y-8.009 E20.36110
G1 X-25.309 Y-8.186 E20.40463
G1 X-24.911 Y-8.292 E20.44332
G1 X-24.456 Y-8.354 E20.48654
G1 X-0.925 Y-9.819 E22.70403
G1 X-0.271 Y-9.844 E22.76552
G1 X-0.138 Y-8.846 F7800.000
G1 F1800
G1 X0.884 Y-8.825 E22.86166
G1 X2.027 Y-8.723 E22.96965
G1 X3.137 Y-8.541 E23.07541
G1 X4.126 Y-8.310 E23.17091
G1 X5.216 Y-7.976 E23.27819
G1 X6.127 Y-7.629 E23.36981
G1 X7.006 Y-7.230 E23.46063
G1 X7.972 Y-6.713 E23.56363
G1 X8.919 Y-6.117 E23.66892
G1 X9.734 Y-5.526 E23.76359
G1 X10.579 Y-4.820 E23.86712
G1 X11.312 Y-4.119 E23.96258
G1 X11.966 Y-3.411 E24.05321
G1 X12.634 Y-2.586 E24.15303
G1 X13.202 Y-1.784 E24.24548
G1 X13.750 Y-0.889 E24.34416
G1 X13.880 Y-0.574 E24.37625
G1 X13.962 Y-0.175 E24.41454
G1 X13.953 Y0.247 E24.45425
G1 X13.854 Y0.656 E24.49377
G1 X13.747 Y0.896 E24.51853
G1 X13.415 Y1.453 E24.57953
G1 X12.964 Y2.134 E24.65632
G1 X12.612 Y2.616 E24.71247
G1 X12.078 Y3.281 E24.79270
G1 X11.636 Y3.779 E24.85532
G1 X11.100 Y4.331 E24.92772
G1 X10.493 Y4.896 E25.00563
G1 X9.787 Y5.485 E25.09216
G1 X9.260 Y5.879 E25.15405
G1 X8.601 Y6.328 E25.22907
G1 X7.923 Y6.741 E25.30373
G1 X6.969 Y7.248 E25.40528
G1 X6.049 Y7.661 E25.50015
G1 X5.048 Y8.033 E25.60059
G1 X4.056 Y8.328 E25.69797
G1 X3.044 Y8.559 E25.79555
G1 X2.055 Y8.718 E25.88974
G1 X0.966 Y8.820 E25.99270
G1 X-0.102 Y8.846 E26.09315
G1 X-0.936 Y8.816 E26.17165
G1 X-24.513 Y7.345 E28.39345
G1 X-24.698 Y7.315 E28.41105
G1 X-25.016 Y7.229 E28.44207
G1 X-25.461 Y7.020 E28.48830
G1 X-25.728 Y6.831 E28.51905
G1 X-25.947 Y6.623 E28.54742
G1 X-26.238 Y6.229 E28.59350
G1 X-26.383 Y5.934 E28.62440
G1 X-26.487 Y5.623 E28.65529
G1 X-26.549 Y5.297 E28.68646
G1 X-26.571 Y4.967 E28.71761
G1 X-26.567 Y-5.112 E29.66550
G1 X-26.527 Y-5.442 E29.69683
G1 X-26.446 Y-5.761 E29.72775
G1 X-26.383 Y-5.934 E29.74510
G1 X-26.240 Y-6.226 E29.77569
G1 X-26.065 Y-6.483 E29.80492
G1 X-25.849 Y-6.723 E29.83528
G1 X-25.711 Y-6.845 E29.85262
G1 X-25.444 Y-7.030 E29.88312
G1 X-25.170 Y-7.170 E29.91209
G1 X-24.861 Y-7.277 E29.94285
G1 X-24.363 Y-7.358 E29.99027
G1 X-0.878 Y-8.820 E32.20335
G1 X-0.258 Y-8.844 E32.26172
G1 E30.26172 F2400.00000
G92 E0
G1 Z2.600 F7800.000
G1 X12.682 Y-0.328 F7800.000
G1 Z0.600 F7800.000
G1 E2.00000 F2400.00000
G1 F1800
G1 X12.738 Y-0.178 E2.01609
G1 X12.761 Y-0.020 E2.03224
G1 X12.748 Y0.131 E2.04751
G1 X12.679 Y0.331 E2.06882
G1 X12.397 Y0.810 E2.12474
G1 X11.976 Y1.446 E2.20160
G1 X11.556 Y2.013 E2.27273
G1 X11.157 Y2.506 E2.33664
G1 X10.752 Y2.961 E2.39805
G1 X10.255 Y3.473 E2.46987
G1 X9.796 Y3.905 E2.53345
G1 X9.233 Y4.386 E2.60805
G1 X8.755 Y4.758 E2.66902
G1 X8.155 Y5.181 E2.74305
G1 X7.639 Y5.510 E2.80462
G1 X6.996 Y5.880 E2.87945
G1 X6.176 Y6.292 E2.97183
G1 X5.274 Y6.674 E3.07053
G1 X4.416 Y6.972 E3.16206
G1 X3.606 Y7.201 E3.24691
G1 X2.665 Y7.405 E3.34393
G1 X1.711 Y7.548 E3.44112
G1 X0.740 Y7.627 E3.53923
G1 X-0.088 Y7.642 E3.62263
G1 X-0.876 Y7.614 E3.70216
G1 X-24.255 Y6.159 E6.06222
G1 X-24.549 Y6.112 E6.09216
G1 X-24.692 Y6.063 E6.10737
G1 X-24.956 Y5.905 E6.13839
G1 X-25.057 Y5.809 E6.15241
G1 X-25.205 Y5.606 E6.17770
G1 X-25.322 Y5.313 E6.20960
G1 X-25.355 Y5.138 E6.22746
G1 X-25.364 Y-5.047 E7.25364
G1 X-25.302 Y-5.381 E7.28785
G1 X-25.180 Y-5.647 E7.31730
G1 X-25.012 Y-5.855 E7.34431
G1 X-24.772 Y-6.024 E7.37386
G1 X-24.538 Y-6.114 E7.39909
G1 X-24.255 Y-6.159 E7.42798
G1 X-0.823 Y-7.617 E9.79343
G1 X0.023 Y-7.642 E9.87873
G1 X1.047 Y-7.609 E9.98195
G1 X1.872 Y-7.528 E10.06549
G1 X2.903 Y-7.359 E10.17065
G1 X3.819 Y-7.145 E10.26551
G1 X4.827 Y-6.837 E10.37169
G1 X5.667 Y-6.517 E10.46221
G1 X6.470 Y-6.151 E10.55117
G1 X7.368 Y-5.671 E10.65376
G1 X8.245 Y-5.120 E10.75811
G1 X8.995 Y-4.575 E10.85150
G1 X9.776 Y-3.923 E10.95404
G1 X10.455 Y-3.274 E11.04861
G1 X11.053 Y-2.625 E11.13751
G1 X11.737 Y-1.776 E11.24735
G1 X12.245 Y-1.048 E11.33686
G1 X12.620 Y-0.430 E11.40964
G1 X12.590 Y-0.197 F7800.000
G1 X11.629 Y0.003 F7800.000
G1 F1800
G1 X11.099 Y0.831 E11.50875
G1 X10.710 Y1.357 E11.57463
G1 X10.340 Y1.812 E11.63374
G1 X9.967 Y2.232 E11.69038
G1 X9.504 Y2.709 E11.75735
G1 X9.080 Y3.108 E11.81590
G1 X8.556 Y3.556 E11.88539
G1 X8.117 Y3.897 E11.94137
G1 X7.558 Y4.292 E12.01040
G1 X7.084 Y4.594 E12.06698
G1 X6.488 Y4.937 E12.13629
G1 X5.727 Y5.319 E12.22210
G1 X4.889 Y5.673 E12.31374
G1 X4.094 Y5.950 E12.39853
G1 X3.346 Y6.161 E12.47683
G1 X2.472 Y6.351 E12.56697
G1 X1.588 Y6.483 E12.65702
G1 X0.686 Y6.556 E12.74818
G1 X-0.078 Y6.571 E12.82524
G1 X-0.824 Y6.544 E12.90038
G1 X-24.296 Y5.083 E15.26990
G1 X-24.292 Y-5.083 E16.29420
G1 X-0.774 Y-6.547 E18.66835
G1 X0.022 Y-6.571 E18.74852
G1 X0.978 Y-6.539 E18.84489
G1 X1.734 Y-6.466 E18.92143
G1 X2.694 Y-6.308 E19.01945
G1 X3.540 Y-6.110 E19.10703
G1 X4.479 Y-5.823 E19.20595
G1 X5.254 Y-5.527 E19.28951
G1 X5.996 Y-5.190 E19.37160
G1 X6.830 Y-4.744 E19.46690
G1 X7.644 Y-4.232 E19.56386
G1 X8.336 Y-3.730 E19.64999
G1 X9.062 Y-3.124 E19.74525
G1 X9.690 Y-2.523 E19.83281
G1 X10.241 Y-1.926 E19.91469
G1 X10.879 Y-1.133 E20.01722
G1 X11.347 Y-0.463 E20.09955
G1 X11.567 Y-0.100 E20.14236
G1 X10.364 Y0.000 F7800.000
G1 F1800
G1 X9.863 Y0.700 E20.22910
G1 X9.523 Y1.119 E20.28341
G1 X9.181 Y1.503 E20.33527
G1 X8.752 Y1.946 E20.39739
G1 X8.365 Y2.310 E20.45092
G1 X7.879 Y2.725 E20.51530
G1 X7.480 Y3.035 E20.56628
G1 X6.960 Y3.402 E20.63031
G1 X6.529 Y3.677 E20.68189
G1 X5.980 Y3.993 E20.74570
G1 X5.277 Y4.346 E20.82493
G1 X4.504 Y4.673 E20.90951
G1 X3.772 Y4.928 E20.98756
G1 X3.087 Y5.121 E21.05933
G1 X2.279 Y5.297 E21.14258
G1 X1.465 Y5.418 E21.22549
G1 X0.633 Y5.486 E21.30968
G1 X-0.069 Y5.499 E21.38040
G1 X-0.771 Y5.474 E21.45117
G1 X-23.225 Y4.076 E23.71781
G1 X-23.222 Y-4.077 E24.53927
G1 X-0.725 Y-5.477 E26.81029
G1 X0.020 Y-5.499 E26.88533
G1 X0.908 Y-5.470 E26.97485
G1 X1.595 Y-5.403 E27.04439
G1 X2.485 Y-5.257 E27.13527
G1 X3.261 Y-5.075 E27.21557
G1 X4.131 Y-4.809 E27.30723
G1 X4.841 Y-4.538 E27.38382
G1 X5.521 Y-4.229 E27.45905
G1 X6.291 Y-3.818 E27.54706
G1 X7.044 Y-3.344 E27.63662
G1 X7.677 Y-2.884 E27.71549
G1 X8.347 Y-2.324 E27.80348
G1 X8.925 Y-1.772 E27.88402
G1 X9.429 Y-1.226 E27.95890
G1 X10.022 Y-0.490 E28.05411
G1 X10.295 Y-0.098 E28.10221
G1 E26.10221 F2400.00000
G92 E0
G1 Z2.600 F7800.000
G1 X7.581 Y1.601 F7800.000
G1 Z0.600 F7800.000
G1 E2.00000 F2400.00000
G1 F1800
G1 X8.813 Y0.358 E2.18199
G1 X9.123 Y0.008 E2.23059
G1 X9.460 Y-0.413 E2.28674
G1 X9.034 Y-0.942 E2.35746
G1 X8.807 Y-1.189 E2.39227
G1 X3.436 Y4.182 E3.18216
G1 X3.034 Y4.322 E3.22650
G1 X2.411 Y4.498 E3.29383
G1 X1.670 Y4.659 E3.37266
G1 X1.348 Y4.707 E3.40654
G1 X8.021 Y-1.966 E4.38799
G1 X7.435 Y-2.455 E4.46739
G1 X7.152 Y-2.661 E4.50376
G1 X-0.351 Y4.842 E5.60725
G1 X-1.135 Y4.820 E5.68886
G1 X-1.849 Y4.776 E5.76322
G1 X6.209 Y-3.282 E6.94840
G1 X5.463 Y-3.685 E7.03661
G1 X5.178 Y-3.815 E7.06917
G1 X-3.321 Y4.684 E8.31919
G1 X-4.793 Y4.593 E8.47258
G1 X4.056 Y-4.256 E9.77403
G1 X3.399 Y-4.457 E9.84550
G1 X2.827 Y-4.591 E9.90657
G1 X-6.265 Y4.501 E11.24380
G1 X-7.737 Y4.410 E11.39719
G1 X1.468 Y-4.796 E12.75113
G1 X0.435 Y-4.844 E12.85871
G1 X-0.063 Y-4.829 E12.91046
G1 X-9.210 Y4.318 E14.25577
G1 X-10.682 Y4.226 E14.40917
G1 X-1.723 Y-4.732 E15.72674
G1 X-3.391 Y-4.628 E15.90050
G1 X-12.154 Y4.135 E17.18933
G1 X-13.626 Y4.043 E17.34273
G1 X-5.058 Y-4.524 E18.60282
G1 X-6.726 Y-4.421 E18.77658
G1 X-15.098 Y3.951 E20.00794
G1 X-16.570 Y3.860 E20.16134
G1 X-8.394 Y-4.317 E21.36395
G1 X-10.061 Y-4.213 E21.53771
G1 X-18.042 Y3.768 E22.71158
G1 X-19.515 Y3.677 E22.86498
G1 X-11.729 Y-4.109 E24.01012
G1 X-13.396 Y-4.006 E24.18388
G1 X-20.987 Y3.585 E25.30028
G1 X-22.459 Y3.493 E25.45367
G1 X-15.064 Y-3.902 E26.54133
G1 X-16.731 Y-3.798 E26.71509
G1 X-22.569 Y2.040 E27.57371
G1 X-22.569 Y0.476 E27.73641
G1 X-18.399 Y-3.694 E28.34968
G1 X-20.066 Y-3.590 E28.52344
G1 X-22.568 Y-1.089 E28.89137
G1 X-22.567 Y-2.653 E29.05406
G1 X-21.734 Y-3.487 E29.17663
G1 E27.17663 F2400.00000
G92 E0
G1 Z2.600 F7800.000
G1 X-18.436 Y2.987 F7800.000
G1 Z1.000 F7800.000
G1 E2.00000 F2400.00000
G1 F3600
G1 X-18.436 Y-2.987 E2.38738
G1 X-23.817 Y-2.988 E2.73628
G1 X-23.817 Y-4.673 E2.84557
G1 X-0.911 Y-6.184 E4.33407
G1 X0.175 Y-6.214 E4.40456
G1 X1.117 Y-6.170 E4.46567
G1 X2.025 Y-6.066 E4.52497
G1 X2.755 Y-5.936 E4.57301
G1 X3.726 Y-5.698 E4.63787
G1 X4.529 Y-5.444 E4.69248
G1 X5.312 Y-5.141 E4.74694
G1 X6.055 Y-4.800 E4.79992
G1 X6.875 Y-4.355 E4.86043
G1 X7.555 Y-3.931 E4.91241
