; generated by Slic3r 1.3.1-dev (Build (Unknown revision)) on 2022-02-17 at 15:47:38

; external perimeters extrusion width = 0.88mm (9.53mm^3/s)
; perimeters extrusion width = 1.12mm (24.82mm^3/s)
; infill extrusion width = 1.00mm (29.25mm^3/s)
; solid infill extrusion width = 1.12mm (8.27mm^3/s)
; top infill extrusion width = 1.12mm (6.20mm^3/s)

G92 E0
G28 ; Home axis
G29 ; Probe bed
G1 Z5 F5000 ; lift nozzle
M107
M109 S200 ; Set temp

; Filament gcode

G21 ; set units to millimeters
G90 ; use absolute coordinates
M82 ; use absolute distances for extrusion
G92 E0
M106 S255
G1 E-2.00000 F2400.00000
G92 E0
G1 Z2.000 F7800.000
G1 X-0.093 Y-14.885 F7800.000
G1 Z0.400 F7800.000
G1 E2.00000 F2400.00000
G1 F1800.000
G1 X1.252 Y-14.852 E2.06024
G1 X1.946 Y-14.803 E2.09140
G1 X2.758 Y-14.716 E2.12799
G1 X4.093 Y-14.506 E2.18851
G1 X4.869 Y-14.344 E2.22401
G1 X5.598 Y-14.165 E2.25762
G1 X6.889 Y-13.782 E2.31790
G1 X7.625 Y-13.523 E2.35285
G1 X8.364 Y-13.234 E2.38838
G1 X9.571 Y-12.691 E2.44764
G1 X10.234 Y-12.353 E2.48096
G1 X10.951 Y-11.956 E2.51767
G1 X12.110 Y-11.235 E2.57877
G1 X12.740 Y-10.799 E2.61310
G1 X13.369 Y-10.330 E2.64825
G1 X14.491 Y-9.398 E2.71354
G1 X15.541 Y-8.402 E2.77835
G1 X16.479 Y-7.386 E2.84026
G1 X16.972 Y-6.797 E2.87469
G1 X17.408 Y-6.238 E2.90639
G1 X18.209 Y-5.104 E2.96857
G1 X18.944 Y-3.900 E3.03176
G1 X19.328 Y-3.108 E3.07115
G1 X19.624 Y-2.278 E3.11061
G1 X19.826 Y-1.434 E3.14946
G1 X19.937 Y-0.554 E3.18918
G1 X19.956 Y-0.037 E3.21236
G1 X19.947 Y0.378 E3.23095
G1 X19.858 Y1.245 E3.26998
G1 X19.724 Y1.910 E3.30037
G1 X19.462 Y2.767 E3.34048
G1 X19.182 Y3.437 E3.37300
G1 X18.948 Y3.893 E3.39597
G1 X18.593 Y4.498 E3.42737
G1 X17.887 Y5.579 E3.48519
G1 X17.131 Y6.598 E3.54200
G1 X16.333 Y7.553 E3.59774
G1 X15.562 Y8.379 E3.64833
G1 X14.725 Y9.188 E3.70047
G1 X13.817 Y9.974 E3.75423
G1 X13.090 Y10.542 E3.79553
G1 X12.335 Y11.083 E3.83714
G1 X11.585 Y11.574 E3.87726
G1 X10.790 Y12.047 E3.91869
G1 X9.999 Y12.476 E3.95896
G1 X9.172 Y12.880 E4.00018
G1 X8.302 Y13.259 E4.04268
G1 X7.415 Y13.600 E4.08523
G1 X6.542 Y13.893 E4.12648
G1 X5.644 Y14.152 E4.16834
G1 X4.685 Y14.385 E4.21253
G1 X3.799 Y14.560 E4.25296
G1 X2.963 Y14.689 E4.29084
G1 X2.034 Y14.795 E4.33273
G1 X1.090 Y14.861 E4.37509
G1 X0.212 Y14.885 E4.41444
G1 X-0.564 Y14.876 E4.44918
G1 X-1.288 Y14.844 E4.48163
G1 X-24.686 Y13.405 E5.53136
G1 X-25.423 Y13.327 E5.56454
G1 X-26.054 Y13.210 E5.59328
G1 X-26.802 Y13.006 E5.62798
G1 X-27.530 Y12.733 E5.66280
G1 X-28.354 Y12.325 E5.70398
G1 X-28.763 Y12.078 E5.72537
G1 X-29.221 Y11.762 E5.75029
G1 X-29.752 Y11.335 E5.78080
G1 X-30.237 Y10.875 E5.81074
G1 X-30.691 Y10.367 E5.84123
G1 X-30.998 Y9.972 E5.86365
G1 X-31.416 Y9.344 E5.89740
G1 X-31.699 Y8.833 E5.92358
G1 X-31.923 Y8.355 E5.94724
G1 X-32.133 Y7.822 E5.97287
G1 X-32.300 Y7.300 E5.99741
G1 X-32.448 Y6.701 E6.02503
G1 X-32.539 Y6.188 E6.04838
G1 X-32.601 Y5.654 E6.07243
G1 X-32.634 Y4.900 E6.10622
G1 X-32.627 Y-5.243 E6.56045
G1 X-32.545 Y-6.151 E6.60125
G1 X-32.414 Y-6.856 E6.63335
G1 X-32.300 Y-7.300 E6.65389
G1 X-32.133 Y-7.822 E6.67843
G1 X-31.857 Y-8.503 E6.71131
G1 X-31.463 Y-9.265 E6.74975
G1 X-31.115 Y-9.810 E6.77871
G1 X-30.926 Y-10.070 E6.79308
G1 X-30.613 Y-10.461 E6.81552
G1 X-30.234 Y-10.878 E6.84075
G1 X-29.744 Y-11.342 E6.87099
G1 X-29.310 Y-11.695 E6.89603
G1 X-28.756 Y-12.083 E6.92632
G1 X-28.234 Y-12.391 E6.95346
G1 X-27.572 Y-12.715 E6.98645
G1 X-26.895 Y-12.975 E7.01891
G1 X-26.175 Y-13.182 E7.05245
G1 X-25.581 Y-13.303 E7.07961
G1 X-25.032 Y-13.376 E7.10443
G1 X-1.253 Y-14.846 E8.17125
G1 X-0.213 Y-14.883 E8.21785
G1 E6.21785 F2400.00000
G92 E0
G1 Z2.400 F7800.000
G1 X-0.174 Y-11.835 F7800.000
G1 Z0.400 F7800.000
G1 E2.00000 F2400.00000
G1 F1800.000
G1 X1.054 Y-11.810 E2.06161
G1 X2.426 Y-11.689 E2.13067
G1 X3.468 Y-11.522 E2.18364
G1 X4.404 Y-11.322 E2.23162
G1 X5.542 Y-11.011 E2.29082
G1 X6.632 Y-10.640 E2.34858
G1 X7.595 Y-10.248 E2.40073
G1 X8.787 Y-9.684 E2.46686
G1 X10.042 Y-8.943 E2.53999
G1 X11.127 Y-8.203 E2.60589
G1 X12.123 Y-7.418 E2.66950
G1 X12.629 Y-6.974 E2.70324
G1 X13.153 Y-6.478 E2.73942
G1 X14.098 Y-5.478 E2.80847
G1 X14.863 Y-4.549 E2.86880
G1 X15.633 Y-3.473 E2.93519
G1 X16.065 Y-2.790 E2.97574
G1 X16.302 Y-2.379 E2.99952
G1 X16.552 Y-1.847 E3.02900
G1 X16.756 Y-1.217 E3.06223
G1 X16.885 Y-0.515 E3.09800
G1 X16.907 Y-0.078 E3.11995
G1 X16.895 Y0.361 E3.14202
G1 X16.834 Y0.883 E3.16838
G1 X16.667 Y1.580 E3.20430
G1 X16.385 Y2.221 E3.23944
G1 X15.900 Y3.056 E3.28788
G1 X15.350 Y3.888 E3.33788
G1 X14.706 Y4.750 E3.39189
G1 X14.018 Y5.569 E3.44552
G1 X13.337 Y6.295 E3.49549
G1 X12.573 Y7.025 E3.54846
G1 X11.605 Y7.841 E3.61196
G1 X10.746 Y8.476 E3.66555
G1 X10.193 Y8.847 E3.69895
G1 X9.534 Y9.253 E3.73779
G1 X8.962 Y9.577 E3.77077
G1 X8.295 Y9.921 E3.80839
G1 X7.731 Y10.187 E3.83971
G1 X6.979 Y10.506 E3.88065
G1 X6.245 Y10.781 E3.92001
G1 X5.619 Y10.988 E3.95306
G1 X4.875 Y11.202 E3.99189
G1 X4.221 Y11.365 E4.02569
G1 X3.446 Y11.526 E4.06543
G1 X2.803 Y11.633 E4.09809
G1 X2.108 Y11.723 E4.13328
G1 X1.396 Y11.789 E4.16912
G1 X0.591 Y11.829 E4.20955
G1 X-0.057 Y11.837 E4.24208
G1 X-1.064 Y11.804 E4.29261
G1 X-24.530 Y10.361 E5.47190
G1 X-24.913 Y10.322 E5.49123
G1 X-25.526 Y10.203 E5.52257
G1 X-26.021 Y10.052 E5.54849
G1 X-26.578 Y9.817 E5.57881
G1 X-27.043 Y9.561 E5.60546
G1 X-27.549 Y9.206 E5.63649
G1 X-27.945 Y8.857 E5.66292
G1 X-28.226 Y8.564 E5.68330
G1 X-28.623 Y8.054 E5.71573
G1 X-28.839 Y7.714 E5.73594
G1 X-29.012 Y7.392 E5.75428
G1 X-29.287 Y6.727 E5.79037
G1 X-29.391 Y6.387 E5.80821
G1 X-29.481 Y6.000 E5.82811
G1 X-29.571 Y5.315 E5.86280
G1 X-29.586 Y4.926 E5.88232
G1 X-29.586 Y-4.933 E6.37683
G1 X-29.571 Y-5.316 E6.39606
G1 X-29.497 Y-5.915 E6.42635
G1 X-29.323 Y-6.617 E6.46264
G1 X-29.153 Y-7.083 E6.48752
G1 X-28.899 Y-7.608 E6.51679
G1 X-28.597 Y-8.092 E6.54541
G1 X-28.225 Y-8.565 E6.57557
G1 X-27.854 Y-8.943 E6.60213
G1 X-27.341 Y-9.362 E6.63535
G1 X-27.037 Y-9.564 E6.65369
G1 X-26.704 Y-9.754 E6.67292
G1 X-26.039 Y-10.046 E6.70935
G1 X-25.622 Y-10.178 E6.73125
G1 X-25.295 Y-10.257 E6.74812
G1 X-24.588 Y-10.356 E6.78396
G1 X-1.017 Y-11.807 E7.96855
G1 X-0.294 Y-11.834 E8.00485
G1 X-0.278 Y-11.034 F7800.000
G1 F1800.000
G1 X0.823 Y-11.020 E8.06009
G1 X2.045 Y-10.926 E8.12160
G1 X3.084 Y-10.778 E8.17421
G1 X4.217 Y-10.544 E8.23227
G1 X5.311 Y-10.246 E8.28911
G1 X6.380 Y-9.880 E8.34578
G1 X7.259 Y-9.522 E8.39345
G1 X8.477 Y-8.939 E8.46114
G1 X9.670 Y-8.231 E8.53074
G1 X10.654 Y-7.558 E8.59056
G1 X11.604 Y-6.809 E8.65123
G1 X12.594 Y-5.907 E8.71840
G1 X13.501 Y-4.946 E8.78466
G1 X14.224 Y-4.067 E8.84176
G1 X14.968 Y-3.027 E8.90592
G1 X15.588 Y-2.017 E8.96539
G1 X15.809 Y-1.549 E8.99135
G1 X15.979 Y-1.023 E9.01906
G1 X16.089 Y-0.426 E9.04949
G1 X16.107 Y0.073 E9.07458
G1 X16.044 Y0.746 E9.10849
G1 X15.900 Y1.338 E9.13904
G1 X15.667 Y1.868 E9.16809
G1 X15.554 Y2.080 E9.18012
G1 X14.995 Y2.987 E9.23356
G1 X14.444 Y3.777 E9.28186
G1 X13.827 Y4.564 E9.33202
G1 X13.192 Y5.289 E9.38035
G1 X12.480 Y6.017 E9.43147
G1 X11.635 Y6.782 E9.48864
G1 X10.805 Y7.446 E9.54197
G1 X10.032 Y7.995 E9.58952
G1 X9.501 Y8.338 E9.62122
G1 X8.872 Y8.711 E9.65790
G1 X7.758 Y9.293 E9.72095
G1 X7.059 Y9.608 E9.75941
G1 X6.478 Y9.844 E9.79088
G1 X5.205 Y10.278 E9.85832
G1 X4.450 Y10.487 E9.89765
G1 X3.862 Y10.625 E9.92792
G1 X3.104 Y10.775 E9.96669
G1 X2.498 Y10.869 E9.99745
G1 X1.300 Y10.994 E10.05785
G1 X0.563 Y11.030 E10.09487
G1 X-0.050 Y11.037 E10.12561
G1 X-1.024 Y11.005 E10.17449
G1 X-24.474 Y9.563 E11.35300
G1 X-24.801 Y9.530 E11.36950
G1 X-25.334 Y9.426 E11.39674
G1 X-25.747 Y9.301 E11.41838
G1 X-26.230 Y9.097 E11.44469
G1 X-26.618 Y8.883 E11.46689
G1 X-27.056 Y8.576 E11.49376
G1 X-27.385 Y8.286 E11.51574
G1 X-27.764 Y7.869 E11.54401
G1 X-27.999 Y7.549 E11.56393
G1 X-28.148 Y7.311 E11.57803
G1 X-28.330 Y6.964 E11.59767
G1 X-28.559 Y6.380 E11.62913
G1 X-28.713 Y5.752 E11.66154
G1 X-28.779 Y5.164 E11.69124
G1 X-28.774 Y-5.254 E12.21380
G1 X-28.708 Y-5.778 E12.24029
G1 X-28.559 Y-6.380 E12.27141
G1 X-28.417 Y-6.769 E12.29222
G1 X-28.162 Y-7.286 E12.32109
G1 X-27.919 Y-7.665 E12.34368
G1 X-27.541 Y-8.128 E12.37368
G1 X-27.145 Y-8.503 E12.40102
G1 X-26.796 Y-8.767 E12.42299
G1 X-26.239 Y-9.092 E12.45531
G1 X-25.706 Y-9.315 E12.48429
G1 X-25.127 Y-9.475 E12.51443
G1 X-24.519 Y-9.559 E12.54521
G1 X-0.398 Y-11.031 E13.75740
G1 X-0.375 Y-10.231 F7800.000
G1 F1800.000
G1 X0.652 Y-10.227 E13.80893
G1 X1.896 Y-10.137 E13.87152
G1 X2.945 Y-9.990 E13.92461
G1 X4.031 Y-9.766 E13.98026
G1 X5.079 Y-9.480 E14.03475
G1 X6.096 Y-9.132 E14.08866
G1 X7.203 Y-8.670 E14.14882
G1 X8.167 Y-8.194 E14.20278
G1 X9.321 Y-7.505 E14.27019
G1 X10.283 Y-6.837 E14.32894
G1 X11.189 Y-6.111 E14.38716
G1 X12.034 Y-5.335 E14.44474
G1 X12.903 Y-4.415 E14.50820
G1 X13.590 Y-3.579 E14.56248
G1 X14.304 Y-2.582 E14.62400
G1 X14.886 Y-1.633 E14.67982
G1 X15.097 Y-1.171 E14.70530
G1 X15.243 Y-0.657 E14.73212
G1 X15.302 Y-0.204 E14.75502
G1 X15.299 Y0.241 E14.77736
G1 X15.255 Y0.610 E14.79599
G1 X15.133 Y1.097 E14.82116
G1 X14.909 Y1.593 E14.84846
G1 X14.618 Y2.088 E14.87728
G1 X14.055 Y2.948 E14.92882
G1 X13.464 Y3.742 E14.97847
G1 X12.840 Y4.486 E15.02721
G1 X12.220 Y5.149 E15.07273
G1 X11.501 Y5.837 E15.12264
G1 X10.846 Y6.399 E15.16591
G1 X10.161 Y6.927 E15.20930
G1 X9.332 Y7.498 E15.25982
G1 X8.209 Y8.165 E15.32532
G1 X7.068 Y8.730 E15.38918
G1 X6.034 Y9.156 E15.44527
G1 X4.813 Y9.560 E15.50980
G1 X3.550 Y9.874 E15.57509
G1 X2.386 Y10.077 E15.63437
G1 X1.249 Y10.195 E15.69171
G1 X-0.042 Y10.237 E15.75650
G1 X-0.983 Y10.206 E15.80372
G1 X-24.621 Y8.746 E16.99170
G1 X-24.954 Y8.693 E17.00862
G1 X-25.419 Y8.568 E17.03277
G1 X-25.883 Y8.376 E17.05793
G1 X-26.192 Y8.205 E17.07568
G1 X-26.563 Y7.945 E17.09837
G1 X-26.825 Y7.714 E17.11589
G1 X-27.143 Y7.365 E17.13960
G1 X-27.351 Y7.078 E17.15738
G1 X-27.604 Y6.627 E17.18331
G1 X-27.795 Y6.143 E17.20943
G1 X-27.911 Y5.689 E17.23293
G1 X-27.980 Y5.127 E17.26132
G1 X-27.976 Y-5.192 E17.77892
G1 X-27.920 Y-5.641 E17.80161
G1 X-27.795 Y-6.143 E17.82757
G1 X-27.681 Y-6.456 E17.84429
G1 X-27.445 Y-6.928 E17.87079
G1 X-27.178 Y-7.320 E17.89455
G1 X-26.960 Y-7.577 E17.91145
G1 X-26.627 Y-7.893 E17.93452
G1 X-26.188 Y-8.208 E17.96157
G1 X-25.748 Y-8.439 E17.98651
G1 X-25.404 Y-8.572 E18.00500
G1 X-24.959 Y-8.692 E18.02815
G1 X-24.451 Y-8.762 E18.05389
G1 X-0.495 Y-10.228 E19.25777
G1 X-0.469 Y-9.428 F7800.000
G1 F1800.000
G1 X0.610 Y-9.428 E19.31188
G1 X1.709 Y-9.352 E19.36718
G1 X2.794 Y-9.204 E19.42212
G1 X3.845 Y-8.988 E19.47592
G1 X4.848 Y-8.714 E19.52805
G1 X5.812 Y-8.384 E19.57920
G1 X6.870 Y-7.942 E19.63671
G1 X7.853 Y-7.451 E19.69182
G1 X8.892 Y-6.829 E19.75257
G1 X9.799 Y-6.200 E19.80792
G1 X10.666 Y-5.506 E19.86366
G1 X11.475 Y-4.763 E19.91873
G1 X12.305 Y-3.883 E19.97940
G1 X12.956 Y-3.091 E20.03086
G1 X13.640 Y-2.136 E20.08975
G1 X14.184 Y-1.250 E20.14191
G1 X14.369 Y-0.830 E20.16494
G1 X14.479 Y-0.383 E20.18804
G1 X14.507 Y0.053 E20.20994
G1 X14.465 Y0.473 E20.23112
G1 X14.366 Y0.855 E20.25093
G1 X14.230 Y1.163 E20.26780
G1 X13.935 Y1.671 E20.29724
G1 X13.563 Y2.250 E20.33179
G1 X13.067 Y2.947 E20.37471
G1 X12.476 Y3.685 E20.42213
G1 X11.864 Y4.365 E20.46801
G1 X11.257 Y4.972 E20.51109
G1 X10.596 Y5.566 E20.55566
G1 X10.013 Y6.038 E20.59331
G1 X9.350 Y6.523 E20.63448
G1 X8.557 Y7.040 E20.68197
G1 X7.541 Y7.613 E20.74050
G1 X6.576 Y8.073 E20.79411
G1 X5.441 Y8.520 E20.85530
G1 X4.377 Y8.851 E20.91118
G1 X3.232 Y9.123 E20.97024
G1 X2.147 Y9.301 E21.02539
G1 X1.012 Y9.409 E21.08255
G1 X-0.206 Y9.435 E21.14367
G1 X-0.943 Y9.407 E21.18066
G1 X-24.535 Y7.950 E22.36636
G1 X-24.788 Y7.911 E22.37917
G1 X-25.166 Y7.809 E22.39882
G1 X-25.535 Y7.655 E22.41887
G1 X-25.767 Y7.527 E22.43216
G1 X-26.070 Y7.315 E22.45069
G1 X-26.265 Y7.143 E22.46376
G1 X-26.521 Y6.861 E22.48289
G1 X-26.747 Y6.536 E22.50272
G1 X-26.878 Y6.291 E22.51668
G1 X-27.031 Y5.905 E22.53747
G1 X-27.126 Y5.533 E22.55675
G1 X-27.181 Y5.090 E22.57914
G1 X-27.178 Y-5.130 E23.09176
G1 X-27.132 Y-5.503 E23.11066
G1 X-27.031 Y-5.905 E23.13145
G1 X-26.945 Y-6.142 E23.14409
G1 X-26.758 Y-6.518 E23.16516
G1 X-26.627 Y-6.720 E23.17718
G1 X-26.380 Y-7.027 E23.19696
G1 X-26.108 Y-7.284 E23.21574
G1 X-25.764 Y-7.529 E23.23695
G1 X-25.416 Y-7.711 E23.25665
G1 X-25.140 Y-7.817 E23.27144
G1 X-24.746 Y-7.919 E23.29188
G1 X-24.361 Y-7.966 E23.31134
G1 X-0.589 Y-9.424 E24.50600
G1 X-0.559 Y-8.625 F7800.000
G1 F1800.000
G1 X0.403 Y-8.633 E24.55429
G1 X1.435 Y-8.575 E24.60611
G1 X2.518 Y-8.439 E24.66087
G1 X3.520 Y-8.243 E24.71210
G1 X4.480 Y-7.989 E24.76190
G1 X5.529 Y-7.636 E24.81741
G1 X6.538 Y-7.214 E24.87228
G1 X7.535 Y-6.711 E24.92830
G1 X8.464 Y-6.154 E24.98264
G1 X9.315 Y-5.563 E25.03458
G1 X10.144 Y-4.900 E25.08784
G1 X10.915 Y-4.191 E25.14041
G1 X11.609 Y-3.462 E25.19087
G1 X12.258 Y-2.687 E25.24160
G1 X12.975 Y-1.690 E25.30317
G1 X13.468 Y-0.892 E25.35025
G1 X13.624 Y-0.532 E25.36990
G1 X13.701 Y-0.159 E25.38902
G1 X13.701 Y0.155 E25.40478
G1 X13.627 Y0.525 E25.42369
G1 X13.503 Y0.828 E25.44012
G1 X13.187 Y1.361 E25.47121
G1 X12.740 Y2.037 E25.51185
G1 X12.405 Y2.495 E25.54033
G1 X11.874 Y3.158 E25.58295
G1 X11.443 Y3.646 E25.61559
G1 X10.921 Y4.185 E25.65321
G1 X10.322 Y4.744 E25.69432
G1 X9.631 Y5.322 E25.73953
G1 X9.115 Y5.709 E25.77187
G1 X8.475 Y6.147 E25.81079
G1 X7.806 Y6.556 E25.85011
G1 X6.873 Y7.054 E25.90316
G1 X5.955 Y7.468 E25.95365
G1 X4.859 Y7.872 E26.01225
G1 X3.852 Y8.163 E26.06484
G1 X2.847 Y8.382 E26.11643
G1 X1.833 Y8.534 E26.16788
G1 X0.804 Y8.619 E26.21967
G1 X-0.190 Y8.635 E26.26954
G1 X-0.902 Y8.608 E26.30528
G1 X-24.450 Y7.155 E27.48870
G1 X-24.913 Y7.050 E27.51253
G1 X-25.342 Y6.849 E27.53627
G1 X-25.576 Y6.685 E27.55063
G1 X-25.800 Y6.476 E27.56600
G1 X-26.076 Y6.100 E27.58936
G1 X-26.210 Y5.825 E27.60470
G1 X-26.306 Y5.534 E27.62011
G1 X-26.365 Y5.226 E27.63585
G1 X-26.386 Y4.911 E27.65167
G1 X-26.381 Y-5.053 E28.15149
G1 X-26.307 Y-5.533 E28.17584
G1 X-26.208 Y-5.829 E28.19147
G1 X-26.078 Y-6.096 E28.20641
G1 X-25.799 Y-6.476 E28.23001
G1 X-25.575 Y-6.687 E28.24548
G1 X-25.325 Y-6.860 E28.26071
G1 X-25.059 Y-6.994 E28.27567
G1 X-24.813 Y-7.080 E28.28875
G1 X-24.606 Y-7.131 E28.29944
G1 X-24.305 Y-7.168 E28.31463
G1 X-0.679 Y-8.619 E29.50199
G1 E27.50199 F2400.00000
G92 E0
G1 Z2.400 F7800.000
G1 X-25.385 Y1.416 F7800.000
G1 Z0.400 F7800.000
G1 E2.00000 F2400.00000
G1 F1800.000
G1 X-25.428 Y-0.037 E2.07991
G1 X-25.414 Y-0.557 E2.10854
G1 X-25.366 Y-0.595 E2.11189
G1 F1800.000
G1 X-25.318 Y-0.633 E2.11489
G1 F1800.000
G1 X-25.270 Y-0.671 E2.11754
G1 F1800.000
G1 X-25.223 Y-0.708 E2.11984
G1 F1800.000
G1 X-24.868 Y-0.972 E2.13412
G1 E0.13412 F2400.00000
G92 E0
G1 Z2.400 F7800.000
G1 X-12.185 Y-1.849 F7800.000
G1 Z0.400 F7800.000
G1 E2.00000 F2400.00000
G1 F1800.000
G1 X-12.100 Y-1.871 E2.00393
G1 X-12.070 Y-1.552 E2.01828
G1 X-12.126 Y-1.454 E2.02331
G1 X-12.280 Y-1.326 E2.03226
G1 X-12.393 Y-1.288 E2.03763
G1 X-12.693 Y-1.237 E2.05124
G1 X-12.820 Y-1.562 E2.06687
G1 X-12.475 Y-1.775 E2.08500
G1 X-12.301 Y-1.819 E2.09305
G1 X-12.122 Y-1.787 F7800.000
G1 X-12.847 Y-1.425 F7800.000
G1 F1800.000
G1 X-13.351 Y-0.842 E2.12758
G1 X-13.447 Y-0.649 E2.13724
G1 X-13.515 Y-0.376 E2.14985
G1 X-13.510 Y-0.097 E2.16231
G1 X-13.415 Y0.175 E2.17522
G1 X-13.174 Y0.403 E2.19010
G1 X-12.921 Y0.500 E2.20222
G1 X-12.422 Y0.592 E2.22494
G1 X-12.156 Y0.707 E2.23789
G1 X-12.019 Y0.815 E2.24574
G1 X-11.908 Y0.944 E2.25334
G1 X-11.810 Y1.126 E2.26264
G1 X-11.777 Y1.279 E2.26963
G1 X-11.792 Y1.435 E2.27666
G1 X-11.889 Y1.617 E2.28589
G1 X-11.964 Y1.684 E2.29037
G1 X-12.110 Y1.754 E2.29766
G1 X-12.175 Y1.765 E2.30057
G1 X-12.251 Y1.754 E2.30402
G1 X-12.314 Y1.721 E2.30723
G1 X-12.755 Y1.405 E2.33151
G1 X-13.002 Y1.315 E2.34329
G1 X-13.299 Y1.281 E2.35667
G1 X-13.664 Y1.346 E2.37327
G1 X-13.969 Y1.537 E2.38938
G1 X-14.161 Y1.856 E2.40605
G1 X-14.201 Y2.233 E2.42307
G1 X-14.135 Y2.538 E2.43704
G1 X-13.967 Y2.848 E2.45283
G1 X-13.744 Y3.065 E2.46677
G1 X-13.488 Y3.221 E2.48019
G1 X-13.171 Y3.341 E2.49536
G1 X-12.830 Y3.418 E2.51103
G1 X-12.564 Y3.449 E2.52302
G1 X-12.133 Y3.455 E2.54231
G1 X-11.732 Y3.416 E2.56035
G1 X-11.278 Y3.292 E2.58140
