;FLAVOR:Marlin
;TIME:1188
;Filament used: 1.64723m
;Layer height: 0.4
;MINX:-53.374
;MINY:-53.392
;MINZ:0.3
;MAXX:53.373
;MAXY:53.388
;MAXZ:20.126
;Generated with Cura_SteamEngine 4.9.1
M104 S200
M105
M109 S200
M82 ;absolute extrusion mode
G28 ;Home
G1 Z15.0 F6000 ;Move the platform down 15mm
;Prime the extruder
G92 E0
G1 F200 E3
G92 E0
G92 E0
G92 E0
G1 F1500 E-6.5
;LAYER_COUNT:50
;LAYER:0
M107
G0 F1800 X-33.832 Y-41.27 Z0.3
;TYPE:SKIRT
G1 F1500 E0
G1 F1800 X-33.225 Y-41.789 E0.03005
G1 X-32.751 Y-42.153 E0.05253
G1 X-29.314 Y-44.599 E0.21123
G1 X-28.766 Y-44.977 E0.23628
G1 X-28.323 Y-45.251 E0.25588
G1 X-28.098 Y-45.381 E0.26565
G1 X-24.591 Y-47.365 E0.41724
G1 X-23.984 Y-47.698 E0.44329
G1 X-23.258 Y-48.039 E0.47346
G1 X-19.652 Y-49.617 E0.62154
G1 X-18.954 Y-49.91 E0.65002
G1 X-18.403 Y-50.11 E0.67208
G1 X-14.399 Y-51.388 E0.8302
G1 X-13.727 Y-51.592 E0.85662
G1 X-13.228 Y-51.718 E0.87598
G1 X-12.97 Y-51.774 E0.88591
G1 X-9.034 Y-52.597 E1.03719
G1 X-8.34 Y-52.733 E1.0638
G1 X-7.629 Y-52.829 E1.09079
G1 X-3.57 Y-53.247 E1.2443
G1 X-2.842 Y-53.312 E1.2718
G1 X-2.166 Y-53.345 E1.29726
G1 X-.709 Y-53.383 E1.35209
G1 X0.154 Y-53.392 E1.38456
G1 X0.683 Y-53.384 E1.40447
G1 X1.969 Y-53.35 E1.45286
G1 X2.819 Y-53.315 E1.48487
G1 X3.405 Y-53.265 E1.50699
G1 X7.388 Y-52.854 E1.65763
G1 X8.088 Y-52.771 E1.68415
G1 X8.596 Y-52.687 E1.70352
G1 X8.814 Y-52.644 E1.71188
G1 X12.782 Y-51.814 E1.8644
G1 X13.472 Y-51.66 E1.89099
G1 X14.042 Y-51.502 E1.91325
G1 X18.056 Y-50.221 E2.07176
G1 X18.702 Y-50.005 E2.09739
G1 X19.221 Y-49.803 E2.11834
G1 X23.093 Y-48.112 E2.27729
G1 X23.771 Y-47.803 E2.30532
G1 X24.222 Y-47.572 E2.32439
G1 X24.395 Y-47.476 E2.33183
G1 X27.949 Y-45.465 E2.48546
G1 X28.538 Y-45.12 E2.51114
G1 X29.027 Y-44.801 E2.5331
G1 X29.112 Y-44.743 E2.53697
G1 X32.482 Y-42.345 E2.69258
G1 X33.025 Y-41.947 E2.71791
G1 X33.471 Y-41.585 E2.73952
G1 X36.61 Y-38.828 E2.89669
G1 X37.184 Y-38.309 E2.9258
G1 X37.545 Y-37.95 E2.94496
G1 X40.424 Y-34.842 E3.10434
G1 X40.913 Y-34.299 E3.13183
G1 X41.244 Y-33.892 E3.15157
G1 X41.393 Y-33.698 E3.16077
G1 X43.823 Y-30.459 E3.31311
G1 X44.221 Y-29.912 E3.33856
G1 X44.502 Y-29.486 E3.35776
G1 X44.675 Y-29.203 E3.37023
G1 X46.706 Y-25.821 E3.51865
G1 X47.071 Y-25.193 E3.54598
G1 X47.426 Y-24.485 E3.57577
G1 X49.094 Y-20.922 E3.72378
G1 X49.404 Y-20.233 E3.7522
G1 X49.593 Y-19.756 E3.7715
G1 X49.688 Y-19.49 E3.78213
G1 X50.986 Y-15.759 E3.93075
G1 X51.227 Y-15.035 E3.95945
G1 X51.362 Y-14.549 E3.97843
G1 X51.42 Y-14.314 E3.98754
G1 X52.363 Y-10.32 E4.14193
G1 X52.495 Y-9.723 E4.16493
G1 X52.596 Y-9.128 E4.18763
G1 X53.137 Y-4.96 E4.34575
G1 X53.219 Y-4.25 E4.37264
G1 X53.262 Y-3.473 E4.40192
G1 X53.365 Y0.554 E4.55347
G1 X53.373 Y1.248 E4.57958
G1 X53.354 Y1.756 E4.5987
G1 X53.335 Y2.037 E4.6093
G1 X53.027 Y6.021 E4.75963
G1 X52.96 Y6.745 E4.78698
G1 X52.89 Y7.245 E4.80598
G1 X52.132 Y11.416 E4.96546
G1 X51.986 Y12.155 E4.9938
G1 X51.803 Y12.861 E5.02124
G1 X50.68 Y16.716 E5.1723
G1 X50.464 Y17.42 E5.2
G1 X50.286 Y17.917 E5.21986
G1 X50.187 Y18.166 E5.22995
G1 X48.68 Y21.873 E5.38049
G1 X48.408 Y22.515 E5.40672
G1 X48.187 Y22.975 E5.42592
G1 X48.039 Y23.258 E5.43794
G1 X46.185 Y26.739 E5.58631
G1 X45.833 Y27.378 E5.61376
G1 X45.418 Y28.038 E5.64309
G1 X43.19 Y31.347 E5.79317
G1 X42.773 Y31.948 E5.82068
G1 X42.293 Y32.559 E5.84992
G1 X39.776 Y35.577 E5.99776
G1 X39.261 Y36.177 E6.02751
G1 X38.776 Y36.683 E6.05388
G1 X35.823 Y39.561 E6.20901
G1 X35.362 Y39.999 E6.23293
G1 X34.95 Y40.353 E6.25337
G1 X34.742 Y40.52 E6.2634
G1 X31.595 Y43.01 E6.41437
G1 X31.029 Y43.444 E6.44121
G1 X30.583 Y43.753 E6.46162
G1 X27.013 Y46.025 E6.62082
G1 X26.399 Y46.402 E6.64792
G1 X25.908 Y46.673 E6.66902
G1 X22.101 Y48.578 E6.82918
G1 X21.504 Y48.865 E6.8541
G1 X21.035 Y49.065 E6.87328
G1 X20.727 Y49.184 E6.8857
G1 X17 Y50.589 E7.03555
G1 X16.371 Y50.816 E7.0607
G1 X15.82 Y50.985 E7.08239
G1 X11.743 Y52.059 E7.241
G1 X11.04 Y52.233 E7.26825
G1 X10.531 Y52.335 E7.28778
G1 X10.342 Y52.367 E7.29499
G1 X6.285 Y52.998 E7.44945
G1 X5.648 Y53.088 E7.47365
G1 X5.106 Y53.139 E7.49413
G1 X4.877 Y53.153 E7.50277
G1 X0.871 Y53.36 E7.65368
G1 X0.116 Y53.388 E7.6821
G1 X-.386 Y53.383 E7.70099
G1 X-4.621 Y53.166 E7.86052
G1 X-5.374 Y53.117 E7.88891
G1 X-5.904 Y53.056 E7.90898
G1 X-10.088 Y52.405 E8.06828
G1 X-10.796 Y52.285 E8.0953
G1 X-11.352 Y52.161 E8.11673
G1 X-15.445 Y51.084 E8.27595
G1 X-16.127 Y50.894 E8.30259
G1 X-16.811 Y50.661 E8.32977
G1 X-20.583 Y49.238 E8.48144
G1 X-21.261 Y48.972 E8.50884
G1 X-21.795 Y48.73 E8.5309
G1 X-25.592 Y46.832 E8.6906
G1 X-26.181 Y46.527 E8.71555
G1 X-26.636 Y46.263 E8.73534
G1 X-26.845 Y46.133 E8.7446
G1 X-30.23 Y43.98 E8.89553
G1 X-30.828 Y43.588 E8.92243
G1 X-31.286 Y43.253 E8.94377
G1 X-34.61 Y40.624 E9.10321
G1 X-35.149 Y40.185 E9.12937
G1 X-35.719 Y39.663 E9.15844
G1 X-38.614 Y36.84 E9.31057
G1 X-39.094 Y36.359 E9.33613
G1 X-39.629 Y35.753 E9.36654
G1 X-42.175 Y32.701 E9.51607
G1 X-42.624 Y32.147 E9.5429
G1 X-42.969 Y31.677 E9.56483
G1 X-45.3 Y28.213 E9.72191
G1 X-45.725 Y27.56 E9.75122
G1 X-46.094 Y26.911 E9.77931
G1 X-47.95 Y23.425 E9.92788
G1 X-48.303 Y22.739 E9.95691
G1 X-48.523 Y22.255 E9.97691
G1 X-48.597 Y22.079 E9.98409
G1 X-50.135 Y18.293 E10.13783
G1 X-50.374 Y17.679 E10.16262
G1 X-50.55 Y17.16 E10.18323
G1 X-51.737 Y13.086 E10.34288
G1 X-51.933 Y12.373 E10.3707
G1 X-52.09 Y11.644 E10.39875
G1 X-52.812 Y7.678 E10.55041
G1 X-52.93 Y6.972 E10.57734
G1 X-52.991 Y6.462 E10.59666
G1 X-53.011 Y6.225 E10.60561
G1 X-53.318 Y2.249 E10.75563
G1 X-53.366 Y1.485 E10.78443
G1 X-53.374 Y0.946 E10.80471
G1 X-53.267 Y-3.257 E10.96289
G1 X-53.237 Y-4.003 E10.99097
G1 X-53.161 Y-4.77 E11.01997
G1 X-52.645 Y-8.755 E11.17114
G1 X-52.546 Y-9.446 E11.1974
G1 X-52.431 Y-10.03 E11.2198
G1 X-51.458 Y-14.152 E11.37913
G1 X-51.285 Y-14.835 E11.40564
G1 X-51.071 Y-15.516 E11.4325
G1 X-49.757 Y-19.291 E11.58287
G1 X-49.501 Y-19.996 E11.61109
G1 X-49.306 Y-20.463 E11.63013
G1 X-49.183 Y-20.732 E11.64126
G1 X-47.51 Y-24.306 E11.78972
G1 X-47.179 Y-24.989 E11.81827
G1 X-46.786 Y-25.687 E11.84841
G1 X-44.76 Y-29.061 E11.99647
G1 X-44.363 Y-29.702 E12.02483
G1 X-44.061 Y-30.138 E12.04479
G1 X-43.947 Y-30.294 E12.05205
G1 X-41.514 Y-33.536 E12.20455
G1 X-41.072 Y-34.108 E12.23174
G1 X-40.744 Y-34.493 E12.25077
G1 X-40.564 Y-34.691 E12.26084
G1 X-37.838 Y-37.635 E12.41178
G1 X-37.352 Y-38.144 E12.43826
G1 X-36.766 Y-38.692 E12.46844
G1 X-33.832 Y-41.27 E12.61538
G1 F1500 E6.11538
;MESH:circle2.STL
G0 F1800 X-30.773 Y-38.874
G0 X48.696 Y-8.881
G0 X48.795 Y-8.897
;TYPE:WALL-OUTER
G1 F1500 E12.61538
G1 F1800 X49.452 Y-3.827 E12.80771
G1 X49.582 Y1.276 E12.99976
G1 X49.189 Y6.365 E13.19178
G1 X48.272 Y11.397 E13.38421
G1 X46.847 Y16.29 E13.57594
G1 X44.919 Y21.032 E13.76852
G1 X42.523 Y25.534 E13.96038
G1 X39.671 Y29.772 E14.15256
G1 X36.399 Y33.694 E14.34471
G1 X32.748 Y37.253 E14.53653
G1 X28.742 Y40.422 E14.7287
G1 X24.427 Y43.167 E14.9211
G1 X19.858 Y45.451 E15.11327
G1 X15.089 Y47.249 E15.30501
G1 X10.142 Y48.552 E15.49747
G1 X5.097 Y49.337 E15.68955
G1 X0.00 Y49.6 E15.88156
G1 X-5.097 Y49.337 E16.07357
G1 X-10.142 Y48.552 E16.26565
G1 X-15.089 Y47.249 E16.45811
G1 X-19.858 Y45.451 E16.64986
G1 X-24.427 Y43.167 E16.84203
G1 X-28.742 Y40.422 E17.03443
G1 X-32.748 Y37.253 E17.22659
G1 X-36.399 Y33.694 E17.41841
G1 X-39.671 Y29.772 E17.61056
G1 X-42.523 Y25.534 E17.80274
G1 X-44.919 Y21.032 E17.99461
G1 X-46.847 Y16.29 E18.18719
G1 X-48.272 Y11.397 E18.37891
G1 X-49.189 Y6.365 E18.57134
G1 X-49.582 Y1.276 E18.76337
G1 X-49.452 Y-3.827 E18.95541
G1 X-48.795 Y-8.897 E19.14774
G1 X-47.623 Y-13.859 E19.33955
G1 X-45.945 Y-18.686 E19.53181
G1 X-43.781 Y-23.309 E19.72384
G1 X-41.151 Y-27.689 E19.91605
G1 X-38.089 Y-31.769 E20.10796
G1 X-34.611 Y-35.527 E20.3006
G1 X-30.785 Y-38.889 E20.49221
G1 X-26.618 Y-41.852 E20.68457
G1 X-22.18 Y-44.364 E20.87642
G1 X-17.494 Y-46.412 E21.06882
G1 X-12.636 Y-47.962 E21.26066
G1 X-7.63 Y-49.009 E21.45307
G1 X-2.53 Y-49.534 E21.64595
G1 X0.00 Y-49.6 E21.74116
G1 X2.548 Y-49.534 E21.83705
G1 X7.63 Y-49.009 E22.02926
G1 X12.636 Y-47.962 E22.22167
G1 X17.494 Y-46.412 E22.41351
G1 X22.18 Y-44.364 E22.6059
G1 X26.618 Y-41.852 E22.79775
G1 X30.785 Y-38.889 E22.99011
G1 X34.611 Y-35.527 E23.18173
G1 X38.089 Y-31.769 E23.37436
G1 X41.151 Y-27.689 E23.56628
G1 X43.781 Y-23.309 E23.75848
G1 X45.945 Y-18.686 E23.95051
G1 X47.623 Y-13.859 E24.14277
G1 X48.795 Y-8.897 E24.33458
G0 X48.846 Y-8.501
G0 X48.016 Y-8.757
;TYPE:SKIN
G1 X48.664 Y-3.764 E24.524
G1 X48.79 Y1.255 E24.71288
G1 X48.405 Y6.258 E24.90166
G1 X47.499 Y11.228 E25.09171
G1 X46.102 Y16.023 E25.27961
G1 X44.199 Y20.704 E25.46971
G1 X41.849 Y25.12 E25.6579
G1 X39.033 Y29.304 E25.84764
G1 X35.817 Y33.16 E26.03654
G1 X32.234 Y36.653 E26.22479
G1 X28.278 Y39.782 E26.41455
G1 X24.043 Y42.475 E26.60336
G1 X19.539 Y44.727 E26.7928
G1 X14.849 Y46.495 E26.98137
G1 X9.974 Y47.779 E27.17102
G1 X5.014 Y48.551 E27.35987
G1 X0.00 Y48.81 E27.54875
G1 X-5.014 Y48.551 E27.73764
G1 X-9.974 Y47.779 E27.92649
G1 X-14.849 Y46.495 E28.11614
G1 X-19.539 Y44.727 E28.30471
G1 X-24.043 Y42.475 E28.49415
G1 X-28.278 Y39.782 E28.68296
G1 X-32.234 Y36.653 E28.87272
G1 X-35.817 Y33.16 E29.06097
G1 X-39.033 Y29.304 E29.24987
G1 X-41.849 Y25.12 E29.43961
G1 X-44.199 Y20.704 E29.6278
G1 X-46.102 Y16.023 E29.8179
G1 X-47.499 Y11.228 E30.0058
G1 X-48.405 Y6.258 E30.19585
G1 X-48.79 Y1.255 E30.38463
G1 X-48.664 Y-3.764 E30.57351
G1 X-48.016 Y-8.757 E30.76293
G1 X-46.862 Y-13.643 E30.9518
G1 X-45.213 Y-18.389 E31.14082
G1 X-43.084 Y-22.934 E31.32964
G1 X-40.495 Y-27.247 E31.51889
G1 X-37.485 Y-31.259 E31.70758
G1 X-34.051 Y-34.968 E31.89774
G1 X-30.301 Y-38.264 E32.08557
G1 X-26.187 Y-41.188 E32.27545
G1 X-21.831 Y-43.655 E32.46379
G1 X-17.221 Y-45.669 E32.65305
G1 X-12.436 Y-47.196 E32.84201
G1 X-7.503 Y-48.227 E33.0316
G1 X-2.481 Y-48.744 E33.22153
G1 X0.00 Y-48.81 E33.31491
G1 X2.498 Y-48.744 E33.40892
G1 X7.503 Y-48.228 E33.59821
G1 X12.436 Y-47.196 E33.78781
G1 X17.221 Y-45.669 E33.97677
G1 X21.831 Y-43.655 E34.16603
G1 X26.187 Y-41.188 E34.35437
G1 X30.301 Y-38.264 E34.54425
G1 X34.051 Y-34.968 E34.73208
G1 X37.485 Y-31.259 E34.92224
G1 X40.495 Y-27.247 E35.11093
G1 X43.084 Y-22.934 E35.30018
G1 X45.213 Y-18.389 E35.489
G1 X46.862 Y-13.643 E35.67802
G1 X48.016 Y-8.757 E35.86689
G0 X29.473 Y-38.408
G1 X38.267 Y-29.615 E36.33474
G1 X38.408 Y-29.474
G0 X40.93 Y-25.82
G1 X25.702 Y-41.048 E37.14494
G1 X25.561 Y-41.189
G0 X23.093 Y-42.526
G1 X42.63 Y-22.989 E38.18439
G1 X42.771 Y-22.848
G0 X43.683 Y-20.804
G1 X20.758 Y-43.729 E39.4041
G1 X20.617 Y-43.87
G0 X18.75 Y-44.606
G1 X44.679 Y-18.676 E40.78366
G1 X44.82 Y-18.535
G0 X45.36 Y-16.864
G1 X16.802 Y-45.423 E42.30309
G1 X16.661 Y-45.564
G0 X15.14 Y-45.953
G1 X45.962 Y-15.131 E43.94296
G1 X46.103 Y-14.99
G0 X46.544 Y-13.418
G1 X13.478 Y-46.483 E45.70218
G1 X13.337 Y-46.624
G0 X11.89 Y-46.94
G1 X46.894 Y-11.936 E47.56455
G0 X47.244 Y-10.455
G1 X10.459 Y-47.24 E49.52167
G0 X9.028 Y-47.54
G1 X47.594 Y-8.973 E51.57357
G0 X47.796 Y-7.64
G1 X7.597 Y-47.84 E53.71236
G0 X6.317 Y-47.987
G1 X47.965 Y-6.339 E55.92821
G0 X48.134 Y-5.039
G1 X5.056 Y-48.117 E58.22014
G0 X3.795 Y-48.247
G1 X48.303 Y-3.739 E60.58816
G0 X48.332 Y-2.578
G1 X2.534 Y-48.376 E63.02481
G0 X1.367 Y-48.412
G1 X48.361 Y-1.418 E65.52509
G0 X48.39 Y-.258
G1 X0.205 Y-48.443 E68.08874
G0 X-.907 Y-48.424
G1 X48.419 Y0.902 E70.71309
G0 X48.371 Y1.985
G1 X-2.008 Y-48.395 E73.3935
G0 X-3.065 Y-48.32
G1 X48.291 Y3.036 E76.12586
G0 X48.21 Y4.087
G1 X-4.091 Y-48.214 E78.9085
G0 X-5.117 Y-48.109
G1 X48.129 Y5.137 E81.74141
G0 X48.049 Y6.188
G1 X-6.143 Y-48.004 E84.62466
G0 X-7.168 Y-47.897
G1 X47.876 Y7.147 E87.55324
G0 X47.702 Y8.104
G1 X-8.128 Y-47.726 E90.52363
G0 X-9.064 Y-47.531
G1 X47.527 Y9.06 E93.53451
G0 X47.353 Y10.018
G1 X-10 Y-47.335 E96.58594
G0 X-10.936 Y-47.139
G1 X47.178 Y10.975 E99.67785
G0 X46.938 Y11.865
G1 X-11.871 Y-46.944 E102.80675
G0 X-12.768 Y-46.71
G1 X46.683 Y12.742 E105.96982
G0 X46.427 Y13.618
G1 X-13.626 Y-46.436 E109.16492
G0 X-14.484 Y-46.162
G1 X46.172 Y14.494 E112.39208
G0 X45.916 Y15.369
G1 X-15.342 Y-45.889 E115.65127
G0 X-16.199 Y-45.615
G1 X45.633 Y16.217 E118.941
G0 X45.306 Y17.022
G1 X-17.057 Y-45.341 E122.25898
G0 X-17.847 Y-45
G1 X44.979 Y17.826 E125.60159
G0 X44.652 Y18.63
G1 X-18.635 Y-44.656 E128.9687
G0 X-19.422 Y-44.312
G1 X44.325 Y19.435 E132.36032
G0 X43.998 Y20.239
G1 X-20.209 Y-43.968 E135.77641
G0 X-20.997 Y-43.624
G1 X43.631 Y21.003 E139.21487
G0 X43.238 Y21.742
G1 X-21.776 Y-43.272 E142.67389
G0 X-22.498 Y-42.862
G1 X42.845 Y22.481 E146.15042
G0 X42.452 Y23.219
G1 X-23.22 Y-42.453 E149.64445
G0 X-23.942 Y-42.044
G1 X42.059 Y23.957 E153.15599
G0 X41.666 Y24.695
G1 X-24.665 Y-41.635 E156.68505
G0 X-25.387 Y-41.226
G1 X41.231 Y25.392 E160.22942
G0 X40.776 Y26.068
G1 X-26.099 Y-40.807 E163.78745
G0 X-26.761 Y-40.337
G1 X40.321 Y26.744 E167.35648
G0 X39.866 Y27.421
G1 X-27.422 Y-39.867 E170.93649
G0 X-28.083 Y-39.397
G1 X39.411 Y28.097 E174.52746
G0 X38.956 Y28.774
G1 X-28.744 Y-38.926 E178.12939
G0 X-29.405 Y-38.456
G1 X38.469 Y29.418 E181.74057
G0 X37.954 Y30.035
G1 X-30.066 Y-37.986 E185.35956
G0 X-30.67 Y-37.458
G1 X37.44 Y30.652 E188.9833
G0 X36.925 Y31.268
G1 X-31.272 Y-36.929 E192.61167
G0 X-31.874 Y-36.4
G1 X36.411 Y31.886 E196.24475
G0 X35.896 Y32.502
G1 X-32.476 Y-35.87 E199.88244
G0 X-33.079 Y-35.341
G1 X35.362 Y33.099 E203.52377
G0 X34.789 Y33.658
G1 X-33.681 Y-34.812 E207.16666
G0 X-34.236 Y-34.236
G1 X34.216 Y34.216 E210.8086
G0 X33.644 Y34.775
G1 X-34.78 Y-33.649 E214.44905
G0 X-35.324 Y-33.062
G1 X33.071 Y35.334 E218.08799
G0 X32.497 Y35.892
G1 X-35.868 Y-32.474 E221.72533
G0 X-36.412 Y-31.886
G1 X31.917 Y36.442 E225.3607
G0 X31.285 Y36.942
G1 X-36.956 Y-31.299 E228.99141
G0 X-37.468 Y-30.68
G1 X30.653 Y37.442 E232.61576
G0 X30.022 Y37.941
G1 X-37.953 Y-30.033 E236.2323
G0 X-38.438 Y-29.387
G1 X29.39 Y38.441 E239.84104
G0 X28.758 Y38.941
G1 X-38.923 Y-28.741 E243.44199
G0 X-39.408 Y-28.094
G1 X28.127 Y39.441 E247.03514
G0 X27.44 Y39.885
G1 X-39.892 Y-27.447 E250.61749
G0 X-40.355 Y-26.778
G1 X26.749 Y40.325 E254.18768
G0 X26.057 Y40.765
G1 X-40.779 Y-26.071 E257.74364
G0 X-41.203 Y-25.364
G1 X25.366 Y41.205 E261.2854
G0 X24.675 Y41.645
G1 X-41.628 Y-24.658 E264.81301
G0 X-42.053 Y-23.951
G1 X23.983 Y42.085 E268.3264
G0 X23.239 Y42.473
G1 X-42.477 Y-23.244 E271.8228
G0 X-42.881 Y-22.517
G1 X22.485 Y42.85 E275.30058
G0 X21.731 Y43.227
G1 X-43.242 Y-21.746 E278.75742
G0 X-43.603 Y-20.976
G1 X20.977 Y43.604 E282.19336
G0 X20.222 Y43.981
G1 X-43.964 Y-20.205 E285.60833
G0 X-44.324 Y-19.434
G1 X19.468 Y44.358 E289.00233
G0 X18.653 Y44.675
G1 X-44.686 Y-18.664 E292.37224
G0 X-45.014 Y-17.861
G1 X17.831 Y44.984 E295.71586
G0 X17.01 Y45.294
G1 X-45.306 Y-17.022 E299.03134
G0 X-45.597 Y-16.182
G1 X16.188 Y45.604 E302.3186
G0 X15.366 Y45.913
G1 X-45.889 Y-15.342 E305.57763
G0 X-46.181 Y-14.502
G1 X14.527 Y46.205 E308.80752
G0 X13.632 Y46.442
G1 X-46.473 Y-13.663 E312.00537
G0 X-46.7 Y-12.759
G1 X12.736 Y46.677 E315.16762
G0 X11.841 Y46.913
G1 X-46.916 Y-11.844 E318.29374
G0 X-47.132 Y-10.929
G1 X10.945 Y47.149 E321.38371
G0 X10.05 Y47.385
G1 X-47.349 Y-10.014 E324.43759
G0 X-47.564 Y-9.098
G1 X9.085 Y47.552 E327.45158
G0 X8.106 Y47.704
G1 X-47.733 Y-8.135 E330.42246
G0 X-47.863 Y-7.134
G1 X7.127 Y47.856 E333.34816
G0 X6.148 Y48.009
G1 X-47.992 Y-6.132 E336.22867
G0 X-48.122 Y-5.13
G1 X5.168 Y48.161 E339.06395
G0 X4.112 Y48.235
G1 X-48.252 Y-4.129 E341.84994
G0 X-48.32 Y-3.066
G1 X3.037 Y48.291 E344.58235
G0 X1.961 Y48.347
G1 X-48.348 Y-1.962 E347.25901
G0 X-48.376 Y-.858
G1 X0.886 Y48.403 E349.87993
G0 X-.21 Y48.438
G1 X-48.403 Y0.245 E352.44401
G0 X-48.419 Y1.36
G1 X-1.403 Y48.376 E354.94546
G0 X-2.597 Y48.314
G1 X-48.325 Y2.585 E357.37841
G0 X-48.231 Y3.811
G1 X-3.79 Y48.252 E359.74286
G0 X-4.984 Y48.19
G1 X-48.137 Y5.036 E362.03881
G0 X-48.036 Y6.269
G1 X-6.324 Y47.981 E364.25807
G0 X-7.663 Y47.773
G1 X-47.784 Y7.653 E366.39265
G0 X-47.531 Y9.036
G1 X-9.003 Y47.564 E368.44251
G0 X-10.408 Y47.291
G1 X-47.279 Y10.419 E370.40423
G0 X-46.927 Y11.904
G1 X-11.945 Y46.886 E372.26542
