; generated by Slic3r 1.3.0 on 2021-10-01 at 13:22:33

; external perimeters extrusion width = 0.88mm (15.33mm^3/s)
; perimeters extrusion width = 0.87mm (30.16mm^3/s)
; infill extrusion width = 0.87mm (40.21mm^3/s)
; solid infill extrusion width = 0.87mm (10.05mm^3/s)
; top infill extrusion width = 0.87mm (7.54mm^3/s)

M107
M104 S200 ; set temperature
G28 ; home all axes
G1 Z5 F5000 ; lift nozzle

; Filament gcode

M109 S200 ; set temperature and wait for it to be reached
G21 ; set units to millimeters
G90 ; use absolute coordinates
M82 ; use absolute distances for extrusion
G92 E0
G1 Z0.800 F7800.000
G1 E-2.00000 F2400.00000
G92 E0
G1 X-47.354 Y2.505 F7800.000
G1 E2.00000 F2400.00000
G1 F1800
G1 X-47.402 Y1.469 E2.18592
G1 X-47.424 Y0.125 E2.42664
G1 X-47.393 Y-1.718 E2.75676
G1 X-47.309 Y-3.309 E3.04216
G1 X-47.196 Y-4.648 E3.28290
G1 X-46.980 Y-6.479 E3.61301
G1 X-46.778 Y-7.807 E3.85373
G1 X-46.489 Y-9.374 E4.13915
G1 X-46.090 Y-11.174 E4.46927
G1 X-45.688 Y-12.716 E4.75466
G1 X-45.310 Y-14.005 E4.99541
G1 X-44.731 Y-15.755 E5.32552
G1 X-44.177 Y-17.249 E5.61094
G1 X-43.670 Y-18.494 E5.85166
G1 X-42.919 Y-20.177 E6.18175
G1 X-42.217 Y-21.607 E6.46720
G1 X-41.588 Y-22.795 E6.70792
G1 X-40.798 Y-24.179 E6.99334
G1 X-39.828 Y-25.746 E7.32344
G1 X-38.941 Y-27.070 E7.60887
G1 X-38.158 Y-28.162 E7.84959
G1 X-37.035 Y-29.624 E8.17971
G1 X-36.019 Y-30.851 E8.46511
G1 X-35.130 Y-31.859 E8.70585
G1 X-33.866 Y-33.200 E9.03596
G1 X-32.912 Y-34.147 E9.27668
G1 X-31.746 Y-35.233 E9.56210
G1 X-30.353 Y-36.440 E9.89222
G1 X-29.112 Y-37.439 E10.17764
G1 X-28.039 Y-38.249 E10.41836
G1 X-26.532 Y-39.310 E10.74847
G1 X-25.197 Y-40.179 E11.03387
G1 X-24.048 Y-40.877 E11.27462
G1 X-22.442 Y-41.780 E11.60469
G1 X-20.929 Y-42.557 E11.90935
G1 X-19.586 Y-43.193 E12.17556
G1 X-18.354 Y-43.731 E12.41628
G1 X-16.641 Y-44.411 E12.74639
G1 X-15.140 Y-44.945 E13.03180
G1 X-13.860 Y-45.356 E13.27254
G1 X-12.088 Y-45.860 E13.60265
G1 X-10.540 Y-46.241 E13.88804
G1 X-9.226 Y-46.521 E14.12879
G1 X-7.411 Y-46.844 E14.45888
G1 X-6.081 Y-47.036 E14.69963
G1 X-4.497 Y-47.213 E14.98504
G1 X-2.660 Y-47.353 E15.31514
G1 X-1.317 Y-47.409 E15.55588
G1 X0.276 Y-47.427 E15.84130
G1 X2.119 Y-47.380 E16.17141
G1 X3.816 Y-47.272 E16.47607
G1 X5.296 Y-47.131 E16.74224
G1 X6.629 Y-46.962 E16.98296
G1 X8.448 Y-46.669 E17.31306
G1 X9.767 Y-46.411 E17.55380
G1 X11.321 Y-46.057 E17.83923
G1 X13.102 Y-45.583 E18.16933
G1 X14.626 Y-45.117 E18.45474
G1 X15.898 Y-44.684 E18.69548
G1 X17.622 Y-44.033 E19.02559
G1 X19.092 Y-43.416 E19.31099
G1 X20.314 Y-42.858 E19.55173
G1 X21.964 Y-42.037 E19.88184
G1 X23.456 Y-41.221 E20.18651
G1 X24.737 Y-40.467 E20.45268
G1 X25.874 Y-39.750 E20.69340
G1 X27.399 Y-38.715 E21.02350
G1 X28.684 Y-37.773 E21.30891
G1 X29.742 Y-36.945 E21.54965
G1 X31.155 Y-35.761 E21.87977
G1 X32.339 Y-34.695 E22.16515
G1 X33.309 Y-33.765 E22.40591
G1 X34.596 Y-32.445 E22.73602
G1 X35.501 Y-31.452 E22.97674
G1 X36.538 Y-30.242 E23.26216
G1 X37.685 Y-28.799 E23.59224
G1 X38.486 Y-27.720 E23.83300
G1 X39.396 Y-26.412 E24.11841
G1 X40.392 Y-24.862 E24.44844
G1 X41.080 Y-23.707 E24.68925
G1 X41.853 Y-22.313 E24.97467
G1 X42.689 Y-20.671 E25.30472
G1 X43.257 Y-19.453 E25.54551
G1 X43.886 Y-17.989 E25.83093
G1 X44.552 Y-16.270 E26.16104
G1 X45.073 Y-14.765 E26.44641
G1 X45.474 Y-13.481 E26.68719
G1 X45.963 Y-11.705 E27.01727
G1 X46.276 Y-10.398 E27.25802
G1 X46.600 Y-8.837 E27.54344
G1 X46.908 Y-7.020 E27.87354
G1 X47.117 Y-5.441 E28.15898
G1 X47.273 Y-3.855 E28.44435
G1 X47.364 Y-2.514 E28.68512
G1 X47.425 Y-0.672 E29.01523
G1 X47.421 Y0.921 E29.30061
G1 X47.376 Y2.265 E29.54137
G1 X47.252 Y4.103 E29.87147
G1 X47.117 Y5.441 E30.11220
G1 X46.908 Y7.020 E30.39763
G1 X46.600 Y8.837 E30.72763
G1 X46.277 Y10.397 E31.01307
G1 X45.963 Y11.705 E31.25388
G1 X45.474 Y13.481 E31.58397
G1 X45.074 Y14.765 E31.82471
G1 X44.812 Y15.526 E31.96891
G1 X44.466 Y16.504 E32.15483
G1 X43.980 Y17.758 E32.39555
G1 X43.257 Y19.453 E32.72564
G1 X42.579 Y20.895 E33.01107
G1 X41.970 Y22.093 E33.25181
G1 X41.080 Y23.707 E33.58193
G1 X40.261 Y25.073 E33.86726
G1 X39.534 Y26.204 E34.10807
G1 X38.486 Y27.720 E34.43810
G1 X37.685 Y28.799 E34.67891
G1 X36.696 Y30.049 E34.96432
G1 X35.501 Y31.452 E35.29443
G1 X34.425 Y32.627 E35.57985
G1 X33.486 Y33.589 E35.82057
G1 X32.156 Y34.864 E36.15068
G1 X31.155 Y35.761 E36.39141
G1 X30.541 Y36.281 E36.53559
G1 X29.742 Y36.945 E36.72153
G1 X28.684 Y37.773 E36.96225
G1 X27.195 Y38.858 E37.29233
G1 X25.874 Y39.750 E37.57775
G1 X24.737 Y40.467 E37.81851
G1 X23.147 Y41.397 E38.14855
G1 X21.964 Y42.037 E38.38934
G1 X20.539 Y42.751 E38.67476
G1 X18.863 Y43.516 E39.00487
G1 X17.622 Y44.033 E39.24559
G1 X16.133 Y44.600 E39.53102
G1 X14.388 Y45.193 E39.86108
G1 X13.102 Y45.583 E40.10186
G1 X11.563 Y45.997 E40.38728
G1 X9.768 Y46.411 E40.71734
G1 X8.449 Y46.669 E40.95810
G1 X6.876 Y46.927 E41.24353
G1 X5.048 Y47.158 E41.57363
G1 X3.709 Y47.282 E41.81435
G1 X2.119 Y47.380 E42.09978
G1 X0.276 Y47.427 E42.42989
G1 X-1.317 Y47.409 E42.71530
G1 X-2.660 Y47.353 E42.95605
G1 X-4.498 Y47.213 E43.28616
G1 X-5.833 Y47.067 E43.52688
G1 X-7.411 Y46.844 E43.81229
G1 X-9.225 Y46.521 E44.14237
G1 X-10.783 Y46.185 E44.42778
G1 X-12.088 Y45.860 E44.66854
G1 X-13.860 Y45.356 E44.99865
G1 X-15.140 Y44.945 E45.23937
G1 X-16.641 Y44.411 E45.52480
G1 X-18.354 Y43.731 E45.85486
G1 X-19.910 Y43.043 E46.15959
G1 X-21.249 Y42.400 E46.42568
G1 X-22.442 Y41.780 E46.66646
G1 X-24.048 Y40.877 E46.99659
G1 X-25.197 Y40.179 E47.23731
G1 X-26.532 Y39.310 E47.52272
G1 X-28.039 Y38.249 E47.85283
G1 X-29.112 Y37.439 E48.09356
G1 X-30.353 Y36.440 E48.37898
G1 X-31.746 Y35.233 E48.70908
G1 X-32.732 Y34.319 E48.94982
G1 X-33.306 Y33.755 E49.09401
G1 X-34.040 Y33.022 E49.27990
G1 X-34.962 Y32.044 E49.52065
G1 X-36.181 Y30.661 E49.85076
G1 X-37.035 Y29.624 E50.09149
G1 X-38.009 Y28.363 E50.37691
G1 X-39.083 Y26.864 E50.70702
G1 X-39.963 Y25.536 E50.99241
G1 X-40.671 Y24.393 E51.23317
G1 X-41.588 Y22.795 E51.56328
G1 X-42.217 Y21.607 E51.80400
G1 X-42.919 Y20.177 E52.08942
G1 X-43.670 Y18.494 E52.41953
G1 X-44.267 Y17.016 E52.70494
G1 X-44.731 Y15.755 E52.94568
G1 X-45.310 Y14.005 E53.27578
G1 X-45.754 Y12.475 E53.56118
G1 X-46.090 Y11.174 E53.80193
G1 X-46.489 Y9.374 E54.13205
G1 X-46.778 Y7.807 E54.41745
G1 X-46.980 Y6.479 E54.65818
G1 X-47.196 Y4.648 E54.98829
G1 X-47.348 Y2.625 E55.35169
G1 E53.35169 F2400.00000
G92 E0
G1 X-33.426 Y-14.260 F7800.000
G1 E2.00000 F2400.00000
G1 F1800
G1 X-32.928 Y-15.375 E2.21871
G1 X-32.393 Y-16.472 E2.43742
G1 X-31.821 Y-17.551 E2.65614
G1 X-31.214 Y-18.610 E2.87485
G1 X-30.571 Y-19.648 E3.09356
G1 X-29.893 Y-20.664 E3.31227
G1 X-29.182 Y-21.657 E3.53098
G1 X-28.438 Y-22.625 E3.74970
G1 X-27.665 Y-23.564 E3.96759
G1 X-26.784 Y-24.559 E4.20555
G1 X-26.017 Y-25.372 E4.40582
G1 X-25.150 Y-26.232 E4.62453
G1 X-24.255 Y-27.062 E4.84324
G1 X-23.332 Y-27.862 E5.06196
G1 X-22.383 Y-28.630 E5.28067
G1 X-21.408 Y-29.366 E5.49938
G1 X-20.410 Y-30.069 E5.71809
G1 X-19.392 Y-30.735 E5.93599
G1 X-18.255 Y-31.422 E6.17395
G1 X-17.280 Y-31.970 E6.37422
G1 X-16.197 Y-32.533 E6.59293
G1 X-15.095 Y-33.059 E6.81164
G1 X-13.975 Y-33.547 E7.03035
G1 X-12.845 Y-33.996 E7.24825
G1 X-11.593 Y-34.442 E7.48621
G1 X-10.529 Y-34.783 E7.68648
G1 X-9.359 Y-35.116 E7.90438
G1 X-8.069 Y-35.434 E8.14233
G1 X-6.975 Y-35.667 E8.34260
G1 X-5.773 Y-35.881 E8.56131
G1 X-4.564 Y-36.055 E8.78003
G1 X-3.350 Y-36.188 E8.99874
G1 X-2.133 Y-36.280 E9.21745
G1 X-0.917 Y-36.331 E9.43535
G1 X0.411 Y-36.339 E9.67331
G1 X1.529 Y-36.311 E9.87358
G1 X2.748 Y-36.239 E10.09229
G1 X3.964 Y-36.126 E10.31100
G1 X5.175 Y-35.973 E10.52971
G1 X6.380 Y-35.779 E10.74842
G1 X7.579 Y-35.544 E10.96713
G1 X8.769 Y-35.270 E11.18585
G1 X9.949 Y-34.955 E11.40456
G1 X11.113 Y-34.603 E11.62246
G1 X12.370 Y-34.172 E11.86041
G1 X13.416 Y-33.777 E12.06068
G1 X14.538 Y-33.309 E12.27858
G1 X15.746 Y-32.754 E12.51654
G1 X16.746 Y-32.256 E12.71681
G1 X17.821 Y-31.675 E12.93552
G1 X18.875 Y-31.059 E13.15423
G1 X19.907 Y-30.407 E13.37294
G1 X20.914 Y-29.724 E13.59084
G1 X21.985 Y-28.939 E13.82880
G1 X22.866 Y-28.250 E14.02907
G1 X23.802 Y-27.466 E14.24778
G1 X25.068 Y-26.309 E14.55495
G1 X25.593 Y-25.806 E14.68517
G1 X26.445 Y-24.932 E14.90388
G1 X27.268 Y-24.029 E15.12259
G1 X28.060 Y-23.100 E15.34131
G1 X28.820 Y-22.144 E15.56002
G1 X29.548 Y-21.164 E15.77873
G1 X30.242 Y-20.159 E15.99744
G1 X30.902 Y-19.132 E16.21615
G1 X31.527 Y-18.083 E16.43487
G1 X32.117 Y-17.014 E16.65357
G1 X32.671 Y-15.926 E16.87229
G1 X33.185 Y-14.823 E17.09019
G1 X33.703 Y-13.600 E17.32814
G1 X34.107 Y-12.557 E17.52841
G1 X34.510 Y-11.405 E17.74712
G1 X34.872 Y-10.243 E17.96502
G1 X35.222 Y-8.962 E18.20298
G1 X35.482 Y-7.874 E18.40325
G1 X35.727 Y-6.678 E18.62196
G1 X35.931 Y-5.474 E18.84068
G1 X36.095 Y-4.264 E19.05939
G1 X36.217 Y-3.054 E19.27728
G1 X36.303 Y-1.728 E19.51524
G1 X36.341 Y-0.611 E19.71551
G1 X36.341 Y0.606 E19.93341
G1 X36.293 Y1.934 E20.17137
G1 X36.218 Y3.049 E20.37164
G1 X36.095 Y4.264 E20.59035
G1 X35.931 Y5.474 E20.80906
G1 X35.727 Y6.678 E21.02777
G1 X35.483 Y7.870 E21.24567
G1 X35.170 Y9.161 E21.48363
G1 X34.874 Y10.239 E21.68390
G1 X34.510 Y11.405 E21.90261
G1 X34.109 Y12.553 E22.12051
G1 X33.626 Y13.791 E22.35847
G1 X33.187 Y14.819 E22.55873
G1 X32.671 Y15.926 E22.77745
G1 X32.117 Y17.014 E22.99616
G1 X31.527 Y18.083 E23.21487
G1 X30.902 Y19.132 E23.43358
G1 X30.242 Y20.159 E23.65229
G1 X29.253 Y21.560 E23.95946
G1 X28.820 Y22.144 E24.08968
G1 X28.060 Y23.100 E24.30840
G1 X27.268 Y24.029 E24.52711
G1 X26.445 Y24.932 E24.74582
G1 X25.596 Y25.803 E24.96371
G1 X24.635 Y26.720 E25.20167
G1 X23.802 Y27.466 E25.40194
G1 X22.866 Y28.250 E25.62066
G1 X21.505 Y29.293 E25.92782
G1 X20.918 Y29.722 E26.05804
G1 X19.907 Y30.407 E26.27676
G1 X18.875 Y31.059 E26.49547
G1 X17.821 Y31.675 E26.71418
G1 X16.746 Y32.256 E26.93289
G1 X15.653 Y32.800 E27.15160
G1 X14.543 Y33.308 E27.37031
G1 X13.420 Y33.775 E27.58821
G1 X12.176 Y34.242 E27.82617
G1 X11.117 Y34.602 E28.02644
G1 X9.953 Y34.954 E28.24434
G1 X8.668 Y35.293 E28.48229
G1 X7.579 Y35.544 E28.68257
G1 X6.385 Y35.778 E28.90046
G1 X5.073 Y35.986 E29.13842
G1 X3.964 Y36.126 E29.33869
G1 X2.748 Y36.239 E29.55740
G1 X1.529 Y36.311 E29.77611
G1 X0.308 Y36.342 E29.99482
G1 X-0.913 Y36.331 E30.21354
G1 X-2.133 Y36.280 E30.43225
G1 X-3.350 Y36.188 E30.65096
G1 X-4.560 Y36.055 E30.86886
G1 X-5.874 Y35.863 E31.10682
G1 X-6.975 Y35.667 E31.30709
G1 X-8.169 Y35.412 E31.52580
G1 X-9.354 Y35.118 E31.74451
G1 X-10.529 Y34.783 E31.96322
G1 X-11.691 Y34.410 E32.18194
G1 X-12.841 Y33.998 E32.40064
G1 X-13.975 Y33.547 E32.61936
G1 X-15.090 Y33.060 E32.83726
G1 X-16.288 Y32.485 E33.07521
G1 X-17.280 Y31.970 E33.27548
G1 X-18.345 Y31.372 E33.49419
G1 X-19.388 Y30.738 E33.71291
G1 X-20.410 Y30.069 E33.93162
G1 X-21.408 Y29.366 E34.15033
G1 X-22.383 Y28.630 E34.36904
G1 X-23.332 Y27.862 E34.58775
G1 X-24.255 Y27.062 E34.80646
G1 X-25.147 Y26.235 E35.02436
G1 X-26.088 Y25.298 E35.26232
G1 X-26.855 Y24.484 E35.46259
G1 X-27.662 Y23.568 E35.68130
G1 X-28.438 Y22.625 E35.90001
G1 X-29.182 Y21.657 E36.11873
G1 X-29.893 Y20.664 E36.33744
G1 X-30.571 Y19.648 E36.55615
G1 X-31.214 Y18.610 E36.77486
G1 X-31.821 Y17.551 E36.99357
G1 X-32.391 Y16.476 E37.21147
G1 X-32.970 Y15.281 E37.44943
G1 X-33.426 Y14.260 E37.64970
G1 X-33.886 Y13.129 E37.86841
G1 X-34.308 Y11.983 E38.08712
G1 X-34.691 Y10.823 E38.30583
G1 X-35.035 Y9.652 E38.52455
G1 X-35.339 Y8.469 E38.74326
G1 X-35.604 Y7.277 E38.96197
G1 X-35.828 Y6.077 E39.18068
G1 X-36.012 Y4.870 E39.39939
G1 X-36.156 Y3.657 E39.61811
G1 X-36.258 Y2.440 E39.83682
G1 X-36.320 Y1.221 E40.05553
G1 X-36.340 Y-0.000 E40.27424
G1 X-36.320 Y-1.216 E40.49214
G1 X-36.249 Y-2.543 E40.73010
G1 X-36.156 Y-3.657 E40.93037
G1 X-36.012 Y-4.870 E41.14908
G1 X-35.828 Y-6.077 E41.36779
G1 X-35.604 Y-7.277 E41.58650
G1 X-35.339 Y-8.469 E41.80521
G1 X-35.035 Y-9.652 E42.02393
G1 X-34.691 Y-10.823 E42.24264
G1 X-34.308 Y-11.983 E42.46135
G1 X-33.886 Y-13.129 E42.68006
G1 X-33.471 Y-14.148 E42.87728
G1 X-34.730 Y-14.842 F7800.000
G1 F1800
G1 X-34.222 Y-15.979 E43.10029
G1 X-33.666 Y-17.120 E43.32760
G1 X-33.072 Y-18.241 E43.55491
G1 X-32.441 Y-19.342 E43.78222
G1 X-31.772 Y-20.421 E44.00952
G1 X-31.069 Y-21.477 E44.23683
G1 X-30.330 Y-22.508 E44.46414
G1 X-29.556 Y-23.515 E44.69145
G1 X-28.751 Y-24.492 E44.91826
G1 X-27.839 Y-25.523 E45.16482
G1 X-27.040 Y-26.370 E45.37337
G1 X-26.139 Y-27.263 E45.60068
G1 X-25.208 Y-28.126 E45.82798
G1 X-24.249 Y-28.957 E46.05529
G1 X-23.263 Y-29.756 E46.28260
G1 X-22.250 Y-30.520 E46.50991
G1 X-21.212 Y-31.251 E46.73722
G1 X-20.153 Y-31.944 E46.96403
G1 X-18.974 Y-32.656 E47.21059
G1 X-17.960 Y-33.227 E47.41913
G1 X-16.833 Y-33.812 E47.64644
G1 X-15.688 Y-34.358 E47.87375
G1 X-14.525 Y-34.866 E48.10106
G1 X-13.348 Y-35.333 E48.32787
G1 X-12.051 Y-35.795 E48.57443
G1 X-10.943 Y-36.151 E48.78298
G1 X-9.725 Y-36.497 E49.00979
G1 X-8.388 Y-36.826 E49.25634
G1 X-7.249 Y-37.069 E49.46489
G1 X-6.000 Y-37.291 E49.69220
G1 X-4.744 Y-37.472 E49.91951
G1 X-3.482 Y-37.610 E50.14682
G1 X-2.217 Y-37.706 E50.37413
G1 X-0.952 Y-37.759 E50.60094
G1 X0.425 Y-37.767 E50.84750
G1 X1.589 Y-37.738 E51.05604
G1 X2.856 Y-37.663 E51.28335
G1 X4.119 Y-37.546 E51.51066
G1 X5.378 Y-37.387 E51.73797
G1 X6.631 Y-37.185 E51.96528
G1 X7.877 Y-36.942 E52.19259
G1 X9.113 Y-36.656 E52.41990
G1 X10.339 Y-36.329 E52.64720
G1 X11.551 Y-35.963 E52.87402
G1 X12.854 Y-35.516 E53.12057
G1 X13.943 Y-35.105 E53.32912
G1 X15.112 Y-34.618 E53.55593
G1 X16.362 Y-34.043 E53.80249
G1 X17.405 Y-33.524 E54.01104
G1 X18.521 Y-32.920 E54.23835
G1 X19.616 Y-32.280 E54.46565
G1 X20.690 Y-31.603 E54.69296
G1 X21.737 Y-30.891 E54.91977
G1 X22.848 Y-30.078 E55.16633
G1 X23.765 Y-29.361 E55.37488
G1 X24.738 Y-28.546 E55.60219
G1 X26.057 Y-27.340 E55.92225
G1 X26.599 Y-26.820 E56.05677
G1 X27.485 Y-25.912 E56.28408
G1 X28.340 Y-24.974 E56.51138
G1 X29.163 Y-24.008 E56.73869
G1 X29.953 Y-23.015 E56.96600
G1 X30.709 Y-21.996 E57.19331
G1 X31.431 Y-20.952 E57.42062
G1 X32.117 Y-19.884 E57.64793
G1 X32.767 Y-18.794 E57.87524
G1 X33.379 Y-17.683 E58.10254
G1 X33.955 Y-16.552 E58.32985
G1 X34.490 Y-15.404 E58.55667
G1 X35.027 Y-14.137 E58.80322
G1 X35.448 Y-13.051 E59.01177
G1 X35.866 Y-11.853 E59.23908
G1 X36.243 Y-10.644 E59.46589
G1 X36.606 Y-9.316 E59.71245
G1 X36.877 Y-8.184 E59.92099
G1 X37.131 Y-6.940 E60.14830
G1 X37.343 Y-5.689 E60.37561
G1 X37.513 Y-4.432 E60.60292
G1 X37.641 Y-3.172 E60.82973
G1 X37.730 Y-1.798 E61.07629
G1 X37.769 Y-0.635 E61.28484
G1 X37.769 Y0.632 E61.51165
G1 X37.719 Y2.007 E61.75820
G1 X37.641 Y3.169 E61.96675
G1 X37.513 Y4.432 E62.19406
G1 X37.343 Y5.689 E62.42137
G1 X37.131 Y6.940 E62.64868
G1 X36.877 Y8.181 E62.87549
G1 X36.553 Y9.519 E63.12205
G1 X36.244 Y10.641 E63.33059
G1 X35.866 Y11.853 E63.55790
G1 X35.449 Y13.048 E63.78472
G1 X34.948 Y14.331 E64.03127
G1 X34.491 Y15.402 E64.23982
G1 X33.955 Y16.552 E64.46713
G1 X33.379 Y17.683 E64.69444
G1 X32.767 Y18.794 E64.92174
G1 X32.117 Y19.884 E65.14905
G1 X31.431 Y20.952 E65.37636
G1 X30.400 Y22.412 E65.69643
G1 X29.953 Y23.015 E65.83094
G1 X29.163 Y24.008 E66.05825
G1 X28.340 Y24.974 E66.28556
G1 X27.485 Y25.912 E66.51287
G1 X26.601 Y26.818 E66.73968
G1 X25.605 Y27.769 E66.98623
G1 X24.738 Y28.546 E67.19478
G1 X23.765 Y29.361 E67.42210
G1 X22.347 Y30.447 E67.74216
G1 X21.740 Y30.890 E67.87667
G1 X20.690 Y31.603 E68.10398
G1 X19.169 Y32.541 E68.42405
G1 X18.521 Y32.920 E68.55856
G1 X17.405 Y33.524 E68.78587
G1 X16.269 Y34.090 E69.01318
G1 X15.114 Y34.617 E69.24049
G1 X13.945 Y35.104 E69.46730
G1 X12.656 Y35.587 E69.71386
G1 X11.554 Y35.962 E69.92240
G1 X10.342 Y36.329 E70.14922
G1 X9.011 Y36.680 E70.39577
G1 X7.877 Y36.942 E70.60432
G1 X6.634 Y37.185 E70.83113
G1 X5.274 Y37.400 E71.07769
G1 X4.119 Y37.546 E71.28624
G1 X2.856 Y37.663 E71.51355
G1 X1.589 Y37.738 E71.74085
G1 X0.320 Y37.770 E71.96816
G1 X-0.949 Y37.759 E72.19547
G1 X-2.217 Y37.706 E72.42278
G1 X-3.482 Y37.610 E72.65009
G1 X-4.741 Y37.472 E72.87690
G1 X-6.103 Y37.273 E73.12346
G1 X-7.249 Y37.069 E73.33200
G1 X-8.490 Y36.804 E73.55931
G1 X-9.722 Y36.498 E73.78662
