;FLAVOR:Marlin
;TIME:436
;Filament used: 0.672037m
;Layer height: 0.6
;MINX:-49.582
;MINY:-49.6
;MINZ:0.3
;MAXX:49.582
;MAXY:49.6
;MAXZ:0.9
;Generated with Cura_SteamEngine 4.9.1
M104 S200
M105
M109 S200
M82 ;absolute extrusion mode
G28 ;Home
G1 Z15.0 F6000 ;Move the platform down 15mm
;Prime the extruder
G92 E0
G1 F200 E3
G92 E0
G92 E0
G92 E0
G1 F1500 E-6.5
;LAYER_COUNT:2
;LAYER:0
M107
;MESH:circles.STL
G0 F3600 X9.443 Y-1.726 Z0.3
;TYPE:WALL-OUTER
G1 F1500 E0
G1 F1800 X9.571 Y-.74 E0.03741
G1 X9.596 Y0.246 E0.07451
G1 X9.52 Y1.231 E0.11168
G1 X9.342 Y2.208 E0.14904
G1 X9.068 Y3.148 E0.18588
G1 X8.692 Y4.074 E0.22347
G1 X8.23 Y4.942 E0.26047
G1 X7.677 Y5.763 E0.29771
G1 X7.048 Y6.517 E0.33465
G1 X6.337 Y7.211 E0.37203
G1 X5.559 Y7.826 E0.40934
G1 X4.732 Y8.352 E0.44621
G1 X3.84 Y8.798 E0.48373
G1 X2.924 Y9.143 E0.52055
G1 X1.959 Y9.398 E0.5581
G1 X0.986 Y9.549 E0.59515
G1 X0.00 Y9.6 E0.63229
G1 X-.986 Y9.549 E0.66943
G1 X-1.959 Y9.398 E0.70648
G1 X-2.924 Y9.143 E0.74403
G1 X-3.84 Y8.798 E0.78085
G1 X-4.732 Y8.352 E0.81837
G1 X-5.559 Y7.826 E0.85524
G1 X-6.337 Y7.211 E0.89255
G1 X-7.048 Y6.517 E0.92993
G1 X-7.677 Y5.763 E0.96687
G1 X-8.23 Y4.942 E1.00411
G1 X-8.692 Y4.074 E1.04111
G1 X-9.068 Y3.148 E1.07871
G1 X-9.342 Y2.208 E1.11554
G1 X-9.52 Y1.231 E1.1529
G1 X-9.596 Y0.246 E1.19007
G1 X-9.571 Y-.74 E1.22718
G1 X-9.443 Y-1.726 E1.26458
G1 X-9.217 Y-2.68 E1.30147
G1 X-8.89 Y-3.621 E1.33894
G1 X-8.476 Y-4.507 E1.37573
G1 X-7.964 Y-5.359 E1.41313
G1 X-7.374 Y-6.145 E1.4501
G1 X-6.698 Y-6.876 E1.48756
G1 X-5.955 Y-7.528 E1.52475
G1 X-5.15 Y-8.101 E1.56192
G1 X-4.296 Y-8.585 E1.59885
G1 X-3.384 Y-8.983 E1.63629
G1 X-2.449 Y-9.281 E1.67321
G1 X-1.474 Y-9.486 E1.71069
G1 X-.49 Y-9.587 E1.74791
G1 X0.49 Y-9.587 E1.78477
G1 X1.474 Y-9.486 E1.82199
G1 X2.449 Y-9.281 E1.85947
G1 X3.384 Y-8.983 E1.89639
G1 X4.296 Y-8.585 E1.93382
G1 X5.15 Y-8.101 E1.97075
G1 X5.955 Y-7.528 E2.00793
G1 X6.698 Y-6.876 E2.04512
G1 X7.374 Y-6.145 E2.08257
G1 X7.964 Y-5.359 E2.11955
G1 X8.476 Y-4.507 E2.15694
G1 X8.889 Y-3.624 E2.19362
G1 X9.219 Y-2.677 E2.23135
G1 X9.443 Y-1.726 E2.2681
G0 F3600 X9.494 Y-1.33
G0 X8.664 Y-1.588
;TYPE:SKIN
G1 F1800 X8.783 Y-.677 E2.30267
G1 X8.805 Y0.225 E2.33661
G1 X8.736 Y1.124 E2.37053
G1 X8.569 Y2.038 E2.40549
G1 X8.322 Y2.885 E2.43868
G1 X7.974 Y3.742 E2.47348
G1 X7.553 Y4.535 E2.50725
G1 X7.049 Y5.283 E2.54119
G1 X6.46 Y5.988 E2.57575
G1 X5.823 Y6.611 E2.60927
G1 X5.101 Y7.181 E2.64388
G1 X4.341 Y7.664 E2.67775
G1 X3.518 Y8.076 E2.71238
G1 X2.69 Y8.388 E2.74567
G1 X1.788 Y8.626 E2.78076
G1 X0.903 Y8.763 E2.81445
G1 X0.00 Y8.81 E2.84847
G1 X-.903 Y8.763 E2.88249
G1 X-1.788 Y8.626 E2.91618
G1 X-2.69 Y8.388 E2.95128
G1 X-3.518 Y8.076 E2.98456
G1 X-4.341 Y7.664 E3.01919
G1 X-5.101 Y7.181 E3.05307
G1 X-5.823 Y6.611 E3.08767
G1 X-6.46 Y5.988 E3.1212
G1 X-7.049 Y5.283 E3.15576
G1 X-7.553 Y4.535 E3.18969
G1 X-7.974 Y3.742 E3.22347
G1 X-8.322 Y2.885 E3.25826
G1 X-8.569 Y2.038 E3.29146
G1 X-8.736 Y1.124 E3.32641
G1 X-8.805 Y0.225 E3.36033
G1 X-8.783 Y-.677 E3.39428
G1 X-8.663 Y-1.595 E3.42911
G1 X-8.459 Y-2.455 E3.46236
G1 X-8.156 Y-3.328 E3.49712
G1 X-7.781 Y-4.129 E3.5304
G1 X-7.308 Y-4.916 E3.56494
G1 X-6.773 Y-5.629 E3.59848
G1 X-6.138 Y-6.316 E3.63367
G1 X-5.465 Y-6.906 E3.66734
G1 X-4.723 Y-7.435 E3.70163
G1 X-3.95 Y-7.874 E3.73507
G1 X-3.091 Y-8.248 E3.77032
G1 X-2.252 Y-8.516 E3.80345
G1 X-1.356 Y-8.704 E3.83789
G1 X-.448 Y-8.797 E3.87223
G1 X0.448 Y-8.797 E3.90594
G1 X1.356 Y-8.704 E3.94028
G1 X2.252 Y-8.516 E3.97472
G1 X3.091 Y-8.248 E4.00786
G1 X3.95 Y-7.874 E4.0431
G1 X4.723 Y-7.435 E4.07655
G1 X5.465 Y-6.906 E4.11083
G1 X6.138 Y-6.316 E4.1445
G1 X6.773 Y-5.629 E4.1797
G1 X7.308 Y-4.916 E4.21323
G1 X7.781 Y-4.129 E4.24778
G1 X8.154 Y-3.334 E4.28081
G1 X8.459 Y-2.456 E4.31578
G1 X8.664 Y-1.588 E4.34933
G0 F3600 X3.744 Y-7.569
G1 F1800 X7.556 Y-3.756 E4.55218
G1 X7.697 Y-3.615
G0 F3600 X8.199 Y-1.982
G1 F1800 X1.976 Y-8.205 E4.88327
G0 F3600 X0.635 Y-8.415
G1 F1800 X8.424 Y-.626 E5.29767
G0 F3600 X8.421 Y0.502
G1 F1800 X-.508 Y-8.428 E5.77276
G0 F3600 X-1.514 Y-8.302
G1 F1800 X8.299 Y1.511 E6.29486
G0 F3600 X8.08 Y2.423
G1 F1800 X-2.424 Y-8.081 E6.85371
G0 F3600 X-3.256 Y-7.781
G1 F1800 X7.782 Y3.256 E7.44096
G0 F3600 X7.416 Y4.022
G1 F1800 X-4.023 Y-7.417 E8.04956
G0 F3600 X-4.727 Y-6.989
G1 F1800 X6.989 Y4.726 E8.67287
G0 F3600 X6.503 Y5.372
G1 F1800 X-5.373 Y-6.504 E9.30473
G0 F3600 X-5.968 Y-5.968
G1 F1800 X5.965 Y5.965 E9.93962
G0 F3600 X5.374 Y6.505
G1 F1800 X-6.51 Y-5.378 E10.57187
G0 F3600 X-6.994 Y-4.731
G1 F1800 X4.727 Y6.989 E11.19545
G0 F3600 X4.024 Y7.418
G1 F1800 X-7.421 Y-4.026 E11.80435
G0 F3600 X-7.788 Y-3.263
G1 F1800 X3.261 Y7.786 E12.3922
G0 F3600 X2.426 Y8.083
G1 F1800 X-8.085 Y-2.428 E12.95143
G0 F3600 X-8.309 Y-1.52
G1 F1800 X1.515 Y8.303 E13.47408
G0 F3600 X0.503 Y8.423
G1 F1800 X-8.427 Y-.507 E13.9492
G0 F3600 X-8.411 Y0.639
G1 F1800 X-.634 Y8.415 E14.36294
G0 F3600 X-1.98 Y8.201
G1 F1800 X-8.213 Y1.968 E14.69456
G1 X-8.354 Y1.827
G0 F3600 X-7.558 Y3.754
G1 F1800 X-3.764 Y7.549 E14.89645
G1 X-3.623 Y7.69
G1 F1500 E8.39645
G0 F3600 X-9.05 Y3.142
G0 X-10.09 Y3.446
G0 X-18.992 Y3.624
G0 X-20.04 Y3.823
G0 X-20.363 Y1.541
G0 X-20.46 Y-1.287
G0 X-20.361 Y-1.281
;TYPE:WALL-OUTER
G1 F1500 E14.89645
G1 F1800 X-20.361 Y1.281 E14.99283
G1 X-20.04 Y3.823 E15.08922
G1 X-19.402 Y6.304 E15.1856
G1 X-18.46 Y8.687 E15.282
G1 X-17.225 Y10.932 E15.3784
G1 X-15.719 Y13.004 E15.47476
G1 X-13.965 Y14.871 E15.57114
G1 X-11.992 Y16.504 E15.66749
G1 X-9.828 Y17.877 E15.7639
G1 X-7.51 Y18.969 E15.8603
G1 X-5.074 Y19.76 E15.95666
G1 X-2.557 Y20.24 E16.05306
G1 X0.00 Y20.401 E16.14944
G1 X2.557 Y20.24 E16.24583
G1 X5.074 Y19.76 E16.34223
G1 X7.51 Y18.969 E16.43859
G1 X9.828 Y17.877 E16.53498
G1 X11.992 Y16.504 E16.6314
G1 X13.965 Y14.871 E16.72775
G1 X15.719 Y13.004 E16.82413
G1 X17.225 Y10.932 E16.92049
G1 X18.46 Y8.687 E17.01689
G1 X19.402 Y6.304 E17.11329
G1 X20.04 Y3.823 E17.20966
G1 X20.361 Y1.281 E17.30606
G1 X20.361 Y-1.281 E17.40244
G1 X20.04 Y-3.823 E17.49883
G1 X19.402 Y-6.304 E17.59521
G1 X18.46 Y-8.687 E17.69161
G1 X17.225 Y-10.932 E17.78801
G1 X15.719 Y-13.004 E17.88437
G1 X13.965 Y-14.871 E17.98075
G1 X11.992 Y-16.504 E18.0771
G1 X9.828 Y-17.877 E18.17351
G1 X7.51 Y-18.969 E18.26991
G1 X5.074 Y-19.76 E18.36627
G1 X2.557 Y-20.24 E18.46267
G1 X0.00 Y-20.401 E18.55905
G1 X-2.557 Y-20.24 E18.65544
G1 X-5.074 Y-19.76 E18.75184
G1 X-7.51 Y-18.969 E18.8482
G1 X-9.828 Y-17.877 E18.94459
G1 X-11.992 Y-16.504 E19.04101
G1 X-13.965 Y-14.871 E19.13736
G1 X-15.719 Y-13.004 E19.23374
G1 X-17.225 Y-10.932 E19.3301
G1 X-18.46 Y-8.687 E19.4265
G1 X-19.402 Y-6.304 E19.5229
G1 X-20.04 Y-3.823 E19.61927
G1 X-20.361 Y-1.281 E19.71567
G0 F3600 X-20.361 Y-.881
G0 X-20.461 Y-.881
G0 X-20.079 Y-3.83
G0 X-19.44 Y-6.316
G0 X-18.496 Y-8.704
G0 X-17.258 Y-10.953
G0 X-15.749 Y-13.029
G0 X-13.992 Y-14.9
G0 X-12.015 Y-16.536
G0 X-9.847 Y-17.912
G0 X-7.524 Y-19.006
G0 X-5.083 Y-19.798
G0 X-2.562 Y-20.279
G0 X0.00 Y-20.441
G0 X2.562 Y-20.279
G0 X5.083 Y-19.798
G0 X7.524 Y-19.006
G0 X9.847 Y-17.912
G0 X29.021 Y-5.294
G0 X29.119 Y-5.311
G1 F1800 X29.512 Y-2.283 E19.83054
G1 X29.589 Y0.761 E19.94509
G1 X29.355 Y3.797 E20.05965
G1 X28.807 Y6.804 E20.17464
G1 X27.958 Y9.719 E20.28886
G1 X26.806 Y12.552 E20.40392
G1 X25.376 Y15.238 E20.5184
G1 X23.674 Y17.767 E20.63308
G1 X21.722 Y20.108 E20.74775
G1 X19.545 Y22.23 E20.86212
G1 X17.154 Y24.122 E20.97683
G1 X14.576 Y25.762 E21.09178
G1 X11.849 Y27.125 E21.20647
G1 X9.006 Y28.196 E21.32077
G1 X6.051 Y28.975 E21.43574
G1 X3.041 Y29.443 E21.55034
G1 X0.00 Y29.6 E21.66489
G1 X-3.041 Y29.443 E21.77945
G1 X-6.051 Y28.975 E21.89405
G1 X-9.006 Y28.196 E22.00902
G1 X-11.849 Y27.125 E22.12332
G1 X-14.576 Y25.762 E22.23801
G1 X-17.154 Y24.122 E22.35296
G1 X-19.545 Y22.23 E22.46767
G1 X-21.722 Y20.108 E22.58204
G1 X-23.674 Y17.767 E22.69671
G1 X-25.376 Y15.238 E22.81139
G1 X-26.806 Y12.552 E22.92587
G1 X-27.958 Y9.719 E23.04093
G1 X-28.807 Y6.804 E23.15515
G1 X-29.355 Y3.797 E23.27014
G1 X-29.589 Y0.761 E23.3847
G1 X-29.512 Y-2.283 E23.49925
G1 X-29.119 Y-5.311 E23.61412
G1 X-28.42 Y-8.27 E23.72851
G1 X-27.419 Y-11.152 E23.84329
G1 X-26.127 Y-13.909 E23.95783
G1 X-24.557 Y-16.524 E24.07258
G1 X-22.731 Y-18.957 E24.18702
G1 X-20.652 Y-21.204 E24.30219
G1 X-18.373 Y-23.207 E24.41634
G1 X-15.884 Y-24.976 E24.53122
G1 X-13.238 Y-26.475 E24.64563
G1 X-10.439 Y-27.698 E24.76054
G1 X-7.542 Y-28.622 E24.87494
G1 X-4.552 Y-29.248 E24.98987
G1 X-1.518 Y-29.56 E25.10461
G1 X0.00 Y-29.6 E25.16174
G1 X1.518 Y-29.56 E25.21887
G1 X4.552 Y-29.248 E25.33361
G1 X7.542 Y-28.622 E25.44854
G1 X10.439 Y-27.698 E25.56294
G1 X13.238 Y-26.475 E25.67785
G1 X15.884 Y-24.976 E25.79226
G1 X18.373 Y-23.207 E25.90714
G1 X20.652 Y-21.204 E26.02129
G1 X22.731 Y-18.957 E26.13645
G1 X24.557 Y-16.524 E26.2509
G1 X26.127 Y-13.909 E26.36565
G1 X27.419 Y-11.152 E26.48019
G1 X28.42 Y-8.27 E26.59497
G1 X29.119 Y-5.311 E26.70935
G0 F3600 X29.17 Y-4.915
G0 X28.34 Y-5.171
;TYPE:SKIN
G1 F1800 X28.724 Y-2.22 E26.82131
G1 X28.797 Y0.74 E26.9327
G1 X28.571 Y3.69 E27.04401
G1 X28.034 Y6.634 E27.15659
G1 X27.213 Y9.452 E27.26702
G1 X26.086 Y12.223 E27.37956
G1 X24.702 Y14.824 E27.4904
G1 X23.04 Y17.293 E27.60237
G1 X21.135 Y19.579 E27.71432
G1 X19.031 Y21.63 E27.82486
G1 X16.69 Y23.482 E27.93716
G1 X14.192 Y25.07 E28.04852
G1 X11.527 Y26.403 E28.16062
G1 X8.77 Y27.441 E28.27145
G1 X5.883 Y28.202 E28.38377
G1 X2.958 Y28.657 E28.49514
G1 X0.00 Y28.81 E28.60657
G1 X-2.958 Y28.657 E28.718
G1 X-5.883 Y28.202 E28.82937
G1 X-8.77 Y27.441 E28.94169
G1 X-11.527 Y26.403 E29.05252
G1 X-14.192 Y25.07 E29.16462
G1 X-16.69 Y23.482 E29.27598
G1 X-19.031 Y21.63 E29.38828
G1 X-21.135 Y19.579 E29.49882
G1 X-23.04 Y17.293 E29.61077
G1 X-24.702 Y14.824 E29.72274
G1 X-26.086 Y12.223 E29.83358
G1 X-27.213 Y9.452 E29.94613
G1 X-28.034 Y6.634 E30.05655
G1 X-28.571 Y3.69 E30.16913
G1 X-28.797 Y0.74 E30.28044
G1 X-28.724 Y-2.22 E30.39183
G1 X-28.34 Y-5.171 E30.50379
G1 X-27.659 Y-8.054 E30.61524
G1 X-26.688 Y-10.851 E30.72662
G1 X-25.428 Y-13.538 E30.83827
G1 X-23.901 Y-16.082 E30.9499
G1 X-22.126 Y-18.447 E31.06114
G1 X-20.092 Y-20.645 E31.17381
G1 X-17.889 Y-22.581 E31.28414
G1 X-15.453 Y-24.312 E31.39657
G1 X-12.889 Y-25.766 E31.50746
G1 X-10.163 Y-26.956 E31.61936
G1 X-7.345 Y-27.855 E31.73064
G1 X-4.425 Y-28.466 E31.84288
G1 X-1.469 Y-28.77 E31.95467
G1 X0.00 Y-28.81 E32.00996
G1 X1.469 Y-28.77 E32.06524
G1 X4.425 Y-28.466 E32.17704
G1 X7.345 Y-27.855 E32.28927
G1 X10.163 Y-26.956 E32.40055
G1 X12.889 Y-25.766 E32.51245
G1 X15.453 Y-24.312 E32.62334
G1 X17.889 Y-22.581 E32.73577
G1 X20.092 Y-20.645 E32.8461
G1 X22.126 Y-18.447 E32.95877
G1 X23.901 Y-16.082 E33.07001
G1 X25.428 Y-13.538 E33.18164
G1 X26.688 Y-10.851 E33.29329
G1 X27.659 Y-8.054 E33.40468
G1 X28.34 Y-5.171 E33.51612
G0 F3600 X20.818 Y-3.971
G1 F1800 X20.155 Y-6.549 E33.61627
G1 X19.177 Y-9.024 E33.71638
G1 X17.893 Y-11.356 E33.81654
G1 X16.329 Y-13.509 E33.91665
G1 X14.506 Y-15.448 E34.01677
G1 X12.458 Y-17.144 E34.11681
G1 X10.209 Y-18.57 E34.217
G1 X7.802 Y-19.705 E34.31711
G1 X5.271 Y-20.527 E34.41723
G1 X2.656 Y-21.026 E34.51738
G1 X0.00 Y-21.193 E34.6175
G1 X-2.656 Y-21.026 E34.71762
G1 X-5.271 Y-20.527 E34.81777
G1 X-7.802 Y-19.705 E34.91789
G1 X-10.209 Y-18.57 E35.01801
G1 X-12.458 Y-17.144 E35.11819
G1 X-14.506 Y-15.448 E35.21823
G1 X-16.329 Y-13.509 E35.31835
G1 X-17.893 Y-11.356 E35.41847
G1 X-19.177 Y-9.024 E35.51862
G1 X-20.155 Y-6.549 E35.61874
G1 X-20.818 Y-3.971 E35.71888
G1 X-21.151 Y-1.331 E35.81899
G1 X-21.151 Y1.331 E35.91913
G1 X-20.818 Y3.971 E36.01924
G1 X-20.155 Y6.549 E36.11938
G1 X-19.177 Y9.024 E36.2195
G1 X-17.893 Y11.356 E36.31965
G1 X-16.329 Y13.509 E36.41977
G1 X-14.506 Y15.448 E36.51989
G1 X-12.458 Y17.144 E36.61993
G1 X-10.209 Y18.57 E36.72012
G1 X-7.802 Y19.705 E36.82023
G1 X-5.271 Y20.527 E36.92035
G1 X-2.656 Y21.026 E37.0205
G1 X0.00 Y21.193 E37.12062
G1 X2.656 Y21.026 E37.22074
G1 X5.271 Y20.527 E37.32089
G1 X7.802 Y19.705 E37.42101
G1 X10.209 Y18.57 E37.52112
G1 X12.458 Y17.144 E37.62131
G1 X14.506 Y15.448 E37.72135
G1 X16.329 Y13.509 E37.82147
G1 X17.893 Y11.356 E37.92159
G1 X19.177 Y9.024 E38.02174
G1 X20.155 Y6.549 E38.12186
G1 X20.818 Y3.971 E38.222
G1 X21.151 Y1.331 E38.32211
G1 X21.151 Y-1.331 E38.42225
G1 X20.818 Y-3.971 E38.52236
G0 F3600 X16.406 Y-23.19
G1 F1800 X23.248 Y-16.349 E38.88636
G1 X23.389 Y-16.208
G0 F3600 X25.118 Y-13.348
G1 F1800 X13.409 Y-25.057 E39.50933
G1 X13.268 Y-25.198
G0 F3600 X11.245 Y-26.089
G1 F1800 X26.118 Y-11.216 E40.30063
G1 X26.259 Y-11.075
G0 F3600 X26.812 Y-9.391
G1 F1800 X9.376 Y-26.827 E41.2283
G1 X9.235 Y-26.968
G0 F3600 X7.714 Y-27.357
G1 F1800 X27.371 Y-7.701 E42.27411
G0 F3600 X27.721 Y-6.219
G1 F1800 X6.22 Y-27.72 E43.41806
G0 F3600 X4.789 Y-28.019
G1 F1800 X28.026 Y-4.783 E44.65434
G0 F3600 X28.195 Y-3.482
G1 F1800 X3.478 Y-28.2 E45.96942
G0 F3600 X2.217 Y-28.329
G1 F1800 X28.364 Y-2.182 E47.36055
G0 F3600 X28.393 Y-1.022
G1 F1800 X18.601 Y-10.813 E47.8815
G1 X18.46 Y-10.954
G0 F3600 X19.761 Y-8.522
G1 F1800 X28.421 Y0.137 E48.34222
G0 F3600 X28.396 Y1.243
G1 F1800 X20.499 Y-6.653 E48.76235
G0 F3600 X20.89 Y-5.13
G1 F1800 X28.316 Y2.294 E49.15739
G0 F3600 X28.235 Y3.345
G1 F1800 X21.217 Y-3.672 E49.53075
G0 F3600 X21.38 Y-2.378
G1 F1800 X28.087 Y4.328 E49.88757
G0 F3600 X27.913 Y5.285
G1 F1800 X21.51 Y-1.117 E50.22821
G0 F3600 X21.51 Y0.014
G1 F1800 X27.738 Y6.242 E50.55956
G0 F3600 X27.509 Y7.145
G1 F1800 X21.51 Y1.145 E50.87876
G0 F3600 X21.406 Y2.172
G1 F1800 X27.254 Y8.02 E51.1899
G0 F3600 X26.998 Y8.896
G1 F1800 X21.279 Y3.177 E51.49418
G0 F3600 X21.138 Y4.167
G1 F1800 X26.707 Y9.736 E51.79047
G0 F3600 X26.38 Y10.54
G1 F1800 X20.906 Y5.067 E52.08169
G0 F3600 X20.675 Y5.967
G1 F1800 X26.053 Y11.345 E52.36782
G0 F3600 X25.72 Y12.143
G1 F1800 X20.423 Y6.846 E52.64964
G0 F3600 X20.103 Y7.657
G1 F1800 X25.327 Y12.882 E52.92761
G0 F3600 X24.934 Y13.62
G1 F1800 X19.782 Y8.469 E53.20169
G0 F3600 X19.451 Y9.269
G1 F1800 X24.541 Y14.359 E53.4725
G0 F3600 X24.11 Y15.059
G1 F1800 X19.05 Y9.999 E53.74171
G0 F3600 X18.648 Y10.728
G1 F1800 X23.654 Y15.735 E54.00808
G0 F3600 X23.199 Y16.411
G1 F1800 X18.246 Y11.457 E54.27163
G0 F3600 X17.779 Y12.122
G1 F1800 X22.743 Y17.086 E54.53573
G0 F3600 X22.229 Y17.703
G1 F1800 X17.303 Y12.778 E54.79779
G0 F3600 X16.827 Y13.433
G1 F1800 X21.715 Y18.321 E55.05785
G0 F3600 X21.201 Y18.938
G1 F1800 X16.312 Y14.05 E55.31794
G0 F3600 X15.764 Y14.633
G1 F1800 X20.665 Y19.533 E55.57867
G0 F3600 X20.092 Y20.092
G1 F1800 X15.216 Y15.216 E55.83809
G0 F3600 X14.657 Y15.788
G1 F1800 X19.518 Y20.65 E56.09675
G0 F3600 X18.946 Y21.208
G1 F1800 X14.038 Y16.301 E56.35785
G0 F3600 X13.42 Y16.814
G1 F1800 X18.33 Y21.724 E56.61908
G0 F3600 X17.698 Y22.223
G1 F1800 X12.801 Y17.326 E56.87962
G0 F3600 X12.124 Y17.781
G1 F1800 X17.066 Y22.723 E57.14256
G0 F3600 X16.43 Y23.218
G1 F1800 X11.432 Y18.22 E57.40847
G0 F3600 X10.74 Y18.659
G1 F1800 X15.738 Y23.658 E57.67441
G0 F3600 X15.047 Y24.098
G1 F1800 X10.011 Y19.062 E57.94235
G0 F3600 X9.241 Y19.424
G1 F1800 X14.355 Y24.538 E58.21444
G0 F3600 X13.633 Y24.946
G1 F1800 X8.473 Y19.786 E58.48897
G0 F3600 X7.679 Y20.124
G1 F1800 X12.878 Y25.323 E58.76558
G0 F3600 X12.124 Y25.7
G1 F1800 X6.824 Y20.4 E59.04756
G0 F3600 X5.97 Y20.677
G1 F1800 X11.369 Y26.077 E59.33484
G0 F3600 X10.547 Y26.386
G1 F1800 X5.088 Y20.927 E59.62528
G0 F3600 X4.138 Y21.109
G1 F1800 X9.724 Y26.695 E59.92248
G0 F3600 X8.903 Y27.005
G1 F1800 X3.189 Y21.29 E60.22652
G0 F3600 X2.183 Y21.416
G1 F1800 X8.028 Y27.261 E60.5375
G0 F3600 X7.133 Y27.497
G1 F1800 X1.118 Y21.483 E60.85749
G0 F3600 X0.053 Y21.549
G1 F1800 X6.238 Y27.734 E61.18656
G0 F3600 X5.299 Y27.927
G1 F1800 X-1.146 Y21.481 E61.52949
G0 F3600 X-2.353 Y21.405
G1 F1800 X4.321 Y28.079 E61.88458
G0 F3600 X3.341 Y28.231
G1 F1800 X-3.696 Y21.194 E62.25897
G0 F3600 X-5.095 Y20.926
G1 F1800 X2.307 Y28.329 E62.65282
G0 F3600 X1.232 Y28.385
G1 F1800 X-6.717 Y20.435 E63.07577
G1 X-6.858 Y20.294
G0 F3600 X-8.519 Y19.765
G1 F1800 X0.156 Y28.441 E63.53734
G0 F3600 X-1.018 Y28.396
G1 F1800 X-10.784 Y18.631 E64.05691
