; generated by Slic3r 1.3.0-dev on 2022-05-16 at 14:52:56

; external perimeters extrusion width = 0.88mm (9.53mm^3/s)
; perimeters extrusion width = 1.12mm (12.41mm^3/s)
; infill extrusion width = 1.00mm (10.97mm^3/s)
; solid infill extrusion width = 1.12mm (12.41mm^3/s)
; top infill extrusion width = 1.12mm (12.41mm^3/s)

; external perimeters extrusion width = 0.88mm (9.53mm^3/s)
; perimeters extrusion width = 1.12mm (12.41mm^3/s)
; infill extrusion width = 1.00mm (10.97mm^3/s)
; solid infill extrusion width = 1.12mm (12.41mm^3/s)
; top infill extrusion width = 1.12mm (12.41mm^3/s)

G92 E0
G28 ; Home axis
G29 ; Probe bed
G1 Z5 F5000 ; lift nozzle
M107
M109 S200 ; Set temp
; Filament gcode

G21 ; set units to millimeters
G90 ; use absolute coordinates
M82 ; use absolute distances for extrusion
G92 E0
M106 S255
G102 ; time layer and pause if under threshold
G1 E-2.00000 F1800.00000
G92 E0
G1 Z2.000 F1800.000
G101 ; start layer timer
G1 X10.000 Y-21.005 F1800.000
G1 Z0.500 F1800.000
G1 E2.00000 F1800.00000
G1 F1800
G1 X12.934 Y-20.607 Z0.500 E2.23326
G1 X15.655 Y-19.441 Z0.500 E2.46653
G1 X17.967 Y-17.592 Z0.500 E2.69979
G1 X19.702 Y-15.194 Z0.500 E2.93306
G1 X20.736 Y-12.420 Z0.500 E3.16632
G1 X21.005 Y-10.000 Z0.500 E3.35817
G1 X21.005 Y10.000 Z0.500 E4.93404
G1 X20.607 Y12.934 Z0.500 E5.16731
G1 X19.441 Y15.655 Z0.500 E5.40057
G1 X17.592 Y17.967 Z0.500 E5.63383
G1 X15.194 Y19.702 Z0.500 E5.86710
G1 X12.420 Y20.736 Z0.500 E6.10036
G1 X10.000 Y21.005 Z0.500 E6.29221
G1 X-10.000 Y21.005 Z0.500 E7.86808
G1 X-12.934 Y20.607 Z0.500 E8.10135
G1 X-15.655 Y19.441 Z0.500 E8.33461
G1 X-17.967 Y17.592 Z0.500 E8.56788
G1 X-19.702 Y15.194 Z0.500 E8.80114
G1 X-20.736 Y12.420 Z0.500 E9.03440
G1 X-21.005 Y10.000 Z0.500 E9.22626
G1 X-21.005 Y-10.000 Z0.500 E10.80212
G1 X-20.607 Y-12.934 Z0.500 E11.03539
G1 X-19.441 Y-15.655 Z0.500 E11.26865
G1 X-17.592 Y-17.967 Z0.500 E11.50192
G1 X-15.194 Y-19.702 Z0.500 E11.73518
G1 X-12.420 Y-20.736 Z0.500 E11.96844
G1 X-10.000 Y-21.005 Z0.500 E12.16030
G1 X9.880 Y-21.005 Z0.500 E13.72671
G1 E11.72671 F1800.00000
G92 E0
G1 Z2.500 F1800.000
G1 X10.000 Y-18.413 F1800.000
G1 Z0.500 F1800.000
G1 E2.00000 F1800.00000
G1 F1800
G1 X13.485 Y-18.413 Z0.500 E2.30347
G1 X18.413 Y-13.485 Z0.500 E2.91041
G1 X18.413 Y13.485 Z0.500 E5.25907
G1 X13.485 Y18.413 Z0.500 E5.86601
G1 X-13.485 Y18.413 Z0.500 E8.21467
G1 X-18.413 Y13.485 Z0.500 E8.82161
G1 X-18.413 Y-13.485 Z0.500 E11.17026
G1 X-13.485 Y-18.413 Z0.500 E11.77720
G1 X9.880 Y-18.413 Z0.500 E13.81194
G1 X10.000 Y-17.302 Z0.500 F1800.000
G1 F1800
G1 X13.024 Y-17.302 Z0.500 E14.07533
G1 X17.302 Y-13.024 Z0.500 E14.60211
G1 X17.302 Y13.024 Z0.500 E16.87061
G1 X13.024 Y17.302 Z0.500 E17.39739
G1 X-13.024 Y17.302 Z0.500 E19.66588
G1 X-17.302 Y13.024 Z0.500 E20.19266
G1 X-17.302 Y-13.024 Z0.500 E22.46116
G1 X-13.024 Y-17.302 Z0.500 E22.98794
G1 X9.880 Y-17.302 Z0.500 E24.98260
G1 X10.000 Y-16.191 Z0.500 F1800.000
G1 F1800
G1 X12.564 Y-16.191 Z0.500 E25.20591
G1 X16.191 Y-12.564 Z0.500 E25.65253
G1 X16.191 Y12.564 Z0.500 E27.84086
G1 X12.564 Y16.191 Z0.500 E28.28748
G1 X-12.564 Y16.191 Z0.500 E30.47582
G1 X-16.191 Y12.564 Z0.500 E30.92244
G1 X-16.191 Y-12.564 Z0.500 E33.11078
G1 X-12.564 Y-16.191 Z0.500 E33.55740
G1 X9.880 Y-16.191 Z0.500 E35.51197
G1 X10.000 Y-15.080 Z0.500 F1800.000
G1 F1800
G1 X12.104 Y-15.080 Z0.500 E35.69520
G1 X15.080 Y-12.104 Z0.500 E36.06166
G1 X15.080 Y12.104 Z0.500 E38.16984
G1 X12.104 Y15.080 Z0.500 E38.53630
G1 X-12.104 Y15.080 Z0.500 E40.64447
G1 X-15.080 Y12.104 Z0.500 E41.01093
G1 X-15.080 Y-12.104 Z0.500 E43.11911
G1 X-12.104 Y-15.080 Z0.500 E43.48557
G1 X9.880 Y-15.080 Z0.500 E45.40007
G1 X10.000 Y-13.968 Z0.500 F1800.000
G1 F1800
G1 X11.644 Y-13.968 Z0.500 E45.54322
G1 X13.968 Y-11.644 Z0.500 E45.82951
G1 X13.968 Y11.644 Z0.500 E47.85753
G1 X11.644 Y13.968 Z0.500 E48.14383
G1 X-11.644 Y13.968 Z0.500 E50.17185
G1 X-13.968 Y11.644 Z0.500 E50.45814
G1 X-13.968 Y-11.644 Z0.500 E52.48616
G1 X-11.644 Y-13.968 Z0.500 E52.77246
G1 X9.880 Y-13.968 Z0.500 E54.64688
G1 X10.000 Y-12.857 Z0.500 F1800.000
G1 F1800
G1 X11.184 Y-12.857 Z0.500 E54.74994
G1 X12.857 Y-11.184 Z0.500 E54.95608
G1 X12.857 Y11.184 Z0.500 E56.90394
G1 X11.184 Y12.857 Z0.500 E57.11008
G1 X-11.184 Y12.857 Z0.500 E59.05793
G1 X-12.857 Y11.184 Z0.500 E59.26407
G1 X-12.857 Y-11.184 Z0.500 E61.21193
G1 X-11.184 Y-12.857 Z0.500 E61.41806
G1 X9.880 Y-12.857 Z0.500 E63.25240
G1 X10.000 Y-11.746 Z0.500 F1800.000
G1 F1800
G1 X10.723 Y-11.746 Z0.500 E63.31539
G1 X11.746 Y-10.723 Z0.500 E63.44137
G1 X11.746 Y10.723 Z0.500 E65.30906
G1 X10.723 Y11.746 Z0.500 E65.43504
G1 X-10.723 Y11.746 Z0.500 E67.30274
G1 X-11.746 Y10.723 Z0.500 E67.42872
G1 X-11.746 Y-10.723 Z0.500 E69.29641
G1 X-10.723 Y-11.746 Z0.500 E69.42239
G1 X9.880 Y-11.746 Z0.500 E71.21665
G1 X10.263 Y-10.635 Z0.500 F1800.000
G1 F1800
G1 X10.635 Y-10.263 Z0.500 E71.26246
G1 X10.635 Y10.263 Z0.500 E73.05000
G1 X10.263 Y10.635 Z0.500 E73.09582
G1 X-10.263 Y10.635 Z0.500 E74.88335
G1 X-10.635 Y10.263 Z0.500 E74.92917
G1 X-10.635 Y-10.263 Z0.500 E76.71670
G1 X-10.263 Y-10.635 Z0.500 E76.76252
G1 X10.143 Y-10.635 Z0.500 E78.53961
G1 X9.560 Y-9.560 Z0.500 F1800.000
G1 F1800
G1 X9.560 Y9.560 Z0.500 E79.69755
G1 X-9.560 Y9.560 Z0.500 E80.85550
G1 X-9.560 Y-9.560 Z0.500 E82.01345
G1 X9.440 Y-9.560 Z0.500 E83.16413
G1 E81.16413 F1800.00000
G92 E0
G1 Z2.500 F1800.000
G1 X-8.613 Y-8.060 F1800.000
G1 Z0.500 F1800.000
G1 E2.00000 F1800.00000
G1 F1800
G1 X-8.613 Y9.166 Z0.500 E3.36802
G1 X-8.613 Y-9.166 Z0.500 E4.82386
G1 X-7.599 Y-9.166 Z0.500 E4.90433
G1 X-7.599 Y9.166 Z0.500 E6.36018
G1 X-6.586 Y9.166 Z0.500 E6.44065
G1 X-6.586 Y-9.166 Z0.500 E7.89649
G1 X-5.573 Y-9.166 Z0.500 E7.97696
G1 X-5.573 Y9.166 Z0.500 E9.43280
G1 X-4.560 Y9.166 Z0.500 E9.51327
G1 X-4.560 Y-9.166 Z0.500 E10.96912
G1 X-3.546 Y-9.166 Z0.500 E11.04959
G1 X-3.546 Y9.166 Z0.500 E12.50543
G1 X-2.533 Y9.166 Z0.500 E12.58590
G1 X-2.533 Y-9.166 Z0.500 E14.04174
G1 X-1.520 Y-9.166 Z0.500 E14.12221
G1 X-1.520 Y9.166 Z0.500 E15.57806
G1 X-0.507 Y9.166 Z0.500 E15.65853
G1 X-0.507 Y-9.166 Z0.500 E17.11437
G1 X0.507 Y-9.166 Z0.500 E17.19484
G1 X0.507 Y9.166 Z0.500 E18.65068
G1 X1.520 Y9.166 Z0.500 E18.73115
G1 X1.520 Y-9.166 Z0.500 E20.18700
G1 X2.533 Y-9.166 Z0.500 E20.26747
G1 X2.533 Y9.166 Z0.500 E21.72331
G1 X3.546 Y9.166 Z0.500 E21.80378
G1 X3.546 Y-9.166 Z0.500 E23.25962
G1 X4.560 Y-9.166 Z0.500 E23.34009
G1 X4.560 Y9.166 Z0.500 E24.79594
G1 X5.573 Y9.166 Z0.500 E24.87641
G1 X5.573 Y-9.166 Z0.500 E26.33225
G1 X6.586 Y-9.166 Z0.500 E26.41272
G1 X6.586 Y9.166 Z0.500 E27.86856
G1 X7.600 Y9.166 Z0.500 E27.94903
G1 X7.600 Y-9.166 Z0.500 E29.40488
G1 X8.613 Y-9.166 Z0.500 E29.48535
G1 X8.613 Y9.166 Z0.500 E30.94119
G102 ; time layer and pause if under threshold
G1 E28.94119 F1800.00000
G92 E0
G1 Z2.500 F1800.000
G101 ; start layer timer
G1 X9.560 Y-9.560 F1800.000
G1 Z0.900 F1800.000
G1 E2.00000 F1800.00000
G1 F1800
G1 X9.560 Y9.560 Z0.900 E2.95209
G1 X-9.560 Y9.560 Z0.900 E3.90417
G1 X-9.560 Y-9.560 Z0.900 E4.85626
G1 X9.440 Y-9.560 Z0.900 E5.80237
G1 X9.182 Y0.000 Z0.900 F1800.000
G1 F1800
G1 X-9.182 Y0.000 Z0.900 E6.85495
G1 X-9.182 Y-8.646 Z0.900 E7.35052
G1 X8.110 Y-8.646 Z0.900 E8.34167
G1 X8.110 Y0.000 Z0.900 E8.83725
G102 ; time layer and pause if under threshold
G1 E6.83725 F1800.00000
G92 E0
G1 Z2.900 F1800.000
G101 ; start layer timer
G1 X9.560 Y-9.560 F1800.000
G1 Z1.300 F1800.000
G1 E2.00000 F1800.00000
G1 F1800
G1 X9.560 Y9.560 Z1.300 E2.95209
G1 X-9.560 Y9.560 Z1.300 E3.90417
G1 X-9.560 Y-9.560 Z1.300 E4.85626
G1 X9.440 Y-9.560 Z1.300 E5.80237
G1 X-0.000 Y8.110 Z1.300 F1800.000
G1 F1800
G1 X8.646 Y8.110 Z1.300 E6.29795
G1 X8.646 Y-9.182 Z1.300 E7.28910
G1 X0.000 Y-9.182 Z1.300 E7.78468
G1 X-0.000 Y9.182 Z1.300 E8.83725
G102 ; time layer and pause if under threshold
G1 E6.83725 F1800.00000
G92 E0
G1 Z3.300 F1800.000
G101 ; start layer timer
G1 X9.560 Y-9.560 F1800.000
G1 Z1.700 F1800.000
G1 E2.00000 F1800.00000
G1 F1800
G1 X9.560 Y9.560 Z1.700 E2.95209
G1 X-9.560 Y9.560 Z1.700 E3.90417
G1 X-9.560 Y-9.560 Z1.700 E4.85626
G1 X9.440 Y-9.560 Z1.700 E5.80237
G1 X9.182 Y0.000 Z1.700 F1800.000
G1 F1800
G1 X-9.182 Y0.000 Z1.700 E6.85495
G1 X-9.182 Y-8.646 Z1.700 E7.35052
G1 X8.110 Y-8.646 Z1.700 E8.34167
G1 X8.110 Y0.000 Z1.700 E8.83725
G102 ; time layer and pause if under threshold
G1 E6.83725 F1800.00000
G92 E0
G1 Z3.700 F1800.000
G101 ; start layer timer
G1 X9.560 Y-9.560 F1800.000
G1 Z2.100 F1800.000
G1 E2.00000 F1800.00000
G1 F1800
G1 X9.560 Y9.560 Z2.100 E2.95209
G1 X-9.560 Y9.560 Z2.100 E3.90417
G1 X-9.560 Y-9.560 Z2.100 E4.85626
G1 X9.440 Y-9.560 Z2.100 E5.80237
G1 E3.80237 F1800.00000
G92 E0
G1 Z4.100 F1800.000
G1 X6.104 Y-9.155 F1800.000
G1 Z2.100 F1800.000
G1 E2.00000 F1800.00000
G1 F1800
G1 X6.104 Y9.155 Z2.100 E3.42469
G1 X7.345 Y9.155 Z2.100 E3.52126
G1 X7.345 Y-9.155 Z2.100 E4.94595
G1 X8.586 Y-9.155 Z2.100 E5.04251
G1 X8.586 Y9.155 Z2.100 E6.46720
G1 X-0.000 Y9.182 Z2.100 F1800.000
G1 F1800
G1 X0.000 Y-9.182 Z2.100 E7.51978
G1 X4.783 Y-9.182 Z2.100 E7.79393
G1 X4.783 Y8.110 Z2.100 E8.78509
G1 X-0.000 Y8.110 Z2.100 E9.05924
G102 ; time layer and pause if under threshold
G1 E7.05924 F1800.00000
G92 E0
G1 Z4.100 F1800.000
G101 ; start layer timer
G1 X8.960 Y-9.560 F1800.000
G1 Z2.500 F1800.000
G1 E2.00000 F1800.00000
G1 F1800
G1 X8.960 Y9.560 Z2.500 E2.95209
G1 X-9.560 Y9.560 Z2.500 E3.87430
G1 X-9.560 Y-9.560 Z2.500 E4.82638
G1 X8.840 Y-9.560 Z2.500 E5.74262
G1 X8.555 Y-8.586 Z2.500 F1800.000
G1 F1800
G1 X4.388 Y-8.586 Z2.500 E6.02298
G1 X4.388 Y-7.513 Z2.500 E6.09520
G1 X8.555 Y-7.513 Z2.500 E6.37557
G1 X8.555 Y-6.439 Z2.500 E6.44779
G1 X4.388 Y-6.439 Z2.500 E6.72815
G1 X4.388 Y-5.366 Z2.500 E6.80037
G1 X8.555 Y-5.366 Z2.500 E7.08074
G1 X8.555 Y-4.293 Z2.500 E7.15296
G1 X4.388 Y-4.293 Z2.500 E7.43332
G1 X4.388 Y-3.220 Z2.500 E7.50554
G1 X8.555 Y-3.220 Z2.500 E7.78591
G1 X8.555 Y-2.146 Z2.500 E7.85813
G1 X4.388 Y-2.146 Z2.500 E8.13850
G1 X4.388 Y-1.073 Z2.500 E8.21072
G1 X8.555 Y-1.073 Z2.500 E8.49108
G1 X8.555 Y-0.000 Z2.500 E8.56330
G1 X4.388 Y-0.000 Z2.500 E8.84367
G1 X4.388 Y1.073 Z2.500 E8.91589
G1 X8.555 Y1.073 Z2.500 E9.19625
G1 X8.555 Y2.146 Z2.500 E9.26847
G1 X4.388 Y2.146 Z2.500 E9.54884
G1 X4.388 Y3.220 Z2.500 E9.62106
G1 X8.555 Y3.220 Z2.500 E9.90142
G1 X8.555 Y4.293 Z2.500 E9.97364
G1 X4.388 Y4.293 Z2.500 E10.25401
G1 X4.388 Y5.366 Z2.500 E10.32623
G1 X8.555 Y5.366 Z2.500 E10.60660
G1 X8.555 Y6.439 Z2.500 E10.67882
G1 X4.388 Y6.439 Z2.500 E10.95918
G1 X4.388 Y7.513 Z2.500 E11.03140
G1 X8.555 Y7.513 Z2.500 E11.31177
G1 X8.555 Y8.586 Z2.500 E11.38399
G1 X4.388 Y8.586 Z2.500 E11.66435
G1 X4.519 Y0.000 Z2.500 F1800.000
G1 F1800
G1 X-9.182 Y0.000 Z2.500 E12.44965
G1 X-9.182 Y-8.646 Z2.500 E12.94523
G1 X3.447 Y-8.646 Z2.500 E13.66910
G1 X3.447 Y0.000 Z2.500 E14.16468
G102 ; time layer and pause if under threshold
G1 E12.16468 F1800.00000
G92 E0
G1 Z4.500 F1800.000
G101 ; start layer timer
G1 X8.160 Y-9.560 F1800.000
G1 Z2.900 F1800.000
G1 E2.00000 F1800.00000
G1 F1800
G1 X8.160 Y9.560 Z2.900 E2.95209
G1 X-9.560 Y9.560 Z2.900 E3.83446
G1 X-9.560 Y-9.560 Z2.900 E4.78655
G1 X8.040 Y-9.560 Z2.900 E5.66294
G1 E3.66294 F1800.00000
G92 E0
G1 Z4.900 F1800.000
G1 X4.704 Y-9.155 Z2.900 F1800.000
G1 E2.00000 F1800.00000
G1 F1800
G1 X4.704 Y9.155 Z2.900 E3.42469
G1 X5.945 Y9.155 Z2.900 E3.52126
G1 X5.945 Y-9.155 Z2.900 E4.94595
G1 X7.186 Y-9.155 Z2.900 E5.04251
G1 X7.186 Y9.155 Z2.900 E6.46720
G1 X-0.000 Y9.182 Z2.900 F1800.000
G1 F1800
G1 X0.000 Y-9.182 Z2.900 E7.51978
G1 X3.183 Y-9.182 Z2.900 E7.70222
G1 X3.183 Y8.110 Z2.900 E8.69337
G1 X-0.000 Y8.110 Z2.900 E8.87582
G102 ; time layer and pause if under threshold
G1 E6.87582 F1800.00000
G92 E0
G1 Z4.900 F1800.000
G101 ; start layer timer
G1 X7.360 Y-9.560 F1800.000
G1 Z3.300 F1800.000
G1 E2.00000 F1800.00000
G1 F1800
G1 X7.360 Y9.560 Z3.300 E2.95209
G1 X-9.560 Y9.560 Z3.300 E3.79462
G1 X-9.560 Y-9.560 Z3.300 E4.74671
G1 X7.240 Y-9.560 Z3.300 E5.58327
G1 X6.955 Y-8.586 Z3.300 F1800.000
G1 F1800
G1 X2.788 Y-8.586 Z3.300 E5.86364
G1 X2.788 Y-7.513 Z3.300 E5.93586
G1 X6.955 Y-7.513 Z3.300 E6.21622
G1 X6.955 Y-6.439 Z3.300 E6.28844
G1 X2.788 Y-6.439 Z3.300 E6.56881
G1 X2.788 Y-5.366 Z3.300 E6.64103
G1 X6.955 Y-5.366 Z3.300 E6.92139
G1 X6.955 Y-4.293 Z3.300 E6.99361
G1 X2.788 Y-4.293 Z3.300 E7.27398
G1 X2.788 Y-3.220 Z3.300 E7.34620
G1 X6.955 Y-3.220 Z3.300 E7.62657
G1 X6.955 Y-2.146 Z3.300 E7.69879
G1 X2.788 Y-2.146 Z3.300 E7.97915
G1 X2.788 Y-1.073 Z3.300 E8.05137
G1 X6.955 Y-1.073 Z3.300 E8.33174
G1 X6.955 Y-0.000 Z3.300 E8.40396
G1 X2.788 Y-0.000 Z3.300 E8.68432
G1 X2.788 Y1.073 Z3.300 E8.75654
G1 X6.955 Y1.073 Z3.300 E9.03691
G1 X6.955 Y2.146 Z3.300 E9.10913
G1 X2.788 Y2.146 Z3.300 E9.38949
G1 X2.788 Y3.220 Z3.300 E9.46171
G1 X6.955 Y3.220 Z3.300 E9.74208
G1 X6.955 Y4.293 Z3.300 E9.81430
G1 X2.788 Y4.293 Z3.300 E10.09466
G1 X2.788 Y5.366 Z3.300 E10.16688
G1 X6.955 Y5.366 Z3.300 E10.44725
G1 X6.955 Y6.439 Z3.300 E10.51947
G1 X2.788 Y6.439 Z3.300 E10.79984
G1 X2.788 Y7.513 Z3.300 E10.87206
G1 X6.955 Y7.513 Z3.300 E11.15242
G1 X6.955 Y8.586 Z3.300 E11.22464
G1 X2.788 Y8.586 Z3.300 E11.50501
G1 X2.919 Y0.000 Z3.300 F1800.000
G1 F1800
G1 X-9.182 Y0.000 Z3.300 E12.19859
G1 X-9.182 Y-8.646 Z3.300 E12.69417
G1 X1.847 Y-8.646 Z3.300 E13.32634
G1 X1.847 Y0.000 Z3.300 E13.82191
G102 ; time layer and pause if under threshold
G1 E11.82191 F1800.00000
G92 E0
G1 Z5.300 F1800.000
G101 ; start layer timer
G1 X6.560 Y-9.560 F1800.000
G1 Z3.700 F1800.000
G1 E2.00000 F1800.00000
G1 F1800
G1 X6.560 Y9.560 Z3.700 E2.95209
G1 X-9.560 Y9.560 Z3.700 E3.75479
G1 X-9.560 Y-9.560 Z3.700 E4.70687
G1 X6.440 Y-9.560 Z3.700 E5.50360
G1 E3.50360 F1800.00000
G92 E0
G1 Z5.700 F1800.000
G1 X3.104 Y-9.155 F1800.000
G1 Z3.700 F1800.000
G1 E2.00000 F1800.00000
G1 F1800
G1 X3.104 Y9.155 Z3.700 E3.42469
G1 X4.345 Y9.155 Z3.700 E3.52126
G1 X4.345 Y-9.155 Z3.700 E4.94595
G1 X5.586 Y-9.155 Z3.700 E5.04251
G1 X5.586 Y9.155 Z3.700 E6.46720
G1 X-0.000 Y9.182 Z3.700 F1800.000
G1 F1800
G1 X0.000 Y-9.182 Z3.700 E7.51978
G1 X1.583 Y-9.182 Z3.700 E7.61051
G1 X1.583 Y8.110 Z3.700 E8.60166
G1 X-0.000 Y8.110 Z3.700 E8.69240
G102 ; time layer and pause if under threshold
G1 E6.69240 F1800.00000
G92 E0
G1 Z5.700 F1800.000
G101 ; start layer timer
G1 X5.760 Y-9.560 F1800.000
G1 Z4.100 F1800.000
G1 E2.00000 F1800.00000
G1 F1800
G1 X5.760 Y9.560 Z4.100 E2.95209
G1 X-9.560 Y9.560 Z4.100 E3.71495
G1 X-9.560 Y-9.560 Z4.100 E4.66704
G1 X5.640 Y-9.560 Z4.100 E5.42393
G1 X5.355 Y-8.586 Z4.100 F1800.000
G1 F1800
G1 X1.188 Y-8.586 Z4.100 E5.70429
G1 X1.188 Y-7.513 Z4.100 E5.77651
G1 X5.355 Y-7.513 Z4.100 E6.05688
G1 X5.355 Y-6.439 Z4.100 E6.12910
G1 X1.188 Y-6.439 Z4.100 E6.40946
G1 X1.188 Y-5.366 Z4.100 E6.48168
G1 X5.355 Y-5.366 Z4.100 E6.76205
G1 X5.355 Y-4.293 Z4.100 E6.83427
G1 X1.188 Y-4.293 Z4.100 E7.11463
G1 X1.188 Y-3.220 Z4.100 E7.18685
G1 X5.355 Y-3.220 Z4.100 E7.46722
G1 X5.355 Y-2.146 Z4.100 E7.53944
G1 X1.188 Y-2.146 Z4.100 E7.81981
G1 X1.188 Y-1.073 Z4.100 E7.89203
G1 X5.355 Y-1.073 Z4.100 E8.17239
G1 X5.355 Y-0.000 Z4.100 E8.24461
G1 X1.188 Y-0.000 Z4.100 E8.52498
G1 X1.188 Y1.073 Z4.100 E8.59720
G1 X5.355 Y1.073 Z4.100 E8.87756
G1 X5.355 Y2.146 Z4.100 E8.94978
G1 X1.188 Y2.146 Z4.100 E9.23015
G1 X1.188 Y3.220 Z4.100 E9.30237
G1 X5.355 Y3.220 Z4.100 E9.58273
G1 X5.355 Y4.293 Z4.100 E9.65495
G1 X1.188 Y4.293 Z4.100 E9.93532
G1 X1.188 Y5.366 Z4.100 E10.00754
G1 X5.355 Y5.366 Z4.100 E10.28791
G1 X5.355 Y6.439 Z4.100 E10.36013
G1 X1.188 Y6.439 Z4.100 E10.64049
G1 X1.188 Y7.513 Z4.100 E10.71271
G1 X5.355 Y7.513 Z4.100 E10.99308
G1 X5.355 Y8.586 Z4.100 E11.06530
G1 X1.188 Y8.586 Z4.100 E11.34566
G1 X1.319 Y0.000 Z4.100 F1800.000
G1 F1800
G1 X-9.182 Y0.000 Z4.100 E11.94754
G1 X-9.182 Y-8.646 Z4.100 E12.44311
G1 X0.247 Y-8.646 Z4.100 E12.98357
G1 X0.247 Y0.000 Z4.100 E13.47914
G102 ; time layer and pause if under threshold
G1 E11.47914 F1800.00000
G92 E0
G1 Z6.100 F1800.000
G101 ; start layer timer
G1 X4.960 Y-9.560 F1800.000
G1 Z4.500 F1800.000
G1 E2.00000 F1800.00000
G1 F1800
G1 X4.960 Y9.560 Z4.500 E2.95209
