; generated by Slic3r 1.3.1-dev (Build (Unknown revision)) on 2022-05-01 at 17:27:29

; external perimeters extrusion width = 0.88mm (9.53mm^3/s)
; perimeters extrusion width = 1.12mm (12.41mm^3/s)
; infill extrusion width = 1.00mm (10.97mm^3/s)
; solid infill extrusion width = 1.12mm (12.41mm^3/s)
; top infill extrusion width = 1.12mm (12.41mm^3/s)

M107
G92 E0
G28 ; home all axes
G1 Z5 F5000 ; lift nozzle
M109 S200

; Filament gcode

G21 ; set units to millimeters
G90 ; use absolute coordinates
M82 ; use absolute distances for extrusion
G92 E0
G1 Z0.400 F3600.000
G1 E-2.00000 F2400.00000
G92 E0
G1 X-18.689 Y-12.000 F3600.000
G1 E2.00000 F2400.00000
G1 F1800.000
G1 X-18.292 Y-14.275 E2.10339
G1 X-17.148 Y-16.280 E2.20679
G1 X-15.392 Y-17.780 E2.31018
G1 X-13.232 Y-18.595 E2.41357
G1 X-11.975 Y-18.714 E2.47012
G1 X12.025 Y-18.714 E3.54482
G1 X14.300 Y-18.317 E3.64821
G1 X16.305 Y-17.173 E3.75160
G1 X17.805 Y-15.417 E3.85500
G1 X18.620 Y-13.257 E3.95839
G1 X18.739 Y-12.000 E4.01493
G1 X18.739 Y12.000 E5.08963
G1 X18.342 Y14.275 E5.19303
G1 X17.198 Y16.280 E5.29642
G1 X15.442 Y17.780 E5.39981
G1 X13.282 Y18.595 E5.50321
G1 X12.025 Y18.714 E5.55975
G1 X-11.975 Y18.714 E6.63445
G1 X-14.250 Y18.317 E6.73784
G1 X-16.255 Y17.173 E6.84123
G1 X-17.755 Y15.417 E6.94463
G1 X-18.570 Y13.257 E7.04802
G1 X-18.689 Y12.000 E7.10456
G1 X-18.689 Y-11.880 E8.17389
G1 E6.17389 F2400.00000
G92 E0
G1 X-15.972 Y-12.000 F3600.000
G1 E2.00000 F2400.00000
G1 F1800.000
G1 X-15.972 Y-13.655 E2.07414
G1 X-13.630 Y-15.997 E2.22242
G1 X13.680 Y-15.997 E3.44560
G1 X16.022 Y-13.655 E3.59388
G1 X16.022 Y13.655 E4.81705
G1 X13.680 Y15.997 E4.96534
G1 X-13.630 Y15.997 E6.18851
G1 X-15.972 Y13.655 E6.33679
G1 X-15.972 Y-11.880 E7.48045
G1 X-15.257 Y-12.000 F3600.000
G1 F1800.000
G1 X-15.257 Y-13.360 E7.54134
G1 X-13.335 Y-15.282 E7.66312
G1 X13.385 Y-15.282 E8.85979
G1 X15.307 Y-13.360 E8.98157
G1 X15.307 Y13.360 E10.17824
G1 X13.385 Y15.282 E10.30002
G1 X-13.335 Y15.282 E11.49669
G1 X-15.257 Y13.360 E11.61847
G1 X-15.257 Y-11.880 E12.74888
G1 X-14.543 Y-12.000 F3600.000
G1 F1800.000
G1 X-14.543 Y-13.064 E12.79652
G1 X-13.039 Y-14.568 E12.89180
G1 X13.089 Y-14.568 E14.06197
G1 X14.593 Y-13.064 E14.15725
G1 X14.593 Y13.064 E15.32741
G1 X13.089 Y14.568 E15.42269
G1 X-13.039 Y14.568 E16.59286
G1 X-14.543 Y13.064 E16.68814
G1 X-14.543 Y-11.880 E17.80529
G1 X-13.829 Y-12.000 F3600.000
G1 F1800.000
G1 X-13.829 Y-12.768 E17.83968
G1 X-12.743 Y-13.854 E17.90846
G1 X12.793 Y-13.854 E19.05213
G1 X13.879 Y-12.768 E19.12090
G1 X13.879 Y12.768 E20.26457
G1 X12.793 Y13.854 E20.33335
G1 X-12.743 Y13.854 E21.47701
G1 X-13.829 Y12.768 E21.54579
G1 X-13.829 Y-11.880 E22.64969
G1 X-13.114 Y-12.000 F3600.000
G1 F1800.000
G1 X-13.114 Y-12.472 E22.67083
G1 X-12.447 Y-13.139 E22.71311
G1 X12.497 Y-13.139 E23.83027
G1 X13.164 Y-12.472 E23.87255
G1 X13.164 Y12.472 E24.98971
G1 X12.497 Y13.139 E25.03199
G1 X-12.447 Y13.139 E26.14915
G1 X-13.114 Y12.472 E26.19143
G1 X-13.114 Y-11.880 E27.28208
G1 X-12.400 Y-12.176 F3600.000
G1 F1800.000
G1 X-12.151 Y-12.425 E27.29785
G1 X12.201 Y-12.425 E28.38851
G1 X12.450 Y-12.176 E28.40429
G1 X12.450 Y12.176 E29.49495
G1 X12.201 Y12.425 E29.51072
G1 X-12.151 Y12.425 E30.60139
G1 X-12.400 Y12.176 E30.61716
G1 X-12.400 Y-12.056 E31.70245
G1 X-11.575 Y-11.600 F3600.000
G1 F1800.000
G1 X11.625 Y-11.600 E32.74132
G1 X11.625 Y11.600 E33.78020
G1 X-11.575 Y11.600 E34.81907
G1 X-11.575 Y-11.480 E35.85258
G1 X-10.802 Y-11.393 F3600.000
G1 X-10.861 Y-10.886 F3600.000
G1 F1800.000
G1 X10.911 Y-10.886 E36.82749
G1 X10.911 Y10.886 E37.80241
G1 X-10.861 Y10.886 E38.77733
G1 X-10.861 Y-10.766 E39.74687
G1 X-10.147 Y-10.172 F3600.000
G1 F1800.000
G1 X10.197 Y-10.172 E40.65783
G1 X10.197 Y10.172 E41.56878
G1 X-10.147 Y10.172 E42.47974
G1 X-10.147 Y-10.052 E43.38533
G1 X-9.584 Y-9.306 F3600.000
G1 F1800.000
G1 X-9.281 Y-9.609 E43.40475
G1 X-8.258 Y-9.609 E43.45110
G1 X-9.584 Y-8.283 E43.53608
G1 X-9.584 Y-7.261 E43.58243
G1 X-7.236 Y-9.609 E43.73296
G1 X-6.214 Y-9.609 E43.77931
G1 X-9.584 Y-6.239 E43.99538
G1 X-9.584 Y-5.216 E44.04173
G1 X-5.191 Y-9.609 E44.32335
G1 X-4.169 Y-9.609 E44.36970
G1 X-9.584 Y-4.194 E44.71686
G1 X-9.584 Y-3.171 E44.76321
G1 X-3.146 Y-9.609 E45.17592
G1 X-2.124 Y-9.609 E45.22227
G1 X-9.584 Y-2.149 E45.70053
G1 X-9.584 Y-1.126 E45.74688
G1 X-1.101 Y-9.609 E46.29068
G1 X-0.079 Y-9.609 E46.33703
G1 X-9.584 Y-0.104 E46.94638
G1 X-9.584 Y0.918 E46.99273
G1 X0.943 Y-9.609 E47.66762
G1 X1.966 Y-9.609 E47.71397
G1 X-9.584 Y1.941 E48.45441
G1 X-9.584 Y2.963 E48.50076
G1 X2.988 Y-9.609 E49.30675
G1 X4.011 Y-9.609 E49.35310
G1 X-9.584 Y3.986 E50.22463
G1 X-9.584 Y5.008 E50.27098
G1 X5.033 Y-9.609 E51.20806
G1 X6.056 Y-9.609 E51.25441
G1 X-9.584 Y6.031 E52.25703
G1 X-9.584 Y7.053 E52.30338
G1 X7.078 Y-9.609 E53.37155
G1 X8.100 Y-9.609 E53.41790
G1 X-9.584 Y8.075 E54.55162
G1 X-9.584 Y9.098 E54.59797
G1 X9.123 Y-9.609 E55.79723
G1 X9.634 Y-9.609 E55.82040
G1 X9.634 Y-9.098 E55.84358
G1 X-9.073 Y9.609 E57.04284
G1 X-8.050 Y9.609 E57.08919
G1 X9.634 Y-8.075 E58.22290
G1 X9.634 Y-7.053 E58.26925
G1 X-7.028 Y9.609 E59.33742
G1 X-6.006 Y9.609 E59.38377
G1 X9.634 Y-6.031 E60.38639
G1 X9.634 Y-5.008 E60.43274
G1 X-4.983 Y9.609 E61.36982
G1 X-3.961 Y9.609 E61.41616
G1 X9.634 Y-3.986 E62.28770
G1 X9.634 Y-2.963 E62.33404
G1 X-2.938 Y9.609 E63.14003
G1 X-1.916 Y9.609 E63.18638
G1 X9.634 Y-1.941 E63.92682
G1 X9.634 Y-0.918 E63.97316
G1 X-0.893 Y9.609 E64.64806
G1 X0.129 Y9.609 E64.69441
G1 X9.634 Y0.104 E65.30375
G1 X9.634 Y1.126 E65.35010
G1 X1.151 Y9.609 E65.89390
G1 X2.174 Y9.609 E65.94025
G1 X9.634 Y2.149 E66.41850
G1 X9.634 Y3.171 E66.46485
G1 X3.196 Y9.609 E66.87756
G1 X4.219 Y9.609 E66.92391
G1 X9.634 Y4.194 E67.27107
G1 X9.634 Y5.216 E67.31742
G1 X5.241 Y9.609 E67.59904
G1 X6.264 Y9.609 E67.64539
G1 X9.634 Y6.239 E67.86146
G1 X9.634 Y7.261 E67.90781
G1 X7.286 Y9.609 E68.05833
G1 X8.308 Y9.609 E68.10468
G1 X9.634 Y8.283 E68.18966
G1 X9.634 Y9.306 E68.23601
G1 X9.331 Y9.609 E68.25544
G1 Z0.800 F3600.000
G1 X-9.587 Y-9.612 F3600.000
G1 F1800.000
G1 X9.637 Y-9.612 E69.50195
G1 X9.637 Y9.612 E70.74847
G1 X-9.587 Y9.612 E71.99498
G1 X-9.587 Y-9.492 E73.23371
G1 X-10.621 Y-10.646 F3600.000
G1 F1800.000
G1 X10.671 Y-10.646 E74.61435
G1 X10.671 Y10.646 E75.99498
G1 X-10.621 Y10.646 E77.37561
G1 X-10.621 Y-10.526 E78.74846
G1 X-11.535 Y-11.560 F3600.000
G1 F1800.000
G1 X11.585 Y-11.560 E79.89973
G1 X11.585 Y11.560 E81.05099
G1 X-11.535 Y11.560 E82.20226
G1 X-11.535 Y-11.440 E83.34755
G1 X-10.762 Y-11.353 F3600.000
G1 X-8.333 Y8.797 F3600.000
G1 F1800.000
G1 X-8.772 Y8.358 E83.38859
G1 X-8.772 Y6.866 E83.48725
G1 X-6.841 Y8.797 E83.66783
G1 X-5.350 Y8.797 E83.76650
G1 X-8.772 Y5.375 E84.08661
G1 X-8.772 Y3.883 E84.18527
G1 X-3.858 Y8.797 E84.64491
G1 X-2.366 Y8.797 E84.74357
G1 X-8.772 Y2.391 E85.34274
G1 X-8.772 Y0.899 E85.44140
G1 X-0.874 Y8.797 E86.18010
G1 X0.617 Y8.797 E86.27876
G1 X-8.772 Y-0.592 E87.15698
G1 X-8.772 Y-2.084 E87.25564
G1 X2.109 Y8.797 E88.27340
G1 X3.601 Y8.797 E88.37206
G1 X-8.772 Y-3.576 E89.52934
G1 X-8.772 Y-5.068 E89.62800
G1 X5.093 Y8.797 E90.92482
G1 X6.584 Y8.797 E91.02348
G1 X-8.772 Y-6.559 E92.45982
G1 X-8.772 Y-8.051 E92.55848
G1 X8.076 Y8.797 E94.13435
G1 X8.822 Y8.797 E94.18368
G1 X8.822 Y8.051 E94.23301
G1 X-8.026 Y-8.797 E95.80887
G1 X-6.534 Y-8.797 E95.90753
G1 X8.822 Y6.559 E97.34387
G1 X8.822 Y5.068 E97.44253
G1 X-5.043 Y-8.797 E98.73934
G1 X-3.551 Y-8.797 E98.83800
G1 X8.822 Y3.576 E99.99528
G1 X8.822 Y2.084 E100.09395
G1 X-2.059 Y-8.797 E101.11170
G1 X-0.567 Y-8.797 E101.21036
G1 X8.822 Y0.592 E102.08858
G1 X8.822 Y-0.899 E102.18724
G1 X0.924 Y-8.797 E102.92594
G1 X2.416 Y-8.797 E103.02460
G1 X8.822 Y-2.391 E103.62377
G1 X8.822 Y-3.883 E103.72243
G1 X3.908 Y-8.797 E104.18206
G1 X5.400 Y-8.797 E104.28073
G1 X8.822 Y-5.375 E104.60084
G1 X8.822 Y-6.866 E104.69950
G1 X6.891 Y-8.797 E104.88008
G1 X8.383 Y-8.797 E104.97874
G1 X8.822 Y-8.358 E105.01979
G1 Z1.200 F3600.000
G1 X-9.587 Y-9.612 F3600.000
G1 F1800.000
G1 X9.637 Y-9.612 E106.26631
G1 X9.637 Y9.612 E107.51282
G1 X-9.587 Y9.612 E108.75933
G1 X-9.587 Y-9.492 E109.99807
G1 X-10.621 Y-10.646 F3600.000
G1 F1800.000
G1 X10.671 Y-10.646 E111.37870
G1 X10.671 Y10.646 E112.75933
G1 X-10.621 Y10.646 E114.13996
G1 X-10.621 Y-10.526 E115.51281
G1 X-11.535 Y-11.560 F3600.000
G1 F1800.000
G1 X11.585 Y-11.560 E116.66408
G1 X11.585 Y11.560 E117.81535
G1 X-11.535 Y11.560 E118.96661
G1 X-11.535 Y-11.440 E120.11190
G1 X-10.762 Y-11.353 F3600.000
G1 X-4.059 Y-8.844 F3600.000
G1 F1800.000
G1 X-8.819 Y-4.084 E120.49777
G1 X-8.819 Y8.844 E121.23881
G1 X8.869 Y-8.844 E122.67266
G1 X8.869 Y4.084 E123.41370
G1 X4.109 Y8.844 E123.79957
M106 S237.15
G1 Z1.600 F3600.000
G1 X-9.587 Y-9.612 F3600.000
G1 F1800.000
G1 X9.637 Y-9.612 E125.04609
G1 X9.637 Y9.612 E126.29260
G1 X-9.587 Y9.612 E127.53911
G1 X-9.587 Y-9.492 E128.77785
G1 X-10.621 Y-10.646 F3600.000
G1 F1800.000
G1 X10.671 Y-10.646 E130.15848
G1 X10.671 Y10.646 E131.53911
G1 X-10.621 Y10.646 E132.91974
G1 X-10.621 Y-10.526 E134.29259
G1 X-11.535 Y-11.560 F3600.000
G1 F1800.000
G1 X11.585 Y-11.560 E135.44386
G1 X11.585 Y11.560 E136.59513
G1 X-11.535 Y11.560 E137.74639
G1 X-11.535 Y-11.440 E138.89168
G1 X-10.762 Y-11.353 F3600.000
G1 X-8.819 Y4.084 F3600.000
G1 F1800.000
G1 X-4.059 Y8.844 E139.27756
G1 X8.869 Y8.844 E140.01859
G1 X-8.819 Y-8.844 E141.45245
G1 X4.109 Y-8.844 E142.19348
G1 X8.869 Y-4.084 E142.57935
G1 Z2.000 F3600.000
G1 X-9.587 Y-9.612 F3600.000
G1 F1800.000
G1 X9.037 Y-9.612 E143.78696
G1 X9.037 Y9.612 E145.03348
G1 X-9.587 Y9.612 E146.24108
G1 X-9.587 Y-9.492 E147.47982
G1 X-10.621 Y-10.646 F3600.000
G1 F1800.000
G1 X10.071 Y-10.646 E148.82154
G1 X10.071 Y10.646 E150.20217
G1 X-10.621 Y10.646 E151.54390
G1 X-10.621 Y-10.526 E152.91675
G1 X-11.535 Y-11.560 F3600.000
G1 F1800.000
G1 X10.985 Y-11.560 E154.03814
G1 X10.985 Y11.560 E155.18941
G1 X-11.535 Y11.560 E156.31079
G1 X-11.535 Y-11.440 E157.45609
G1 X-10.763 Y-11.350 F3600.000
G1 X-4.059 Y-8.844 F3600.000
G1 F1800.000
G1 X-8.819 Y-4.084 E157.84196
G1 X-8.819 Y8.844 E158.58299
G1 X8.269 Y-8.244 E159.96821
G1 X8.269 Y4.684 E160.70925
G1 X4.109 Y8.844 E161.04648
G1 Z2.400 F3600.000
G1 X-9.587 Y-9.612 F3600.000
G1 F1800.000
G1 X7.837 Y-9.612 E162.17628
G1 X7.837 Y9.612 E163.42279
G1 X-9.587 Y9.612 E164.55259
G1 X-9.587 Y-9.492 E165.79132
G1 X-10.621 Y-10.646 F3600.000
G1 F1800.000
G1 X8.871 Y-10.646 E167.05523
G1 X8.871 Y10.646 E168.43586
G1 X-10.621 Y10.646 E169.69978
G1 X-10.621 Y-10.526 E171.07263
G1 X-11.535 Y-11.560 F3600.000
G1 F1800.000
G1 X9.785 Y-11.560 E172.13426
G1 X9.785 Y11.560 E173.28553
G1 X-11.535 Y11.560 E174.34716
G1 X-11.535 Y-11.440 E175.49245
G1 X-10.765 Y-11.343 F3600.000
G1 X-8.819 Y4.084 F3600.000
G1 F1800.000
G1 X-4.059 Y8.844 E175.87833
G1 X7.069 Y8.844 E176.51619
G1 X7.069 Y7.044 E176.61936
G1 X-8.819 Y-8.844 E177.90731
G1 X4.109 Y-8.844 E178.64834
G1 X7.069 Y-5.884 E178.88830
M106 S239.7
G1 Z2.800 F3600.000
G1 X-9.587 Y-9.612 F3600.000
G1 F1800.000
G1 X6.637 Y-9.612 E179.94028
G1 X6.637 Y9.612 E181.18680
G1 X-9.587 Y9.612 E182.23878
G1 X-9.587 Y-9.492 E183.47751
G1 X-10.621 Y-10.646 F3600.000
G1 F1800.000
G1 X7.671 Y-10.646 E184.66362
G1 X7.671 Y10.646 E186.04425
G1 X-10.621 Y10.646 E187.23035
G1 X-10.621 Y-10.526 E188.60320
G1 X-11.535 Y-11.560 F3600.000
G1 F1800.000
G1 X8.585 Y-11.560 E189.60508
G1 X8.585 Y11.560 E190.75635
G1 X-11.535 Y11.560 E191.75823
G1 X-11.535 Y-11.440 E192.90352
G1 X-10.767 Y-11.335 F3600.000
G1 X-4.059 Y-8.844 F3600.000
G1 F1800.000
G1 X-8.819 Y-4.084 E193.28939
G1 X-8.819 Y8.844 E194.03042
G1 X5.869 Y-5.844 E195.22109
G1 X5.869 Y7.084 E195.96213
G1 X4.109 Y8.844 E196.10481
G1 Z3.200 F3600.000
G1 X-9.587 Y-9.612 F3600.000
G1 F1800.000
G1 X5.437 Y-9.612 E197.07898
G1 X5.437 Y9.612 E198.32550
G1 X-9.587 Y9.612 E199.29967
G1 X-9.587 Y-9.492 E200.53840
G1 X-10.621 Y-10.646 F3600.000
G1 F1800.000
G1 X6.471 Y-10.646 E201.64669
G1 X6.471 Y10.646 E203.02732
G1 X-10.621 Y10.646 E204.13561
G1 X-10.621 Y-10.526 E205.50846
G1 X-11.535 Y-11.560 F3600.000
G1 F1800.000
G1 X7.385 Y-11.560 E206.45059
G1 X7.385 Y11.560 E207.60185
G1 X-11.535 Y11.560 E208.54398
G1 X-11.535 Y-11.440 E209.68927
G1 X-10.770 Y-11.327 F3600.000
G1 X-8.819 Y4.084 F3600.000
G1 F1800.000
G1 X-4.059 Y8.844 E210.07514
G1 X4.669 Y8.844 E210.57544
G1 X4.669 Y4.644 E210.81618
G1 X-8.819 Y-8.844 E211.90957
G1 X4.109 Y-8.844 E212.65061
G1 X4.669 Y-8.284 E212.69602
M106 S242.25
G1 Z3.600 F3600.000
G1 X-9.587 Y-9.612 F3600.000
G1 F1800.000
G1 X4.237 Y-9.612 E213.59238
G1 X4.237 Y9.612 E214.83889
G1 X-9.587 Y9.612 E215.73525
G1 X-9.587 Y-9.492 E216.97398
G1 X-10.621 Y-10.646 F3600.000
G1 F1800.000
G1 X5.271 Y-10.646 E218.00446
G1 X5.271 Y10.646 E219.38509
G1 X-10.621 Y10.646 E220.41557
G1 X-10.621 Y-10.526 E221.78842
G1 X-11.535 Y-11.560 F3600.000
G1 F1800.000
G1 X6.185 Y-11.560 E222.67079
G1 X6.185 Y11.560 E223.82206
G1 X-11.535 Y11.560 E224.70443
G1 X-11.535 Y-11.440 E225.84972
G1 X-10.772 Y-11.319 F3600.000
G1 X-4.472 Y-8.431 F3600.000
G1 F1800.000
G1 X-8.819 Y-8.431 E226.09888
G1 X-8.819 Y-4.084 E226.34804
G1 X-4.059 Y-8.844 E226.73392
G1 X3.469 Y-8.844 E227.16543
G1 X3.469 Y-3.444 E227.47495
G1 X-8.819 Y8.844 E228.47107
G1 Z4.000 F3600.000
G1 X-9.587 Y-9.612 F3600.000
G1 F1800.000
G1 X3.037 Y-9.612 E229.28962
G1 X3.037 Y9.612 E230.53613
G1 X-9.587 Y9.612 E231.35468
G1 X-9.587 Y-9.492 E232.59341
G1 X-10.621 Y-10.646 F3600.000
G1 F1800.000
G1 X4.071 Y-10.646 E233.54607
G1 X4.071 Y10.646 E234.92671
G1 X-10.621 Y10.646 E235.87937
G1 X-10.621 Y-10.526 E237.25222
G1 X-11.535 Y-11.560 F3600.000
G1 F1800.000
G1 X4.985 Y-11.560 E238.07484
G1 X4.985 Y11.560 E239.22610
G1 X-11.535 Y11.560 E240.04872
G1 X-11.535 Y-11.440 E241.19401
G1 X-10.775 Y-11.311 F3600.000
G1 X-8.406 Y4.497 F3600.000
G1 F1800.000
G1 X-8.406 Y8.844 E241.44318
G1 X-4.059 Y8.844 E241.69234
G1 X-8.819 Y4.084 E242.07821
G1 X-8.819 Y-8.844 E242.81925
G1 X2.269 Y2.244 E243.71809
M106 S244.8
G1 Z4.400 F3600.000
G1 X-9.587 Y-9.612 F3600.000
G1 F1800.000
G1 X1.837 Y-9.612 E244.45882
G1 X1.837 Y9.612 E245.70534
G1 X-9.587 Y9.612 E246.44607
G1 X-9.587 Y-9.492 E247.68480
G1 X-10.621 Y-10.646 F3600.000
G1 F1800.000
G1 X2.871 Y-10.646 E248.55966
G1 X2.871 Y10.646 E249.94029
G1 X-10.621 Y10.646 E250.81514
G1 X-10.621 Y-10.526 E252.18799
G1 X-11.535 Y-11.560 F3600.000
G1 F1800.000
G1 X3.785 Y-11.560 E252.95085
G1 X3.785 Y11.560 E254.10212
G1 X-11.535 Y11.560 E254.86498
G1 X-11.535 Y-11.440 E256.01027
G1 X-10.778 Y-11.302 F3600.000
G1 X-4.472 Y-8.431 F3600.000
G1 F1800.000
G1 X-8.819 Y-8.431 E256.25944
G1 X-8.819 Y-4.084 E256.50860
G1 X-4.059 Y-8.844 E256.89447
G1 X1.069 Y-8.844 E257.18841
G1 X1.069 Y-1.044 E257.63551
G1 X-8.819 Y8.844 E258.43708
G1 Z4.800 F3600.000
G1 X-9.587 Y-9.612 F3600.000
G1 F1800.000
G1 X0.637 Y-9.612 E259.10000
G1 X0.637 Y9.612 E260.34651
G1 X-9.587 Y9.612 E261.00943
G1 X-9.587 Y-9.492 E262.24817
G1 X-10.621 Y-10.646 F3600.000
G1 F1800.000
G1 X1.671 Y-10.646 E263.04520
G1 X1.671 Y10.646 E264.42584
G1 X-10.621 Y10.646 E265.22287
G1 X-10.621 Y-10.526 E266.59572
G1 X-11.535 Y-11.560 F3600.000
G1 F1800.000
G1 X2.585 Y-11.560 E267.29883
G1 X2.585 Y11.560 E268.45010
G1 X-11.535 Y11.560 E269.15321
G1 X-11.535 Y-11.440 E270.29850
G1 X-10.781 Y-11.293 F3600.000
G1 X-0.131 Y-0.156 F3600.000
G1 F1800.000
G1 X-8.819 Y-8.844 E271.00280
G1 X-8.819 Y4.084 E271.74383
G1 X-4.059 Y8.844 E272.12970
G1 X-8.406 Y8.844 E272.37887
G1 X-8.406 Y4.497 E272.62803
G1 Z5.200 F3600.000
G1 X-9.587 Y-9.612 F3600.000
G1 F1800.000
G1 X-0.563 Y-9.612 E273.21314
G1 X-0.563 Y9.612 E274.45965
G1 X-9.587 Y9.612 E275.04476
G1 X-9.587 Y-9.492 E276.28349
G1 X-10.621 Y-10.646 F3600.000
G1 F1800.000
G1 X0.471 Y-10.646 E277.00272
G1 X0.471 Y10.646 E278.38335
G1 X-10.621 Y10.646 E279.10258
G1 X-10.621 Y-10.526 E280.47543
G1 X-11.535 Y-11.560 F3600.000
G1 F1800.000
G1 X1.385 Y-11.560 E281.11878
G1 X1.385 Y11.560 E282.27005
G1 X-11.535 Y11.560 E282.91340
G1 X-11.535 Y-11.440 E284.05870
G1 X-10.785 Y-11.283 F3600.000
G1 X-4.472 Y-8.431 F3600.000
G1 F1800.000
G1 X-8.819 Y-8.431 E284.30786
G1 X-8.819 Y-4.084 E284.55702
