; generated by Slic3r 1.3.0-dev on 2022-04-06 at 12:59:27

; external perimeters extrusion width = 0.88mm (9.53mm^3/s)
; perimeters extrusion width = 1.12mm (24.82mm^3/s)
; infill extrusion width = 1.00mm (29.25mm^3/s)
; solid infill extrusion width = 1.12mm (8.27mm^3/s)
; top infill extrusion width = 1.12mm (6.20mm^3/s)

M107
G28 ; home all axes
G1 Z5 F5000 ; lift nozzle
M109 S200

; Filament gcode

G21 ; set units to millimeters
G90 ; use absolute coordinates
M82 ; use absolute distances for extrusion
G92 E0
G1 Z0.600 F7800.000
G1 E-2.00000 F2400.00000
G92 E0
G1 X-37.978 Y-57.579 Z0.600 F7800.000
G1 E2.00000 F2400.00000
G1 F1800
G1 X-37.581 Y-59.916 Z0.600 E2.23879
G1 X-36.434 Y-61.990 Z0.600 E2.47757
G1 X-34.666 Y-63.568 Z0.600 E2.71636
G1 X-32.476 Y-64.474 Z0.600 E2.95515
G1 X-30.907 Y-64.650 Z0.600 E3.11425
G1 X30.957 Y-64.650 Z0.600 E9.34720
G1 X33.293 Y-64.253 Z0.600 E9.58599
G1 X35.367 Y-63.106 Z0.600 E9.82477
G1 X36.946 Y-61.339 Z0.600 E10.06356
G1 X37.852 Y-59.148 Z0.600 E10.30235
G1 X38.028 Y-57.579 Z0.600 E10.46145
G1 X38.028 Y57.579 Z0.600 E22.06400
G1 X37.631 Y59.916 Z0.600 E22.30278
G1 X36.484 Y61.990 Z0.600 E22.54157
G1 X34.716 Y63.568 Z0.600 E22.78036
G1 X32.526 Y64.474 Z0.600 E23.01914
G1 X30.957 Y64.650 Z0.600 E23.17825
G1 X-30.907 Y64.650 Z0.600 E29.41120
G1 X-33.243 Y64.253 Z0.600 E29.64998
G1 X-35.317 Y63.106 Z0.600 E29.88877
G1 X-36.896 Y61.339 Z0.600 E30.12756
G1 X-37.802 Y59.148 Z0.600 E30.36634
G1 X-37.978 Y57.579 Z0.600 E30.52545
G1 X-37.978 Y-57.459 Z0.600 E42.11590
G1 E40.11590 F2400.00000
G92 E0
G1 X-35.379 Y-57.579 Z0.600 F7800.000
G1 E2.00000 F2400.00000
G1 F1800
G1 X-35.379 Y-59.432 Z0.600 E2.21780
G1 X-32.759 Y-62.052 Z0.600 E2.65340
G1 X32.809 Y-62.052 Z0.600 E10.36206
G1 X35.429 Y-59.432 Z0.600 E10.79766
G1 X35.429 Y59.432 Z0.600 E24.77196
G1 X32.809 Y62.052 Z0.600 E25.20756
G1 X-32.759 Y62.052 Z0.600 E32.91622
G1 X-35.379 Y59.432 Z0.600 E33.35182
G1 X-35.379 Y-57.459 Z0.600 E47.09421
G1 X-34.129 Y-57.579 Z0.600 F7800.000
G1 F1800
G1 X-34.129 Y-58.914 Z0.600 E47.25114
G1 X-32.242 Y-60.802 Z0.600 E47.56499
G1 X32.292 Y-60.802 Z0.600 E55.15191
G1 X34.179 Y-58.914 Z0.600 E55.46577
G1 X34.179 Y58.914 Z0.600 E69.31832
G1 X32.292 Y60.802 Z0.600 E69.63218
G1 X-32.242 Y60.802 Z0.600 E77.21909
G1 X-34.129 Y58.914 Z0.600 E77.53295
G1 X-34.129 Y-57.459 Z0.600 E91.21447
G1 X-32.879 Y-57.579 Z0.600 F7800.000
G1 F1800
G1 X-32.879 Y-58.396 Z0.600 E91.31053
G1 X-31.724 Y-59.552 Z0.600 E91.50264
G1 X31.774 Y-59.552 Z0.600 E98.96781
G1 X32.929 Y-58.396 Z0.600 E99.15992
G1 X32.929 Y58.396 Z0.600 E112.89073
G1 X31.774 Y59.552 Z0.600 E113.08285
G1 X-31.724 Y59.552 Z0.600 E120.54802
G1 X-32.879 Y58.396 Z0.600 E120.74013
G1 X-32.879 Y-57.459 Z0.600 E134.36078
G1 X-31.629 Y-57.579 Z0.600 F7800.000
G1 F1800
G1 X-31.629 Y-57.878 Z0.600 E134.39597
G1 X-31.206 Y-58.302 Z0.600 E134.46633
G1 X31.256 Y-58.302 Z0.600 E141.80976
G1 X31.679 Y-57.878 Z0.600 E141.88013
G1 X31.679 Y57.878 Z0.600 E155.48920
G1 X31.256 Y58.302 Z0.600 E155.55957
G1 X-31.206 Y58.302 Z0.600 E162.90300
G1 X-31.629 Y57.878 Z0.600 E162.97337
G1 X-31.629 Y-57.459 Z0.600 E176.53314
G1 X-30.307 Y-56.979 Z0.600 F7800.000
G1 F1800
G1 X30.357 Y-56.979 Z0.600 E182.64519
G1 X30.357 Y56.979 Z0.600 E194.12684
G1 X-30.307 Y56.979 Z0.600 E200.23888
G1 X-30.307 Y-56.859 Z0.600 E211.70844
G1 X-29.558 Y-56.697 F7800.000
G1 X-29.236 Y-55.908 Z0.600 F7800.000
G1 F1800
G1 X29.286 Y-55.908 Z0.600 E217.60462
G1 X29.286 Y55.908 Z0.600 E228.87040
G1 X-29.236 Y55.908 Z0.600 E234.76659
G1 X-29.236 Y-55.788 Z0.600 E246.02028
G1 X-28.164 Y-54.837 Z0.600 F7800.000
G1 F1800
G1 X28.214 Y-54.837 Z0.600 E251.70061
G1 X28.214 Y54.837 Z0.600 E262.75053
G1 X-28.164 Y54.837 Z0.600 E268.43086
G1 X-28.164 Y-54.717 Z0.600 E279.46869
G1 E277.46869 F2400.00000
G92 E0
G1 X-1.060 Y-27.732 Z0.600 F7800.000
G1 E2.00000 F2400.00000
G1 F1800
G1 X1.110 Y-27.732 Z0.600 E2.22133
G1 X1.110 Y27.732 Z0.600 E7.87986
G1 X-1.060 Y27.732 Z0.600 E8.10120
G1 X-1.060 Y-27.612 Z0.600 E13.74748
G1 X-2.144 Y-28.817 Z0.600 F7800.000
G1 F1800
G1 X2.194 Y-28.817 Z0.600 E14.19015
G1 X2.194 Y28.817 Z0.600 E20.07001
G1 X-2.144 Y28.817 Z0.600 E20.51267
G1 X-2.144 Y-28.697 Z0.600 E26.38029
G1 X-3.229 Y-29.902 Z0.600 F7800.000
G1 F1800
G1 X3.279 Y-29.902 Z0.600 E27.04428
G1 X3.279 Y29.902 Z0.600 E33.14547
G1 X-3.229 Y29.902 Z0.600 E33.80947
G1 X-3.229 Y-29.782 Z0.600 E39.89842
G1 X-4.314 Y-30.986 Z0.600 F7800.000
G1 F1800
G1 X4.364 Y-30.986 Z0.600 E40.78374
G1 X4.364 Y30.986 Z0.600 E47.10626
G1 X-4.314 Y30.986 Z0.600 E47.99159
G1 X-4.314 Y-30.866 Z0.600 E54.30186
G1 X-5.399 Y-32.071 Z0.600 F7800.000
G1 F1800
G1 X5.449 Y-32.071 Z0.600 E55.40852
G1 X5.449 Y32.071 Z0.600 E61.95237
G1 X-5.399 Y32.071 Z0.600 E63.05902
G1 X-5.399 Y-31.951 Z0.600 E69.59063
G1 X-6.483 Y-33.156 Z0.600 F7800.000
G1 F1800
G1 X6.533 Y-33.156 Z0.600 E70.91862
G1 X6.533 Y33.156 Z0.600 E77.68380
G1 X-6.483 Y33.156 Z0.600 E79.01178
G1 X-6.483 Y-33.036 Z0.600 E85.76472
G1 X-7.568 Y-34.240 Z0.600 F7800.000
G1 F1800
G1 X7.618 Y-34.240 Z0.600 E87.31404
G1 X7.618 Y34.240 Z0.600 E94.30055
G1 X-7.568 Y34.240 Z0.600 E95.84987
G1 X-7.568 Y-34.120 Z0.600 E102.82414
G1 X-8.653 Y-35.325 Z0.600 F7800.000
G1 F1800
G1 X8.703 Y-35.325 Z0.600 E104.59478
G1 X8.703 Y35.325 Z0.600 E111.80262
G1 X-8.653 Y35.325 Z0.600 E113.57327
G1 X-8.653 Y-35.205 Z0.600 E120.76887
G1 X-9.738 Y-36.410 Z0.600 F7800.000
G1 F1800
G1 X9.788 Y-36.410 Z0.600 E122.76084
G1 X9.788 Y36.410 Z0.600 E130.19002
G1 X-9.738 Y36.410 Z0.600 E132.18199
G1 X-9.738 Y-36.290 Z0.600 E139.59892
G1 X-10.822 Y-37.495 Z0.600 F7800.000
G1 F1800
G1 X10.872 Y-37.495 Z0.600 E141.81223
G1 X10.872 Y37.495 Z0.600 E149.46273
G1 X-10.822 Y37.495 Z0.600 E151.67604
G1 X-10.822 Y-37.375 Z0.600 E159.31430
G1 X-11.907 Y-38.579 Z0.600 F7800.000
G1 F1800
G1 X11.957 Y-38.579 Z0.600 E161.74894
G1 X11.957 Y38.579 Z0.600 E169.62077
G1 X-11.907 Y38.579 Z0.600 E172.05541
G1 X-11.907 Y-38.459 Z0.600 E179.91500
G1 X-12.992 Y-39.664 Z0.600 F7800.000
G1 F1800
G1 X13.042 Y-39.664 Z0.600 E182.57096
G1 X13.042 Y39.664 Z0.600 E190.66413
G1 X-12.992 Y39.664 Z0.600 E193.32009
G1 X-12.992 Y-39.544 Z0.600 E201.40101
G1 X-14.076 Y-40.749 Z0.600 F7800.000
G1 F1800
G1 X14.126 Y-40.749 Z0.600 E204.27831
G1 X14.126 Y40.749 Z0.600 E212.59281
G1 X-14.076 Y40.749 Z0.600 E215.47010
G1 X-14.076 Y-40.629 Z0.600 E223.77235
G1 X-15.161 Y-41.833 Z0.600 F7800.000
G1 F1800
G1 X15.211 Y-41.833 Z0.600 E226.87098
G1 X15.211 Y41.833 Z0.600 E235.40681
G1 X-15.161 Y41.833 Z0.600 E238.50543
G1 X-15.161 Y-41.713 Z0.600 E247.02902
G1 X-16.246 Y-42.918 Z0.600 F7800.000
G1 F1800
G1 X16.296 Y-42.918 Z0.600 E250.34897
G1 X16.296 Y42.918 Z0.600 E259.10613
G1 X-16.246 Y42.918 Z0.600 E262.42609
G1 X-16.246 Y-42.798 Z0.600 E271.17100
G1 X-17.331 Y-44.003 Z0.600 F7800.000
G1 F1800
G1 X17.381 Y-44.003 Z0.600 E274.71229
G1 X17.381 Y44.003 Z0.600 E283.69077
G1 X-17.331 Y44.003 Z0.600 E287.23206
G1 X-17.331 Y-43.883 Z0.600 E296.19830
G1 X-18.415 Y-45.088 Z0.600 F7800.000
G1 F1800
G1 X18.465 Y-45.088 Z0.600 E299.96092
G1 X18.465 Y45.088 Z0.600 E309.16074
G1 X-18.415 Y45.088 Z0.600 E312.92335
G1 X-18.415 Y-44.968 Z0.600 E322.11093
G1 X-19.500 Y-46.172 Z0.600 F7800.000
G1 F1800
G1 X19.550 Y-46.172 Z0.600 E326.09488
G1 X19.550 Y46.172 Z0.600 E335.51602
G1 X-19.500 Y46.172 Z0.600 E339.49997
G1 X-19.500 Y-46.052 Z0.600 E348.90887
G1 X-20.585 Y-47.257 Z0.600 F7800.000
G1 F1800
G1 X20.635 Y-47.257 Z0.600 E353.11415
G1 X20.635 Y47.257 Z0.600 E362.75663
G1 X-20.585 Y47.257 Z0.600 E366.96191
G1 X-20.585 Y-47.137 Z0.600 E376.59214
G1 X-21.670 Y-48.342 Z0.600 F7800.000
G1 F1800
G1 X21.720 Y-48.342 Z0.600 E381.01875
G1 X21.720 Y48.342 Z0.600 E390.88256
G1 X-21.670 Y48.342 Z0.600 E395.30917
G1 X-21.670 Y-48.222 Z0.600 E405.16073
G1 X-22.754 Y-49.427 Z0.600 F7800.000
G1 F1800
G1 X22.804 Y-49.427 Z0.600 E409.80867
G1 X22.804 Y49.427 Z0.600 E419.89381
G1 X-22.754 Y49.427 Z0.600 E424.54175
G1 X-22.754 Y-49.307 Z0.600 E434.61464
G1 X-23.839 Y-50.511 Z0.600 F7800.000
G1 F1800
G1 X23.889 Y-50.511 Z0.600 E439.48391
G1 X23.889 Y50.511 Z0.600 E449.79038
G1 X-23.839 Y50.511 Z0.600 E454.65965
G1 X-23.839 Y-50.391 Z0.600 E464.95387
G1 X-24.924 Y-51.596 Z0.600 F7800.000
G1 F1800
G1 X24.974 Y-51.596 Z0.600 E470.04447
G1 X24.974 Y51.596 Z0.600 E480.57227
G1 X-24.924 Y51.596 Z0.600 E485.66287
G1 X-24.924 Y-51.476 Z0.600 E496.17843
G1 X-26.008 Y-52.681 Z0.600 F7800.000
G1 F1800
G1 X26.058 Y-52.681 Z0.600 E501.49036
G1 X26.058 Y52.681 Z0.600 E512.23949
G1 X-26.008 Y52.681 Z0.600 E517.55142
G1 X-26.008 Y-52.561 Z0.600 E528.28830
G1 X-27.093 Y-53.765 Z0.600 F7800.000
G1 F1800
G1 X27.143 Y-53.765 Z0.600 E533.82156
G1 X27.143 Y53.765 Z0.600 E544.79202
G1 X-27.093 Y53.765 Z0.600 E550.32528
G1 X-27.093 Y-53.645 Z0.600 E561.28350
G1 Z1.000 F7800.000
G1 X-28.519 Y-55.191 Z1.000 F7800.000
G1 F3600
G1 X28.569 Y-55.191 Z1.000 E564.98523
G1 X28.569 Y55.191 Z1.000 E572.14279
G1 X-28.519 Y55.191 Z1.000 E575.84453
G1 X-28.519 Y-55.071 Z1.000 E582.99430
G1 X-29.553 Y-56.225 Z1.000 F7800.000
G1 F3600
G1 X29.603 Y-56.225 Z1.000 E586.83015
G1 X29.603 Y56.225 Z1.000 E594.12183
G1 X-29.553 Y56.225 Z1.000 E597.95768
G1 X-29.553 Y-56.105 Z1.000 E605.24158
G1 X-30.467 Y-57.139 Z1.000 F7800.000
G1 F1800
G1 X30.517 Y-57.139 Z1.000 E608.27827
G1 X30.517 Y57.139 Z1.000 E613.96879
G1 X-30.467 Y57.139 Z1.000 E617.00549
G1 X-30.467 Y-57.019 Z1.000 E622.69004
G1 X-29.718 Y-56.857 F7800.000
G1 X27.937 Y-53.754 Z1.000 F7800.000
G1 F1200
G1 X27.132 Y-54.559 Z1.000 E622.76426
G1 X25.661 Y-54.559 Z1.000 E622.86026
G1 X27.937 Y-52.283 Z1.000 E623.07025
G1 X27.937 Y-50.811 Z1.000 E623.16625
G1 X24.189 Y-54.559 Z1.000 E623.51200
G1 X22.718 Y-54.559 Z1.000 E623.60800
G1 X27.937 Y-49.340 Z1.000 E624.08951
G1 X27.937 Y-47.869 Z1.000 E624.18551
G1 X21.246 Y-54.559 Z1.000 E624.80278
G1 X19.775 Y-54.559 Z1.000 E624.89878
G1 X27.937 Y-46.397 Z1.000 E625.65181
G1 X27.937 Y-44.926 Z1.000 E625.74781
G1 X18.303 Y-54.559 Z1.000 E626.63661
G1 X16.832 Y-54.559 Z1.000 E626.73261
G1 X27.937 Y-43.454 Z1.000 E627.75716
G1 X27.937 Y-41.983 Z1.000 E627.85316
G1 X15.360 Y-54.559 Z1.000 E629.01348
G1 X13.889 Y-54.559 Z1.000 E629.10948
G1 X27.937 Y-40.511 Z1.000 E630.40556
G1 X27.937 Y-39.040 Z1.000 E630.50156
G1 X12.417 Y-54.559 Z1.000 E631.93340
G1 X10.946 Y-54.559 Z1.000 E632.02940
G1 X27.937 Y-37.568 Z1.000 E633.59700
G1 X27.937 Y-36.097 Z1.000 E633.69300
G1 X9.475 Y-54.559 Z1.000 E635.39636
G1 X8.003 Y-54.559 Z1.000 E635.49236
G1 X27.937 Y-34.625 Z1.000 E637.33149
G1 X27.937 Y-33.154 Z1.000 E637.42748
G1 X6.532 Y-54.559 Z1.000 E639.40237
G1 X5.060 Y-54.559 Z1.000 E639.49837
G1 X27.937 Y-31.683 Z1.000 E641.60902
G1 X27.937 Y-30.211 Z1.000 E641.70502
G1 X3.589 Y-54.559 Z1.000 E643.95143
G1 X2.117 Y-54.559 Z1.000 E644.04742
G1 X27.937 Y-28.740 Z1.000 E646.42960
G1 X27.937 Y-27.268 Z1.000 E646.52559
G1 X0.646 Y-54.559 Z1.000 E649.04353
G1 X-0.826 Y-54.559 Z1.000 E649.13952
G1 X27.937 Y-25.797 Z1.000 E651.79322
G1 X27.937 Y-24.325 Z1.000 E651.88922
G1 X-2.297 Y-54.559 Z1.000 E654.67867
G1 X-3.769 Y-54.559 Z1.000 E654.77467
G1 X27.937 Y-22.854 Z1.000 E657.69989
G1 X27.937 Y-21.382 Z1.000 E657.79588
G1 X-5.240 Y-54.559 Z1.000 E660.85686
G1 X-6.711 Y-54.559 Z1.000 E660.95286
G1 X27.937 Y-19.911 Z1.000 E664.14960
G1 X27.937 Y-18.439 Z1.000 E664.24560
G1 X-8.183 Y-54.559 Z1.000 E667.57810
G1 X-9.654 Y-54.559 Z1.000 E667.67409
G1 X27.937 Y-16.968 Z1.000 E671.14236
G1 X27.937 Y-15.496 Z1.000 E671.23835
G1 X-11.126 Y-54.559 Z1.000 E674.84238
G1 X-12.597 Y-54.559 Z1.000 E674.93838
G1 X27.937 Y-14.025 Z1.000 E678.67816
G1 X27.937 Y-12.554 Z1.000 E678.77416
G1 X-14.069 Y-54.559 Z1.000 E682.64970
G1 X-15.540 Y-54.559 Z1.000 E682.74570
G1 X27.937 Y-11.082 Z1.000 E686.75701
G1 X27.937 Y-9.611 Z1.000 E686.85301
G1 X-17.012 Y-54.559 Z1.000 E691.00008
G1 X-18.483 Y-54.559 Z1.000 E691.09607
G1 X27.937 Y-8.139 Z1.000 E695.37890
G1 X27.937 Y-6.668 Z1.000 E695.47490
G1 X-19.955 Y-54.559 Z1.000 E699.89349
G1 X-21.426 Y-54.559 Z1.000 E699.98949
G1 X27.937 Y-5.196 Z1.000 E704.54385
G1 X27.937 Y-3.725 Z1.000 E704.63984
G1 X-22.898 Y-54.559 Z1.000 E709.32996
G1 X-24.369 Y-54.559 Z1.000 E709.42596
G1 X27.937 Y-2.253 Z1.000 E714.25183
G1 X27.937 Y-0.782 Z1.000 E714.34783
G1 X-25.840 Y-54.559 Z1.000 E719.30947
G1 X-27.312 Y-54.559 Z1.000 E719.40546
G1 X27.937 Y0.690 Z1.000 E724.50286
G1 X27.937 Y2.161 Z1.000 E724.59886
G1 X-27.887 Y-53.662 Z1.000 E729.74928
G1 X-27.887 Y-52.191 Z1.000 E729.84528
G1 X27.937 Y3.632 Z1.000 E734.99570
G1 X27.937 Y5.104 Z1.000 E735.09169
G1 X-27.887 Y-50.719 Z1.000 E740.24211
G1 X-27.887 Y-49.248 Z1.000 E740.33811
G1 X27.937 Y6.575 Z1.000 E745.48853
G1 X27.937 Y8.047 Z1.000 E745.58453
G1 X-27.887 Y-47.776 Z1.000 E750.73495
G1 X-27.887 Y-46.305 Z1.000 E750.83094
G1 X27.937 Y9.518 Z1.000 E755.98136
G1 X27.937 Y10.990 Z1.000 E756.07736
G1 X-27.887 Y-44.833 Z1.000 E761.22778
G1 X-27.887 Y-43.362 Z1.000 E761.32378
G1 X27.937 Y12.461 Z1.000 E766.47420
G1 X27.937 Y13.933 Z1.000 E766.57020
G1 X-27.887 Y-41.890 Z1.000 E771.72061
G1 X-27.887 Y-40.419 Z1.000 E771.81661
G1 X27.937 Y15.404 Z1.000 E776.96703
G1 X27.937 Y16.876 Z1.000 E777.06303
G1 X-27.887 Y-38.948 Z1.000 E782.21345
G1 X-27.887 Y-37.476 Z1.000 E782.30945
G1 X27.937 Y18.347 Z1.000 E787.45986
G1 X27.937 Y19.819 Z1.000 E787.55586
G1 X-27.887 Y-36.005 Z1.000 E792.70628
G1 X-27.887 Y-34.533 Z1.000 E792.80228
G1 X27.937 Y21.290 Z1.000 E797.95270
G1 X27.937 Y22.761 Z1.000 E798.04870
G1 X-27.887 Y-33.062 Z1.000 E803.19911
G1 X-27.887 Y-31.590 Z1.000 E803.29511
G1 X27.937 Y24.233 Z1.000 E808.44553
G1 X27.937 Y25.704 Z1.000 E808.54153
G1 X-27.887 Y-30.119 Z1.000 E813.69195
G1 X-27.887 Y-28.647 Z1.000 E813.78795
G1 X27.937 Y27.176 Z1.000 E818.93837
G1 X27.937 Y28.647 Z1.000 E819.03436
G1 X-27.887 Y-27.176 Z1.000 E824.18478
G1 X-27.887 Y-25.704 Z1.000 E824.28078
G1 X27.937 Y30.119 Z1.000 E829.43120
G1 X27.937 Y31.590 Z1.000 E829.52720
G1 X-27.887 Y-24.233 Z1.000 E834.67762
G1 X-27.887 Y-22.761 Z1.000 E834.77361
G1 X27.937 Y33.062 Z1.000 E839.92403
G1 X27.937 Y34.533 Z1.000 E840.02003
G1 X-27.887 Y-21.290 Z1.000 E845.17045
G1 X-27.887 Y-19.819 Z1.000 E845.26645
G1 X27.937 Y36.005 Z1.000 E850.41687
G1 X27.937 Y37.476 Z1.000 E850.51286
G1 X-27.887 Y-18.347 Z1.000 E855.66328
G1 X-27.887 Y-16.876 Z1.000 E855.75928
G1 X27.937 Y38.947 Z1.000 E860.90970
G1 X27.937 Y40.419 Z1.000 E861.00570
G1 X-27.887 Y-15.404 Z1.000 E866.15612
G1 X-27.887 Y-13.933 Z1.000 E866.25211
G1 X27.937 Y41.890 Z1.000 E871.40253
G1 X27.937 Y43.362 Z1.000 E871.49853
G1 X-27.887 Y-12.461 Z1.000 E876.64895
G1 X-27.887 Y-10.990 Z1.000 E876.74495
G1 X27.937 Y44.833 Z1.000 E881.89537
G1 X27.937 Y46.305 Z1.000 E881.99137
G1 X-27.887 Y-9.518 Z1.000 E887.14178
G1 X-27.887 Y-8.047 Z1.000 E887.23778
G1 X27.937 Y47.776 Z1.000 E892.38820
G1 X27.937 Y49.248 Z1.000 E892.48420
G1 X-27.887 Y-6.575 Z1.000 E897.63462
G1 X-27.887 Y-5.104 Z1.000 E897.73062
G1 X27.937 Y50.719 Z1.000 E902.88104
G1 X27.937 Y52.191 Z1.000 E902.97703
G1 X-27.887 Y-3.633 Z1.000 E908.12745
G1 X-27.887 Y-2.161 Z1.000 E908.22345
G1 X27.937 Y53.662 Z1.000 E913.37387
G1 X27.937 Y54.559 Z1.000 E913.43238
G1 X27.362 Y54.559 Z1.000 E913.46987
G1 X-27.887 Y-0.690 Z1.000 E918.56727
G1 X-27.887 Y0.782 Z1.000 E918.66327
G1 X25.890 Y54.559 Z1.000 E923.62491
G1 X24.419 Y54.559 Z1.000 E923.72091
G1 X-27.887 Y2.253 Z1.000 E928.54679
G1 X-27.887 Y3.725 Z1.000 E928.64278
G1 X22.948 Y54.559 Z1.000 E933.33290
G1 X21.476 Y54.559 Z1.000 E933.42890
G1 X-27.887 Y5.196 Z1.000 E937.98326
G1 X-27.887 Y6.668 Z1.000 E938.07926
G1 X20.005 Y54.559 Z1.000 E942.49785
G1 X18.533 Y54.559 Z1.000 E942.59385
G1 X-27.887 Y8.139 Z1.000 E946.87669
G1 X-27.887 Y9.611 Z1.000 E946.97268
G1 X17.062 Y54.559 Z1.000 E951.11976
G1 X15.590 Y54.559 Z1.000 E951.21575
G1 X-27.887 Y11.082 Z1.000 E955.22707
G1 X-27.887 Y12.554 Z1.000 E955.32306
G1 X14.119 Y54.559 Z1.000 E959.19861
G1 X12.647 Y54.559 Z1.000 E959.29461
G1 X-27.887 Y14.025 Z1.000 E963.03440
G1 X-27.887 Y15.496 Z1.000 E963.13040
G1 X11.176 Y54.559 Z1.000 E966.73443
G1 X9.704 Y54.559 Z1.000 E966.83043
G1 X-27.887 Y16.968 Z1.000 E970.29869
