;FLAVOR:Marlin
;TIME:1517
;Filament used: 2.09793m
;Layer height: 0.4
;MINX:-53.4
;MINY:-53.4
;MINZ:0.3
;MAXX:53.4
;MAXY:53.4
;MAXZ:20.1
;Generated with Cura_SteamEngine 4.9.1
M104 S200
M105
M109 S200
M82 ;absolute extrusion mode
G28 ;Home
G1 Z15.0 F6000 ;Move the platform down 15mm
;Prime the extruder
G92 E0
G1 F200 E3
G92 E0
G92 E0
G92 E0
G1 F1500 E-6.5
;LAYER_COUNT:50
;LAYER:0
M107
G0 F1800 X53.4 Y49.306 Z0.3
;TYPE:SKIRT
G1 F1500 E0
G1 F1800 X53.391 Y50.033 E0.02735
G1 X53.344 Y50.552 E0.04696
G1 X53.219 Y51.058 E0.06657
G1 X53.018 Y51.539 E0.08618
G1 X52.746 Y51.983 E0.10577
G1 X52.409 Y52.381 E0.12539
G1 X52.016 Y52.723 E0.14499
G1 X51.574 Y53 E0.16461
G1 X51.096 Y53.206 E0.18419
G1 X50.591 Y53.338 E0.20383
G1 X50.086 Y53.39 E0.22293
G1 X49.67 Y53.4 E0.23858
G1 X-49.337 Y53.4 E3.96334
G1 X-50.035 Y53.391 E3.9896
G1 X-50.554 Y53.344 E4.0092
G1 X-51.06 Y53.219 E4.02881
G1 X-51.54 Y53.017 E4.04841
G1 X-51.985 Y52.745 E4.06803
G1 X-52.382 Y52.408 E4.08762
G1 X-52.724 Y52.014 E4.10725
G1 X-53.001 Y51.573 E4.12684
G1 X-53.207 Y51.094 E4.14645
G1 X-53.338 Y50.59 E4.16604
G1 X-53.39 Y50.083 E4.18522
G1 X-53.4 Y49.658 E4.20121
G1 X-53.4 Y-49.372 E7.92683
G1 X-53.391 Y-50.037 E7.95185
G1 X-53.344 Y-50.556 E7.97146
G1 X-53.218 Y-51.062 E7.99107
G1 X-53.016 Y-51.542 E8.01067
G1 X-52.744 Y-51.987 E8.03029
G1 X-52.406 Y-52.384 E8.0499
G1 X-52.012 Y-52.725 E8.06951
G1 X-51.571 Y-53.002 E8.0891
G1 X-51.092 Y-53.208 E8.10871
G1 X-50.588 Y-53.338 E8.1283
G1 X-50.086 Y-53.39 E8.14728
G1 X-49.67 Y-53.4 E8.16294
G1 X49.342 Y-53.4 E11.88788
G1 X50.04 Y-53.39 E11.91414
G1 X50.559 Y-53.342 E11.93375
G1 X51.064 Y-53.216 E11.95333
G1 X51.545 Y-53.014 E11.97296
G1 X51.989 Y-52.741 E11.99257
G1 X52.386 Y-52.404 E12.01216
G1 X52.726 Y-52.009 E12.03177
G1 X53.003 Y-51.567 E12.05139
G1 X53.209 Y-51.089 E12.07097
G1 X53.339 Y-50.584 E12.09059
G1 X53.39 Y-50.086 E12.10942
G1 X53.4 Y-49.67 E12.12508
G1 X53.4 Y49.306 E15.84867
G1 F1500 E9.34867
;MESH:square.STL
G0 F1800 X49.58 Y49.306
G0 X-49.5 Y49.53
G0 X-49.6 Y49.6
;TYPE:WALL-OUTER
G1 F1500 E15.84867
G1 F1800 X-49.6 Y-49.6 E19.58068
G1 X49.6 Y-49.6 E23.31269
G1 X49.6 Y49.6 E27.04471
G1 X-49.6 Y49.6 E30.77672
G0 X-49.6 Y49.2
G0 X-48.81 Y48.81
;TYPE:SKIN
G1 X-48.81 Y-48.81 E34.4493
G1 X48.81 Y-48.81 E38.12187
G1 X48.81 Y48.81 E41.79444
G1 X-48.81 Y48.81 E45.46701
G0 X-48.449 Y47.716
G1 X-47.716 Y48.449 E45.50601
G0 X-46.585 Y48.449
G1 X-48.449 Y46.585 E45.60519
G0 X-48.449 Y45.454
G1 X-45.454 Y48.449 E45.76453
G0 X-44.322 Y48.449
G1 X-48.449 Y44.322 E45.98411
G0 X-48.449 Y43.191
G1 X-43.191 Y48.449 E46.26386
G0 X-42.06 Y48.449
G1 X-48.449 Y42.06 E46.60378
G0 X-48.449 Y40.928
G1 X-40.928 Y48.449 E47.00393
G0 X-39.797 Y48.449
G1 X-48.449 Y39.797 E47.46425
G0 X-48.449 Y38.666
G1 X-38.666 Y48.449 E47.98475
G0 X-37.534 Y48.449
G1 X-48.449 Y37.534 E48.56547
G0 X-48.449 Y36.403
G1 X-36.403 Y48.449 E49.20637
G0 X-35.271 Y48.449
G1 X-48.449 Y35.271 E49.9075
G0 X-48.449 Y34.14
G1 X-34.14 Y48.449 E50.6688
G0 X-33.009 Y48.449
G1 X-48.449 Y33.009 E51.49027
G0 X-48.449 Y31.877
G1 X-31.877 Y48.449 E52.37197
G0 X-30.746 Y48.449
G1 X-48.449 Y30.746 E53.31385
G0 X-48.449 Y29.615
G1 X-29.615 Y48.449 E54.3159
G0 X-28.483 Y48.449
G1 X-48.449 Y28.483 E55.37818
G0 X-48.449 Y27.352
G1 X-27.352 Y48.449 E56.50063
G0 X-26.22 Y48.449
G1 X-48.449 Y26.22 E57.6833
G0 X-48.449 Y25.089
G1 X-25.089 Y48.449 E58.92616
G0 X-23.958 Y48.449
G1 X-48.449 Y23.958 E60.22918
G0 X-48.449 Y22.826
G1 X-22.826 Y48.449 E61.59244
G0 X-21.695 Y48.449
G1 X-48.449 Y21.695 E63.01586
G0 X-48.449 Y20.564
G1 X-20.564 Y48.449 E64.49947
G0 X-19.432 Y48.449
G1 X-48.449 Y19.432 E66.04329
G0 X-48.449 Y18.301
G1 X-18.301 Y48.449 E67.6473
G0 X-17.169 Y48.449
G1 X-48.449 Y17.169 E69.31153
G0 X-48.449 Y16.038
G1 X-16.038 Y48.449 E71.03593
G0 X-14.907 Y48.449
G1 X-48.449 Y14.907 E72.82051
G0 X-48.449 Y13.775
G1 X-13.775 Y48.449 E74.66532
G0 X-12.644 Y48.449
G1 X-48.449 Y12.644 E76.5703
G0 X-48.449 Y11.513
G1 X-11.513 Y48.449 E78.53545
G0 X-10.381 Y48.449
G1 X-48.449 Y10.381 E80.56083
G0 X-48.449 Y9.25
G1 X-9.25 Y48.449 E82.64638
G0 X-8.119 Y48.449
G1 X-48.449 Y8.119 E84.79211
G0 X-48.449 Y6.987
G1 X-6.987 Y48.449 E86.99807
G0 X-5.856 Y48.449
G1 X-48.449 Y5.856 E89.2642
G0 X-48.449 Y4.724
G1 X-4.724 Y48.449 E91.59056
G0 X-3.593 Y48.449
G1 X-48.449 Y3.593 E93.97709
G0 X-48.449 Y2.462
G1 X-2.462 Y48.449 E96.42379
G0 X-1.33 Y48.449
G1 X-48.449 Y1.33 E98.93073
G0 X-48.449 Y0.199
G1 X-.199 Y48.449 E101.49783
G0 X0.931 Y48.449
G1 X-48.449 Y-.931 E104.12506
G0 X-48.449 Y-2.063
G1 X2.063 Y48.449 E106.81252
G0 X3.194 Y48.449
G1 X-48.449 Y-3.194 E109.56015
G0 X-48.449 Y-4.326
G1 X4.326 Y48.449 E112.368
G0 X5.457 Y48.449
G1 X-48.449 Y-5.457 E115.23603
G0 X-48.449 Y-6.588
G1 X6.588 Y48.449 E118.16424
G0 X7.72 Y48.449
G1 X-48.449 Y-7.72 E121.15267
G0 X-48.449 Y-8.851
G1 X8.851 Y48.449 E124.20127
G0 X9.982 Y48.449
G1 X-48.449 Y-9.982 E127.31005
G0 X-48.449 Y-11.114
G1 X11.114 Y48.449 E130.47906
G0 X12.245 Y48.449
G1 X-48.449 Y-12.245 E133.70824
G0 X-48.449 Y-13.377
G1 X13.377 Y48.449 E136.99765
G0 X14.508 Y48.449
G1 X-48.449 Y-14.508 E140.34723
G0 X-48.449 Y-15.639
G1 X15.639 Y48.449 E143.75699
G0 X16.771 Y48.449
G1 X-48.449 Y-16.771 E147.22697
G0 X-48.449 Y-17.902
G1 X17.902 Y48.449 E150.75713
G0 X19.033 Y48.449
G1 X-48.449 Y-19.033 E154.34746
G0 X-48.449 Y-20.165
G1 X20.165 Y48.449 E157.99802
G0 X21.296 Y48.449
G1 X-48.449 Y-21.296 E161.70875
G0 X-48.449 Y-22.428
G1 X22.428 Y48.449 E165.47972
G0 X23.559 Y48.449
G1 X-48.449 Y-23.559 E169.31085
G0 X-48.449 Y-24.69
G1 X24.69 Y48.449 E173.20216
G0 X25.822 Y48.449
G1 X-48.449 Y-25.822 E177.15369
G0 X-48.449 Y-26.953
G1 X26.953 Y48.449 E181.1654
G0 X28.084 Y48.449
G1 X-48.449 Y-28.084 E185.23729
G0 X-48.449 Y-29.216
G1 X29.216 Y48.449 E189.3694
G0 X30.347 Y48.449
G1 X-48.449 Y-30.347 E193.56168
G0 X-48.449 Y-31.478
G1 X31.478 Y48.449 E197.81414
G0 X32.61 Y48.449
G1 X-48.449 Y-32.61 E202.12683
G0 X-48.449 Y-33.741
G1 X33.741 Y48.449 E206.49969
G0 X34.873 Y48.449
G1 X-48.449 Y-34.873 E210.93278
G0 X-48.449 Y-36.004
G1 X36.004 Y48.449 E215.42604
G0 X37.135 Y48.449
G1 X-48.449 Y-37.135 E219.97947
G0 X-48.449 Y-38.267
G1 X38.267 Y48.449 E224.59314
G0 X39.398 Y48.449
G1 X-48.449 Y-39.398 E229.26697
G0 X-48.449 Y-40.529
G1 X40.529 Y48.449 E234.00099
G0 X41.661 Y48.449
G1 X-48.449 Y-41.661 E238.79522
G0 X-48.449 Y-42.792
G1 X42.792 Y48.449 E243.64964
G0 X43.924 Y48.449
G1 X-48.449 Y-43.924 E248.56428
G0 X-48.449 Y-45.055
G1 X45.055 Y48.449 E253.53909
G0 X46.186 Y48.449
G1 X-48.449 Y-46.186 E258.57408
G0 X-48.449 Y-47.318
G1 X47.318 Y48.449 E263.66929
G0 X48.449 Y48.449
G1 X-48.449 Y-48.449 E268.82468
G0 X-47.318 Y-48.449
G1 X48.449 Y47.318 E273.9199
G0 X48.449 Y46.186
G1 X-46.186 Y-48.449 E278.95489
G0 X-45.055 Y-48.449
G1 X48.449 Y45.055 E283.9297
G0 X48.449 Y43.924
G1 X-43.924 Y-48.449 E288.84434
G0 X-42.792 Y-48.449
G1 X48.449 Y42.792 E293.69875
G0 X48.449 Y41.661
G1 X-41.661 Y-48.449 E298.49299
G0 X-40.529 Y-48.449
G1 X48.449 Y40.529 E303.227
G0 X48.449 Y39.398
G1 X-39.398 Y-48.449 E307.90084
G0 X-38.267 Y-48.449
G1 X48.449 Y38.267 E312.5145
G0 X48.449 Y37.135
G1 X-37.135 Y-48.449 E317.06794
G0 X-36.004 Y-48.449
G1 X48.449 Y36.004 E321.5612
G0 X48.449 Y34.873
G1 X-34.873 Y-48.449 E325.99429
G0 X-33.741 Y-48.449
G1 X48.449 Y33.741 E330.36715
G0 X48.449 Y32.61
G1 X-32.61 Y-48.449 E334.67983
G0 X-31.478 Y-48.449
G1 X48.449 Y31.478 E338.93229
G0 X48.449 Y30.347
G1 X-30.347 Y-48.449 E343.12458
G0 X-29.216 Y-48.449
G1 X48.449 Y29.216 E347.25669
G0 X48.449 Y28.084
G1 X-28.084 Y-48.449 E351.32857
G0 X-26.953 Y-48.449
G1 X48.449 Y26.953 E355.34028
G0 X48.449 Y25.822
G1 X-25.822 Y-48.449 E359.29182
G0 X-24.69 Y-48.449
G1 X48.449 Y24.69 E363.18313
G0 X48.449 Y23.559
G1 X-23.559 Y-48.449 E367.01426
G0 X-22.428 Y-48.449
G1 X48.449 Y22.428 E370.78522
G0 X48.449 Y21.296
G1 X-21.296 Y-48.449 E374.49595
G0 X-20.165 Y-48.449
G1 X48.449 Y20.165 E378.14651
G0 X48.449 Y19.033
G1 X-19.033 Y-48.449 E381.73684
G0 X-17.902 Y-48.449
G1 X48.449 Y17.902 E385.267
G0 X48.449 Y16.771
G1 X-16.771 Y-48.449 E388.73699
G0 X-15.639 Y-48.449
G1 X48.449 Y15.639 E392.14674
G0 X48.449 Y14.508
G1 X-14.508 Y-48.449 E395.49633
G0 X-13.377 Y-48.449
G1 X48.449 Y13.377 E398.78573
G0 X48.449 Y12.245
G1 X-12.245 Y-48.449 E402.01491
G0 X-11.114 Y-48.449
G1 X48.449 Y11.114 E405.18392
G0 X48.449 Y9.982
G1 X-9.982 Y-48.449 E408.2927
G0 X-8.851 Y-48.449
G1 X48.449 Y8.851 E411.34131
G0 X48.449 Y7.72
G1 X-7.72 Y-48.449 E414.32974
G0 X-6.588 Y-48.449
G1 X48.449 Y6.588 E417.25794
G0 X48.449 Y5.457
G1 X-5.457 Y-48.449 E420.12597
G0 X-4.326 Y-48.449
G1 X48.449 Y4.326 E422.93383
G0 X48.449 Y3.194
G1 X-3.194 Y-48.449 E425.68146
G0 X-2.063 Y-48.449
G1 X48.449 Y2.063 E428.36891
G0 X48.449 Y0.931
G1 X-.931 Y-48.449 E430.99614
G0 X0.199 Y-48.449
G1 X48.449 Y-.199 E433.56325
G0 X48.449 Y-1.33
G1 X1.33 Y-48.449 E436.07018
G0 X2.462 Y-48.449
G1 X48.449 Y-2.462 E438.51689
G0 X48.449 Y-3.593
G1 X3.593 Y-48.449 E440.90342
G0 X4.724 Y-48.449
G1 X48.449 Y-4.724 E443.22978
G0 X48.449 Y-5.856
G1 X5.856 Y-48.449 E445.49591
G0 X6.987 Y-48.449
G1 X48.449 Y-6.987 E447.70186
G0 X48.449 Y-8.119
G1 X8.119 Y-48.449 E449.84759
G0 X9.25 Y-48.449
G1 X48.449 Y-9.25 E451.93315
G0 X48.449 Y-10.381
G1 X10.381 Y-48.449 E453.95853
G0 X11.513 Y-48.449
G1 X48.449 Y-11.513 E455.92368
G0 X48.449 Y-12.644
G1 X12.644 Y-48.449 E457.82866
G0 X13.775 Y-48.449
G1 X48.449 Y-13.775 E459.67347
G0 X48.449 Y-14.907
G1 X14.907 Y-48.449 E461.45804
G0 X16.038 Y-48.449
G1 X48.449 Y-16.038 E463.18245
G0 X48.449 Y-17.169
G1 X17.169 Y-48.449 E464.84668
G0 X18.301 Y-48.449
G1 X48.449 Y-18.301 E466.45068
G0 X48.449 Y-19.432
G1 X19.432 Y-48.449 E467.99451
G0 X20.564 Y-48.449
G1 X48.449 Y-20.564 E469.47811
G0 X48.449 Y-21.695
G1 X21.695 Y-48.449 E470.90154
G0 X22.826 Y-48.449
G1 X48.449 Y-22.826 E472.26479
G0 X48.449 Y-23.958
G1 X23.958 Y-48.449 E473.56782
G0 X25.089 Y-48.449
G1 X48.449 Y-25.089 E474.81067
G0 X48.449 Y-26.22
G1 X26.22 Y-48.449 E475.99335
G0 X27.352 Y-48.449
G1 X48.449 Y-27.352 E477.1158
G0 X48.449 Y-28.483
G1 X28.483 Y-48.449 E478.17808
G0 X29.615 Y-48.449
G1 X48.449 Y-29.615 E479.18013
G0 X48.449 Y-30.746
G1 X30.746 Y-48.449 E480.122
G0 X31.877 Y-48.449
G1 X48.449 Y-31.877 E481.0037
G0 X48.449 Y-33.009
G1 X33.009 Y-48.449 E481.82518
G0 X34.14 Y-48.449
G1 X48.449 Y-34.14 E482.58648
G0 X48.449 Y-35.271
G1 X35.271 Y-48.449 E483.2876
G0 X36.403 Y-48.449
G1 X48.449 Y-36.403 E483.9285
G0 X48.449 Y-37.534
G1 X37.534 Y-48.449 E484.50923
G0 X38.666 Y-48.449
G1 X48.449 Y-38.666 E485.02973
G0 X48.449 Y-39.797
G1 X39.797 Y-48.449 E485.49005
G0 X40.928 Y-48.449
G1 X48.449 Y-40.928 E485.8902
G0 X48.449 Y-42.06
G1 X42.06 Y-48.449 E486.23012
G0 X43.191 Y-48.449
G1 X48.449 Y-43.191 E486.50987
G0 X48.449 Y-44.322
G1 X44.322 Y-48.449 E486.72944
G0 X45.454 Y-48.449
G1 X48.449 Y-45.454 E486.88879
G0 X48.449 Y-46.585
G1 X46.585 Y-48.449 E486.98796
G0 X47.716 Y-48.449
G1 X48.449 Y-47.716 E487.02696
;MESH:NONMESH
G0 F600 X48.449 Y-47.716 Z0.7
G0 F1800 X-45.6 Y45.6
;TIME_ELAPSED:451.191429
;LAYER:1
M106 S255
;TYPE:WALL-INNER
;MESH:square.STL
G1 F2700 X-45.6 Y-45.6 E491.60169
G1 X45.6 Y-45.6 E496.17642
G1 X45.6 Y45.6 E500.75114
G1 X-45.6 Y45.6 E505.32587
G0 X-46.4 Y46.4
G1 X-46.4 Y-46.4 E509.98086
G1 X46.4 Y-46.4 E514.63584
G1 X46.4 Y46.4 E519.29083
G1 X-46.4 Y46.4 E523.94581
G0 X-47.2 Y47.2
G1 X-47.2 Y-47.2 E528.68106
G1 X47.2 Y-47.2 E533.4163
G1 X47.2 Y47.2 E538.15155
G1 X-47.2 Y47.2 E542.88679
G0 X-48 Y48
G1 X-48 Y-48 E547.70229
G1 X48 Y-48 E552.51779
G1 X48 Y48 E557.3333
G1 X-48 Y48 E562.1488
G0 X-48.73 Y48.73
G0 X-48.8 Y48.8
G1 X-48.8 Y-48.8 E567.04456
G1 X48.8 Y-48.8 E571.94032
G1 X48.8 Y48.8 E576.83608
G1 X-48.8 Y48.8 E581.73184
G0 X-48.73 Y48.73
G0 X-49.6 Y49.6
;TYPE:WALL-OUTER
G1 F1800 X-49.6 Y-49.6 E586.70786
G1 X49.6 Y-49.6 E591.68388
G1 X49.6 Y49.6 E596.6599
G1 X-49.6 Y49.6 E601.63592
G0 F2700 X-49.6 Y49.2
G0 X-48.73 Y48.73
G0 X-44.81 Y44.81
;TYPE:SKIN
G1 F1800 X-44.81 Y-44.81 E606.13139
G1 X44.81 Y-44.81 E610.62686
G1 X44.81 Y44.81 E615.12234
G1 X-44.81 Y44.81 E619.61781
G0 F2700 X-44.449 Y-43.797
G1 F1800 X-43.797 Y-44.449 E619.66406
G0 F2700 X-42.666 Y-44.449
G1 F1800 X-44.449 Y-42.666 E619.79055
G0 F2700 X-44.449 Y-41.534
G1 F1800 X-41.534 Y-44.449 E619.99733
G0 F2700 X-40.403 Y-44.449
G1 F1800 X-44.449 Y-40.403 E620.28435
G0 F2700 X-44.449 Y-39.272
G1 F1800 X-39.272 Y-44.449 E620.6516
G0 F2700 X-38.14 Y-44.449
G1 F1800 X-44.449 Y-38.14 E621.09916
G0 F2700 X-44.449 Y-37.009
G1 F1800 X-37.009 Y-44.449 E621.62694
G0 F2700 X-35.877 Y-44.449
G1 F1800 X-44.449 Y-35.877 E622.23503
G0 F2700 X-44.449 Y-34.746
G1 F1800 X-34.746 Y-44.449 E622.92336
G0 F2700 X-33.615 Y-44.449
G1 F1800 X-44.449 Y-33.615 E623.69191
G0 F2700 X-44.449 Y-32.483
G1 F1800 X-32.483 Y-44.449 E624.54077
G0 F2700 X-31.352 Y-44.449
G1 F1800 X-44.449 Y-31.352 E625.46985
G0 F2700 X-44.449 Y-30.221
G1 F1800 X-30.221 Y-44.449 E626.47918
G0 F2700 X-29.089 Y-44.449
G1 F1800 X-44.449 Y-29.089 E627.5688
G0 F2700 X-44.449 Y-27.958
G1 F1800 X-27.958 Y-44.449 E628.73866
G0 F2700 X-26.826 Y-44.449
G1 F1800 X-44.449 Y-26.826 E629.98881
G0 F2700 X-44.449 Y-25.695
G1 F1800 X-25.695 Y-44.449 E631.31921
G0 F2700 X-24.564 Y-44.449
G1 F1800 X-44.449 Y-24.564 E632.72983
G0 F2700 X-44.449 Y-23.432
G1 F1800 X-23.432 Y-44.449 E634.22075
G0 F2700 X-22.301 Y-44.449
G1 F1800 X-44.449 Y-22.301 E635.79191
G0 F2700 X-44.449 Y-21.17
G1 F1800 X-21.17 Y-44.449 E637.4433
G0 F2700 X-20.038 Y-44.449
G1 F1800 X-44.449 Y-20.038 E639.175
G0 F2700 X-44.449 Y-18.907
G1 F1800 X-18.907 Y-44.449 E640.98692
G0 F2700 X-17.775 Y-44.449
G1 F1800 X-44.449 Y-17.775 E642.87915
G0 F2700 X-44.449 Y-16.644
G1 F1800 X-16.644 Y-44.449 E644.85161
G0 F2700 X-15.513 Y-44.449
G1 F1800 X-44.449 Y-15.513 E646.9043
G0 F2700 X-44.449 Y-14.381
G1 F1800 X-14.381 Y-44.449 E649.0373
G0 F2700 X-13.25 Y-44.449
G1 F1800 X-44.449 Y-13.25 E651.25052
G0 F2700 X-44.449 Y-12.119
G1 F1800 X-12.119 Y-44.449 E653.54398
G0 F2700 X-10.987 Y-44.449
G1 F1800 X-44.449 Y-10.987 E655.91775
G0 F2700 X-44.449 Y-9.856
G1 F1800 X-9.856 Y-44.449 E658.37174
G0 F2700 X-8.724 Y-44.449
G1 F1800 X-44.449 Y-8.724 E660.90604
G0 F2700 X-44.449 Y-7.593
G1 F1800 X-7.593 Y-44.449 E663.52057
G0 F2700 X-6.462 Y-44.449
G1 F1800 X-44.449 Y-6.462 E666.21533
G0 F2700 X-44.449 Y-5.33
G1 F1800 X-5.33 Y-44.449 E668.99039
G0 F2700 X-4.199 Y-44.449
G1 F1800 X-44.449 Y-4.199 E671.84569
G0 F2700 X-44.449 Y-3.068
G1 F1800 X-3.068 Y-44.449 E674.78122
G0 F2700 X-1.936 Y-44.449
G1 F1800 X-44.449 Y-1.936 E677.79705
G0 F2700 X-44.449 Y-.805
G1 F1800 X-.805 Y-44.449 E680.89312
G0 F2700 X0.325 Y-44.449
G1 F1800 X-44.449 Y0.325 E684.06934
G0 F2700 X-44.449 Y1.457
G1 F1800 X1.457 Y-44.449 E687.32587
G0 F2700 X2.588 Y-44.449
G1 F1800 X-44.449 Y2.588 E690.66263
G0 F2700 X-44.449 Y3.72
G1 F1800 X3.72 Y-44.449 E694.07969
G0 F2700 X4.851 Y-44.449
G1 F1800 X-44.449 Y4.851 E697.57699
G0 F2700 X-44.449 Y5.982
G1 F1800 X5.982 Y-44.449 E701.15452
G0 F2700 X7.114 Y-44.449
G1 F1800 X-44.449 Y7.114 E704.81235
G0 F2700 X-44.449 Y8.245
G1 F1800 X8.245 Y-44.449 E708.55041
G0 F2700 X9.376 Y-44.449
G1 F1800 X-44.449 Y9.376 E712.3687
G0 F2700 X-44.449 Y10.508
G1 F1800 X10.508 Y-44.449 E716.2673
G0 F2700 X11.639 Y-44.449
G1 F1800 X-44.449 Y11.639 E720.24613
G0 F2700 X-44.449 Y12.771
G1 F1800 X12.771 Y-44.449 E724.30526
G0 F2700 X13.902 Y-44.449
G1 F1800 X-44.449 Y13.902 E728.44463
G0 F2700 X-44.449 Y15.033
G1 F1800 X15.033 Y-44.449 E732.66422
G0 F2700 X16.165 Y-44.449
G1 F1800 X-44.449 Y16.165 E736.96412
G0 F2700 X-44.449 Y17.296
G1 F1800 X17.296 Y-44.449 E741.34425
G0 F2700 X18.427 Y-44.449
G1 F1800 X-44.449 Y18.427 E745.80462
G0 F2700 X-44.449 Y19.559
G1 F1800 X19.559 Y-44.449 E750.34529
G0 F2700 X20.69 Y-44.449
G1 F1800 X-44.449 Y20.69 E754.96618
G0 F2700 X-44.449 Y21.822
G1 F1800 X21.822 Y-44.449 E759.66739
G0 F2700 X22.953 Y-44.449
G1 F1800 X-44.449 Y22.953 E764.44882
G0 F2700 X-44.449 Y24.084
G1 F1800 X24.084 Y-44.449 E769.31049
G0 F2700 X25.216 Y-44.449
G1 F1800 X-44.449 Y25.216 E774.25245
G0 F2700 X-44.449 Y26.347
G1 F1800 X26.347 Y-44.449 E779.27466
G0 F2700 X27.478 Y-44.449
