; generated by Slic3r 1.3.0-dev on 2022-02-24 at 09:40:20

; external perimeters extrusion width = 0.88mm (9.53mm^3/s)
; perimeters extrusion width = 1.12mm (24.82mm^3/s)
; infill extrusion width = 1.00mm (29.25mm^3/s)
; solid infill extrusion width = 1.12mm (8.27mm^3/s)
; top infill extrusion width = 1.12mm (6.20mm^3/s)

M107
G28 ; home all axes
G1 Z5 F5000 ; lift nozzle
M109 S200

; Filament gcode

G21 ; set units to millimeters
G90 ; use absolute coordinates
M82 ; use absolute distances for extrusion
G92 E0
G1 Z0.800 F7800.000
G1 E-2.00000 F2400.00000
G92 E0
G1 X-38.335 Y-38.386 Z0.800 F7800.000
G1 E2.00000 F2400.00000
G1 F1800
G1 X-37.938 Y-40.783 Z0.800 E2.43517
G1 X-36.788 Y-42.923 Z0.800 E2.87034
G1 X-35.010 Y-44.578 Z0.800 E3.30551
G1 X-32.792 Y-45.571 Z0.800 E3.74068
G1 X-30.907 Y-45.814 Z0.800 E4.08121
G1 X30.957 Y-45.814 Z0.800 E15.16201
G1 X33.354 Y-45.417 Z0.800 E15.59718
G1 X35.494 Y-44.268 Z0.800 E16.03235
G1 X37.149 Y-42.489 Z0.800 E16.46752
G1 X38.142 Y-40.272 Z0.800 E16.90269
G1 X38.385 Y-38.386 Z0.800 E17.24321
G1 X38.385 Y38.386 Z0.800 E30.99438
G1 X37.988 Y40.783 Z0.800 E31.42955
G1 X36.838 Y42.923 Z0.800 E31.86472
G1 X35.060 Y44.578 Z0.800 E32.29989
G1 X32.842 Y45.571 Z0.800 E32.73506
G1 X30.957 Y45.814 Z0.800 E33.07559
G1 X-30.907 Y45.814 Z0.800 E44.15639
G1 X-33.304 Y45.417 Z0.800 E44.59156
G1 X-35.444 Y44.268 Z0.800 E45.02673
G1 X-37.099 Y42.489 Z0.800 E45.46190
G1 X-38.092 Y40.272 Z0.800 E45.89707
G1 X-38.335 Y38.386 Z0.800 E46.23759
G1 X-38.335 Y-38.266 Z0.800 E59.96727
G1 E57.96727 F2400.00000
G92 E0
G1 X-27.250 Y-34.729 Z0.800 F7800.000
G1 E2.00000 F2400.00000
G1 F1800
G1 X27.300 Y-34.729 Z0.800 E11.77087
G1 X27.300 Y34.729 Z0.800 E24.21212
G1 X-27.250 Y34.729 Z0.800 E33.98299
G1 X-27.250 Y-34.609 Z0.800 E46.40274
G1 E44.40274 F2400.00000
G92 E0
G1 X-28.679 Y-36.158 Z0.800 F7800.000
G1 E2.00000 F2400.00000
G1 F1800
G1 X28.729 Y-36.158 Z0.800 E12.28254
G1 X28.729 Y36.158 Z0.800 E25.23546
G1 X-28.679 Y36.158 Z0.800 E35.51800
G1 X-28.679 Y-36.038 Z0.800 E48.44942
G1 E46.44942 F2400.00000
G92 E0
G1 X-30.107 Y-37.586 Z0.800 F7800.000
G1 E2.00000 F2400.00000
G1 F1800
G1 X30.157 Y-37.586 Z0.800 E12.79421
G1 X30.157 Y37.586 Z0.800 E26.25880
G1 X-30.107 Y37.586 Z0.800 E37.05301
G1 X-30.107 Y-37.466 Z0.800 E50.49610
G1 X-29.342 Y-37.351 F7800.000
G1 E48.49610 F2400.00000
G92 E0
G1 X-1.411 Y-8.890 Z0.800 F7800.000
G1 E2.00000 F2400.00000
G1 F1800
G1 X1.461 Y-8.890 Z0.800 E2.51715
G1 X1.461 Y8.890 Z0.800 E5.71891
G1 X-1.411 Y8.890 Z0.800 E6.23606
G1 X-1.411 Y-8.770 Z0.800 E9.41622
G1 E7.41622 F2400.00000
G92 E0
G1 X-2.847 Y-10.326 Z0.800 F7800.000
G1 E2.00000 F2400.00000
G1 F1800
G1 X2.897 Y-10.326 Z0.800 E3.03429
G1 X2.897 Y10.326 Z0.800 E6.75320
G1 X-2.847 Y10.326 Z0.800 E7.78750
G1 X-2.847 Y-10.206 Z0.800 E11.48480
G1 E9.48480 F2400.00000
G92 E0
G1 X-4.283 Y-11.762 Z0.800 F7800.000
G1 E2.00000 F2400.00000
G1 F1800
G1 X4.333 Y-11.762 Z0.800 E3.55144
G1 X4.333 Y11.762 Z0.800 E7.78749
G1 X-4.283 Y11.762 Z0.800 E9.33893
G1 X-4.283 Y-11.642 Z0.800 E13.55337
G1 E11.55337 F2400.00000
G92 E0
G1 X-5.719 Y-13.198 Z0.800 F7800.000
G1 E2.00000 F2400.00000
G1 F1800
G1 X5.769 Y-13.198 Z0.800 E4.06858
G1 X5.769 Y13.198 Z0.800 E8.82178
G1 X-5.719 Y13.198 Z0.800 E10.89036
G1 X-5.719 Y-13.078 Z0.800 E15.62195
G1 E13.62195 F2400.00000
G92 E0
G1 X-7.155 Y-14.634 Z0.800 F7800.000
G1 E2.00000 F2400.00000
G1 F1800
G1 X7.205 Y-14.634 Z0.800 E4.58573
G1 X7.205 Y14.634 Z0.800 E9.85607
G1 X-7.155 Y14.634 Z0.800 E12.44180
G1 X-7.155 Y-14.514 Z0.800 E17.69053
G1 E15.69053 F2400.00000
G92 E0
G1 X-8.591 Y-16.070 Z0.800 F7800.000
G1 E2.00000 F2400.00000
G1 F1800
G1 X8.641 Y-16.070 Z0.800 E5.10287
G1 X8.641 Y16.070 Z0.800 E10.89036
G1 X-8.591 Y16.070 Z0.800 E13.99323
G1 X-8.591 Y-15.950 Z0.800 E19.75911
G1 E17.75911 F2400.00000
G92 E0
G1 X-10.027 Y-17.506 Z0.800 F7800.000
G1 E2.00000 F2400.00000
G1 F1800
G1 X10.077 Y-17.506 Z0.800 E5.62002
G1 X10.077 Y17.506 Z0.800 E11.92465
G1 X-10.027 Y17.506 Z0.800 E15.54466
G1 X-10.027 Y-17.386 Z0.800 E21.82768
G1 E19.82768 F2400.00000
G92 E0
G1 X-11.463 Y-18.942 Z0.800 F7800.000
G1 E2.00000 F2400.00000
G1 F1800
G1 X11.513 Y-18.942 Z0.800 E6.13716
G1 X11.513 Y18.942 Z0.800 E12.95893
G1 X-11.463 Y18.942 Z0.800 E17.09609
G1 X-11.463 Y-18.822 Z0.800 E23.89626
G1 E21.89626 F2400.00000
G92 E0
G1 X-12.898 Y-20.378 Z0.800 F7800.000
G1 E2.00000 F2400.00000
G1 F1800
G1 X12.948 Y-20.378 Z0.800 E6.65430
G1 X12.948 Y20.378 Z0.800 E13.99322
G1 X-12.898 Y20.378 Z0.800 E18.64753
G1 X-12.898 Y-20.258 Z0.800 E25.96484
G1 E23.96484 F2400.00000
G92 E0
G1 X-14.334 Y-21.814 Z0.800 F7800.000
G1 E2.00000 F2400.00000
G1 F1800
G1 X14.384 Y-21.814 Z0.800 E7.17145
G1 X14.384 Y21.814 Z0.800 E15.02751
G1 X-14.334 Y21.814 Z0.800 E20.19896
G1 X-14.334 Y-21.694 Z0.800 E28.03341
G1 E26.03341 F2400.00000
G92 E0
G1 X-15.770 Y-23.250 Z0.800 F7800.000
G1 E2.00000 F2400.00000
G1 F1800
G1 X15.820 Y-23.250 Z0.800 E7.68859
G1 X15.820 Y23.250 Z0.800 E16.06180
G1 X-15.770 Y23.250 Z0.800 E21.75039
G1 X-15.770 Y-23.130 Z0.800 E30.10199
G1 E28.10199 F2400.00000
G92 E0
G1 X-17.206 Y-24.686 Z0.800 F7800.000
G1 E2.00000 F2400.00000
G1 F1800
G1 X17.256 Y-24.686 Z0.800 E8.20574
G1 X17.256 Y24.686 Z0.800 E17.09609
G1 X-17.206 Y24.686 Z0.800 E23.30183
G1 X-17.206 Y-24.566 Z0.800 E32.17057
G1 E30.17057 F2400.00000
G92 E0
G1 X-18.642 Y-26.121 Z0.800 F7800.000
G1 E2.00000 F2400.00000
G1 F1800
G1 X18.692 Y-26.121 Z0.800 E8.72288
G1 X18.692 Y26.121 Z0.800 E18.13038
G1 X-18.642 Y26.121 Z0.800 E24.85326
G1 X-18.642 Y-26.001 Z0.800 E34.23915
G1 E32.23915 F2400.00000
G92 E0
G1 X-20.078 Y-27.557 Z0.800 F7800.000
G1 E2.00000 F2400.00000
G1 F1800
G1 X20.128 Y-27.557 Z0.800 E9.24003
G1 X20.128 Y27.557 Z0.800 E19.16467
G1 X-20.078 Y27.557 Z0.800 E26.40469
G1 X-20.078 Y-27.437 Z0.800 E36.30772
G1 E34.30772 F2400.00000
G92 E0
G1 X-21.514 Y-28.993 Z0.800 F7800.000
G1 E2.00000 F2400.00000
G1 F1800
G1 X21.564 Y-28.993 Z0.800 E9.75717
G1 X21.564 Y28.993 Z0.800 E20.19896
G1 X-21.514 Y28.993 Z0.800 E27.95613
G1 X-21.514 Y-28.873 Z0.800 E38.37630
G1 E36.37630 F2400.00000
G92 E0
G1 X-22.950 Y-30.429 Z0.800 F7800.000
G1 E2.00000 F2400.00000
G1 F1800
G1 X23.000 Y-30.429 Z0.800 E10.27432
G1 X23.000 Y30.429 Z0.800 E21.23324
G1 X-22.950 Y30.429 Z0.800 E29.50756
G1 X-22.950 Y-30.309 Z0.800 E40.44488
G1 E38.44488 F2400.00000
G92 E0
G1 X-24.386 Y-31.865 Z0.800 F7800.000
G1 E2.00000 F2400.00000
G1 F1800
G1 X24.436 Y-31.865 Z0.800 E10.79146
G1 X24.436 Y31.865 Z0.800 E22.26753
G1 X-24.386 Y31.865 Z0.800 E31.05899
G1 X-24.386 Y-31.745 Z0.800 E42.51346
G1 E40.51346 F2400.00000
G92 E0
G1 X-25.822 Y-33.301 Z0.800 F7800.000
G1 E2.00000 F2400.00000
G1 F1800
G1 X25.872 Y-33.301 Z0.800 E11.30860
G1 X25.872 Y33.301 Z0.800 E23.30182
G1 X-25.822 Y33.301 Z0.800 E32.61042
G1 X-25.822 Y-33.181 Z0.800 E44.58203
G1 Z1.200 F7800.000
G1 X-28.519 Y-35.998 Z1.200 F7800.000
G1 F3600
G1 X28.569 Y-35.998 Z1.200 E48.28377
G1 X28.569 Y35.998 Z1.200 E52.95223
G1 X-28.519 Y35.998 Z1.200 E56.65396
G1 X-28.519 Y-35.878 Z1.200 E61.31464
G1 X-29.553 Y-37.032 Z1.200 F7800.000
G1 F3600
G1 X29.603 Y-37.032 Z1.200 E65.15050
G1 X29.603 Y37.032 Z1.200 E69.95308
G1 X-29.553 Y37.032 Z1.200 E73.78893
G1 X-29.553 Y-36.912 Z1.200 E78.58372
G1 X-30.467 Y-37.946 Z1.200 F7800.000
G1 F1800
G1 X30.517 Y-37.946 Z1.200 E81.62042
G1 X30.517 Y37.946 Z1.200 E85.39950
G1 X-30.467 Y37.946 Z1.200 E88.43619
G1 X-30.467 Y-37.826 Z1.200 E92.20929
G1 X-29.702 Y-37.711 F7800.000
G1 X27.937 Y-34.561 Z1.200 F7800.000
G1 F1200
G1 X27.132 Y-35.366 Z1.200 E92.28344
G1 X25.662 Y-35.366 Z1.200 E92.37924
G1 X27.937 Y-33.091 Z1.200 E92.58888
G1 X27.937 Y-31.621 Z1.200 E92.68468
G1 X24.192 Y-35.366 Z1.200 E93.02980
G1 X22.722 Y-35.366 Z1.200 E93.12560
G1 X27.937 Y-30.151 Z1.200 E93.60620
G1 X27.937 Y-28.682 Z1.200 E93.70200
G1 X21.252 Y-35.366 Z1.200 E94.31809
G1 X19.782 Y-35.366 Z1.200 E94.41389
G1 X27.937 Y-27.212 Z1.200 E95.16546
G1 X27.937 Y-25.742 Z1.200 E95.26126
G1 X18.312 Y-35.366 Z1.200 E96.14831
G1 X16.842 Y-35.366 Z1.200 E96.24411
G1 X27.937 Y-24.272 Z1.200 E97.26664
G1 X27.937 Y-22.802 Z1.200 E97.36244
G1 X15.372 Y-35.366 Z1.200 E98.52046
G1 X13.903 Y-35.366 Z1.200 E98.61626
G1 X27.937 Y-21.332 Z1.200 E99.90976
G1 X27.937 Y-19.862 Z1.200 E100.00556
G1 X12.433 Y-35.366 Z1.200 E101.43454
G1 X10.963 Y-35.366 Z1.200 E101.53034
G1 X27.937 Y-18.392 Z1.200 E103.09481
G1 X27.937 Y-16.922 Z1.200 E103.19061
G1 X9.493 Y-35.366 Z1.200 E104.89056
G1 X8.023 Y-35.366 Z1.200 E104.98636
G1 X27.937 Y-15.452 Z1.200 E106.82179
G1 X27.937 Y-13.982 Z1.200 E106.91759
G1 X6.553 Y-35.366 Z1.200 E108.88851
G1 X5.083 Y-35.366 Z1.200 E108.98431
G1 X27.937 Y-12.512 Z1.200 E111.09071
G1 X27.937 Y-11.042 Z1.200 E111.18651
G1 X3.613 Y-35.366 Z1.200 E113.42839
G1 X2.143 Y-35.366 Z1.200 E113.52419
G1 X27.937 Y-9.572 Z1.200 E115.90155
G1 X27.937 Y-8.102 Z1.200 E115.99736
G1 X0.673 Y-35.366 Z1.200 E118.51020
G1 X-0.797 Y-35.366 Z1.200 E118.60600
G1 X27.937 Y-6.632 Z1.200 E121.25433
G1 X27.937 Y-5.162 Z1.200 E121.35014
G1 X-2.267 Y-35.366 Z1.200 E124.13395
G1 X-3.737 Y-35.366 Z1.200 E124.22975
G1 X27.937 Y-3.692 Z1.200 E127.14905
G1 X27.937 Y-2.222 Z1.200 E127.24485
G1 X-5.207 Y-35.366 Z1.200 E130.29963
G1 X-6.677 Y-35.366 Z1.200 E130.39543
G1 X27.937 Y-0.752 Z1.200 E133.58569
G1 X27.937 Y0.717 Z1.200 E133.68149
G1 X-8.147 Y-35.366 Z1.200 E137.00724
G1 X-9.617 Y-35.366 Z1.200 E137.10304
G1 X27.937 Y2.187 Z1.200 E140.56426
G1 X27.937 Y3.657 Z1.200 E140.66007
G1 X-11.087 Y-35.366 Z1.200 E144.25678
G1 X-12.557 Y-35.366 Z1.200 E144.35258
G1 X27.937 Y5.127 Z1.200 E148.08477
G1 X27.937 Y6.597 Z1.200 E148.18057
G1 X-14.027 Y-35.366 Z1.200 E152.04825
G1 X-15.496 Y-35.366 Z1.200 E152.14405
G1 X27.937 Y8.067 Z1.200 E156.14721
G1 X27.937 Y9.537 Z1.200 E156.24301
G1 X-16.966 Y-35.366 Z1.200 E160.38166
G1 X-18.436 Y-35.366 Z1.200 E160.47746
G1 X27.937 Y11.007 Z1.200 E164.75158
G1 X27.937 Y12.477 Z1.200 E164.84739
G1 X-19.906 Y-35.366 Z1.200 E169.25699
G1 X-21.376 Y-35.366 Z1.200 E169.35280
G1 X27.937 Y13.947 Z1.200 E173.89789
G1 X27.937 Y15.417 Z1.200 E173.99369
G1 X-22.846 Y-35.366 Z1.200 E178.67426
G1 X-24.316 Y-35.366 Z1.200 E178.77007
G1 X27.937 Y16.887 Z1.200 E183.58612
G1 X27.937 Y18.357 Z1.200 E183.68193
G1 X-25.786 Y-35.366 Z1.200 E188.63347
G1 X-27.256 Y-35.366 Z1.200 E188.72927
G1 X27.937 Y19.827 Z1.200 E193.81629
G1 X27.937 Y21.297 Z1.200 E193.91209
G1 X-27.887 Y-34.526 Z1.200 E199.05723
G1 X-27.887 Y-33.056 Z1.200 E199.15303
G1 X27.937 Y22.767 Z1.200 E204.29817
G1 X27.937 Y24.237 Z1.200 E204.39397
G1 X-27.887 Y-31.587 Z1.200 E209.53911
G1 X-27.887 Y-30.117 Z1.200 E209.63491
G1 X27.937 Y25.707 Z1.200 E214.78005
G1 X27.937 Y27.177 Z1.200 E214.87585
G1 X-27.887 Y-28.647 Z1.200 E220.02098
G1 X-27.887 Y-27.177 Z1.200 E220.11678
G1 X27.937 Y28.646 Z1.200 E225.26192
G1 X27.937 Y30.116 Z1.200 E225.35772
G1 X-27.887 Y-25.707 Z1.200 E230.50286
G1 X-27.887 Y-24.237 Z1.200 E230.59866
G1 X27.937 Y31.586 Z1.200 E235.74380
G1 X27.937 Y33.056 Z1.200 E235.83960
G1 X-27.887 Y-22.767 Z1.200 E240.98473
G1 X-27.887 Y-21.297 Z1.200 E241.08054
G1 X27.937 Y34.526 Z1.200 E246.22567
G1 X27.937 Y35.366 Z1.200 E246.28039
G1 X27.306 Y35.366 Z1.200 E246.32147
G1 X-27.887 Y-19.827 Z1.200 E251.40851
G1 X-27.887 Y-18.357 Z1.200 E251.50431
G1 X25.836 Y35.366 Z1.200 E256.45586
G1 X24.366 Y35.366 Z1.200 E256.55166
G1 X-27.887 Y-16.887 Z1.200 E261.36773
G1 X-27.887 Y-15.417 Z1.200 E261.46353
G1 X22.896 Y35.366 Z1.200 E266.14412
G1 X21.426 Y35.366 Z1.200 E266.23992
G1 X-27.887 Y-13.947 Z1.200 E270.78503
G1 X-27.887 Y-12.477 Z1.200 E270.88083
G1 X19.956 Y35.366 Z1.200 E275.29045
G1 X18.486 Y35.366 Z1.200 E275.38625
G1 X-27.887 Y-11.007 Z1.200 E279.66038
G1 X-27.887 Y-9.537 Z1.200 E279.75619
G1 X17.017 Y35.366 Z1.200 E283.89484
G1 X15.547 Y35.366 Z1.200 E283.99064
G1 X-27.887 Y-8.067 Z1.200 E287.99381
G1 X-27.887 Y-6.597 Z1.200 E288.08961
G1 X14.077 Y35.366 Z1.200 E291.95730
G1 X12.607 Y35.366 Z1.200 E292.05310
G1 X-27.887 Y-5.127 Z1.200 E295.78531
G1 X-27.887 Y-3.657 Z1.200 E295.88111
G1 X11.137 Y35.366 Z1.200 E299.47783
G1 X9.667 Y35.366 Z1.200 E299.57363
G1 X-27.887 Y-2.188 Z1.200 E303.03487
G1 X-27.887 Y-0.718 Z1.200 E303.13067
G1 X8.197 Y35.366 Z1.200 E306.45643
G1 X6.727 Y35.366 Z1.200 E306.55223
G1 X-27.887 Y0.752 Z1.200 E309.74250
G1 X-27.887 Y2.222 Z1.200 E309.83830
G1 X5.257 Y35.366 Z1.200 E312.89309
G1 X3.787 Y35.366 Z1.200 E312.98889
G1 X-27.887 Y3.692 Z1.200 E315.90820
G1 X-27.887 Y5.162 Z1.200 E316.00400
G1 X2.317 Y35.366 Z1.200 E318.78783
G1 X0.847 Y35.366 Z1.200 E318.88363
G1 X-27.887 Y6.632 Z1.200 E321.53197
G1 X-27.887 Y8.102 Z1.200 E321.62777
G1 X-0.623 Y35.366 Z1.200 E324.14063
G1 X-2.093 Y35.366 Z1.200 E324.23643
G1 X-27.887 Y9.572 Z1.200 E326.61380
G1 X-27.887 Y11.042 Z1.200 E326.70960
G1 X-3.563 Y35.366 Z1.200 E328.95149
G1 X-5.033 Y35.366 Z1.200 E329.04729
G1 X-27.887 Y12.512 Z1.200 E331.15370
G1 X-27.887 Y13.982 Z1.200 E331.24950
G1 X-6.503 Y35.366 Z1.200 E333.22043
G1 X-7.973 Y35.366 Z1.200 E333.31623
G1 X-27.887 Y15.452 Z1.200 E335.15167
G1 X-27.887 Y16.922 Z1.200 E335.24747
G1 X-9.443 Y35.366 Z1.200 E336.94743
G1 X-10.912 Y35.366 Z1.200 E337.04323
G1 X-27.887 Y18.392 Z1.200 E338.60771
G1 X-27.887 Y19.862 Z1.200 E338.70351
G1 X-12.382 Y35.366 Z1.200 E340.13251
G1 X-13.852 Y35.366 Z1.200 E340.22831
G1 X-27.887 Y21.332 Z1.200 E341.52182
G1 X-27.887 Y22.802 Z1.200 E341.61762
G1 X-15.322 Y35.366 Z1.200 E342.77565
G1 X-16.792 Y35.366 Z1.200 E342.87145
G1 X-27.887 Y24.272 Z1.200 E343.89399
G1 X-27.887 Y25.742 Z1.200 E343.98979
G1 X-18.262 Y35.366 Z1.200 E344.87685
G1 X-19.732 Y35.366 Z1.200 E344.97265
G1 X-27.887 Y27.211 Z1.200 E345.72423
G1 X-27.887 Y28.681 Z1.200 E345.82003
G1 X-21.202 Y35.366 Z1.200 E346.43613
G1 X-22.672 Y35.366 Z1.200 E346.53193
G1 X-27.887 Y30.151 Z1.200 E347.01254
G1 X-27.887 Y31.621 Z1.200 E347.10834
G1 X-24.142 Y35.366 Z1.200 E347.45347
G1 X-25.612 Y35.366 Z1.200 E347.54927
G1 X-27.887 Y33.091 Z1.200 E347.75892
G1 X-27.887 Y34.561 Z1.200 E347.85472
G1 X-27.082 Y35.366 Z1.200 E347.92886
G1 Z1.600 F7800.000
G1 X-28.519 Y-35.998 Z1.600 F7800.000
G1 F3600
G1 X28.569 Y-35.998 Z1.600 E351.63059
G1 X28.569 Y35.998 Z1.600 E356.29905
G1 X-28.519 Y35.998 Z1.600 E360.00079
G1 X-28.519 Y-35.878 Z1.600 E364.66147
G1 X-29.553 Y-37.032 Z1.600 F7800.000
G1 F3600
G1 X29.603 Y-37.032 Z1.600 E368.49732
G1 X29.603 Y37.032 Z1.600 E373.29990
G1 X-29.553 Y37.032 Z1.600 E377.13575
G1 X-29.553 Y-36.912 Z1.600 E381.93055
G1 X-30.467 Y-37.946 Z1.600 F7800.000
G1 F1800
G1 X30.517 Y-37.946 Z1.600 E384.96725
G1 X30.517 Y37.946 Z1.600 E388.74632
G1 X-30.467 Y37.946 Z1.600 E391.78302
G1 X-30.467 Y-37.826 Z1.600 E395.55612
G1 X-29.702 Y-37.711 F7800.000
G1 X-18.844 Y-35.541 Z1.600 F7800.000
G1 F4800
G1 X-27.683 Y-2.553 Z1.600 E397.51366
G1 X-28.062 Y7.526 Z1.600 F7800.000
G1 F4800
G1 X28.112 Y-7.526 Z1.600 E400.84710
G1 X27.973 Y-10.836 Z1.600 F7800.000
G1 F4800
G1 X3.407 Y-35.403 Z1.600 E402.83849
G1 X-27.923 Y-35.403 Z1.600 E404.63432
G1 X-27.923 Y-27.948 Z1.600 E405.06160
G1 X27.973 Y27.948 Z1.600 E409.59267
G1 X27.973 Y35.403 Z1.600 E410.01995
G1 X-3.357 Y35.403 Z1.600 E411.81578
G1 X-27.923 Y10.836 Z1.600 E413.80717
G1 X-25.241 Y35.162 Z1.600 F7800.000
G1 F4800
G1 X28.112 Y20.866 Z1.600 E416.97323
G1 X18.894 Y35.541 Z1.600 F7800.000
G1 F4800
G1 X27.733 Y2.553 Z1.600 E418.93078
G1 X25.291 Y-35.162 Z1.600 F7800.000
G1 F4800
G1 X-28.062 Y-20.866 Z1.600 E422.09685
G1 X9.548 Y-35.541 Z1.600 F7800.000
G1 F4800
G1 X-9.498 Y35.541 Z1.600 E426.31498
M106 S193.8
G1 Z2.000 F7800.000
G1 X-28.519 Y-35.998 Z2.000 F7800.000
G1 F3600
G1 X28.569 Y-35.998 Z2.000 E430.01672
G1 X28.569 Y35.998 Z2.000 E434.68518
G1 X-28.519 Y35.998 Z2.000 E438.38691
G1 X-28.519 Y-35.878 Z2.000 E443.04759
G1 X-29.553 Y-37.032 Z2.000 F7800.000
G1 F3600
G1 X29.603 Y-37.032 Z2.000 E446.88344
G1 X29.603 Y37.032 Z2.000 E451.68602
G1 X-29.553 Y37.032 Z2.000 E455.52187
G1 X-29.553 Y-36.912 Z2.000 E460.31667
G1 X-30.467 Y-37.946 Z2.000 F7800.000
G1 F1800
G1 X30.517 Y-37.946 Z2.000 E463.35337
G1 X30.517 Y37.946 Z2.000 E467.13244
G1 X-30.467 Y37.946 Z2.000 E470.16914
G1 X-30.467 Y-37.826 Z2.000 E473.94224
