; generated by Slic3r 1.3.1-dev (Build (Unknown revision)) on 2022-04-06 at 13:45:49

; external perimeters extrusion width = 0.88mm (9.53mm^3/s)
; perimeters extrusion width = 1.12mm (24.82mm^3/s)
; infill extrusion width = 1.00mm (29.25mm^3/s)
; solid infill extrusion width = 1.12mm (8.27mm^3/s)
; top infill extrusion width = 1.12mm (6.20mm^3/s)

G28 ; Home axis
G29 ; Probe bed
G1 Z5 F5000 ; lift nozzle
M107
M109 S200 ; Set temp

; Filament gcode

G21 ; set units to millimeters
G90 ; use absolute coordinates
M83 ; use relative distances for extrusion
M106 S255
G1 E-2.00000 F2400.00000
G1 Z2.000 F7800.000
G1 X17.924 Y5.683 F7800.000
G1 Z0.600 F7800.000
G1 E2.00000 F2400.00000
G1 F1800.000
G1 X17.383 Y7.168 E0.15931
G1 X16.665 Y8.709 E0.17123
G1 X15.874 Y10.078 E0.15931
G1 X14.900 Y11.470 E0.17123
G1 X13.883 Y12.682 E0.15931
G1 X12.682 Y13.883 E0.17123
G1 X11.470 Y14.900 E0.15931
G1 X10.078 Y15.874 E0.17123
G1 X8.709 Y16.665 E0.15931
G1 X7.168 Y17.383 E0.17123
G1 X5.683 Y17.924 E0.15931
G1 X4.041 Y18.364 E0.17123
G1 X2.484 Y18.639 E0.15931
G1 X0.791 Y18.787 E0.17123
G1 X-0.791 Y18.787 E0.15931
G1 X-2.484 Y18.639 E0.17123
G1 X-4.041 Y18.364 E0.15931
G1 X-5.683 Y17.924 E0.17123
G1 X-7.168 Y17.383 E0.15931
G1 X-8.709 Y16.665 E0.17123
G1 X-10.078 Y15.874 E0.15931
G1 X-11.470 Y14.900 E0.17123
G1 X-12.682 Y13.883 E0.15931
G1 X-13.883 Y12.682 E0.17123
G1 X-14.900 Y11.470 E0.15931
G1 X-15.874 Y10.078 E0.17123
G1 X-16.665 Y8.709 E0.15931
G1 X-17.383 Y7.168 E0.17123
G1 X-17.924 Y5.682 E0.15931
G1 X-18.364 Y4.041 E0.17123
G1 X-18.639 Y2.484 E0.15931
G1 X-18.787 Y0.791 E0.17123
G1 X-18.787 Y-0.791 E0.15931
G1 X-18.639 Y-2.484 E0.17123
G1 X-18.364 Y-4.041 E0.15931
G1 X-17.924 Y-5.683 E0.17123
G1 X-17.383 Y-7.168 E0.15931
G1 X-16.665 Y-8.709 E0.17123
G1 X-15.874 Y-10.078 E0.15931
G1 X-14.900 Y-11.470 E0.17123
G1 X-13.883 Y-12.682 E0.15931
G1 X-12.682 Y-13.883 E0.17123
G1 X-11.470 Y-14.900 E0.15931
G1 X-10.078 Y-15.874 E0.17123
G1 X-8.709 Y-16.665 E0.15931
G1 X-7.168 Y-17.383 E0.17123
G1 X-5.682 Y-17.924 E0.15931
G1 X-4.041 Y-18.364 E0.17123
G1 X-2.484 Y-18.639 E0.15931
G1 X-0.791 Y-18.787 E0.17123
G1 X0.791 Y-18.787 E0.15931
G1 X2.484 Y-18.639 E0.17123
G1 X4.041 Y-18.364 E0.15931
G1 X5.682 Y-17.924 E0.17123
G1 X7.168 Y-17.383 E0.15931
G1 X8.709 Y-16.665 E0.17123
G1 X10.078 Y-15.874 E0.15931
G1 X11.470 Y-14.900 E0.17123
G1 X12.682 Y-13.883 E0.15931
G1 X13.883 Y-12.682 E0.17123
G1 X14.900 Y-11.470 E0.15931
G1 X15.874 Y-10.078 E0.17123
G1 X16.665 Y-8.709 E0.15931
G1 X17.383 Y-7.168 E0.17123
G1 X17.924 Y-5.683 E0.15931
G1 X18.364 Y-4.041 E0.17123
G1 X18.639 Y-2.484 E0.15931
G1 X18.787 Y-0.791 E0.17123
G1 X18.787 Y0.791 E0.15931
G1 X18.639 Y2.484 E0.17123
G1 X18.364 Y4.041 E0.15931
G1 X17.955 Y5.567 E0.15914
G1 E-2.00000 F2400.00000
G1 Z2.600 F7800.000
G1 X15.361 Y4.872 F7800.000
G1 Z0.600 F7800.000
G1 E2.00000 F2400.00000
G1 F1800.000
G1 X15.258 Y5.257 E0.04287
G1 X15.067 Y5.781 E0.05994
G1 X14.114 Y7.826 E0.24262
G1 X13.835 Y8.309 E0.05994
G1 X12.540 Y10.158 E0.24262
G1 X12.182 Y10.586 E0.05994
G1 X10.586 Y12.182 E0.24262
G1 X10.158 Y12.540 E0.05994
G1 X8.309 Y13.835 E0.24262
G1 X7.826 Y14.114 E0.05994
G1 X5.781 Y15.067 E0.24262
G1 X5.257 Y15.258 E0.05994
G1 X3.077 Y15.842 E0.24262
G1 X2.527 Y15.939 E0.05994
G1 X0.279 Y16.136 E0.24262
G1 X-0.279 Y16.136 E0.05994
G1 X-2.527 Y15.939 E0.24262
G1 X-3.077 Y15.842 E0.05994
G1 X-5.257 Y15.258 E0.24262
G1 X-5.781 Y15.067 E0.05994
G1 X-7.826 Y14.114 E0.24262
G1 X-8.309 Y13.835 E0.05994
G1 X-10.158 Y12.540 E0.24262
G1 X-10.586 Y12.182 E0.05994
G1 X-12.182 Y10.586 E0.24262
G1 X-12.540 Y10.158 E0.05994
G1 X-13.835 Y8.309 E0.24262
G1 X-14.114 Y7.826 E0.05994
G1 X-15.067 Y5.781 E0.24262
G1 X-15.258 Y5.257 E0.05994
G1 X-15.842 Y3.077 E0.24262
G1 X-15.939 Y2.527 E0.05994
G1 X-16.136 Y0.279 E0.24262
G1 X-16.136 Y-0.279 E0.05994
G1 X-15.939 Y-2.527 E0.24262
G1 X-15.842 Y-3.077 E0.05994
G1 X-15.258 Y-5.257 E0.24262
G1 X-15.067 Y-5.781 E0.05994
G1 X-14.114 Y-7.826 E0.24262
G1 X-13.835 Y-8.309 E0.05994
G1 X-12.540 Y-10.158 E0.24262
G1 X-12.182 Y-10.586 E0.05994
G1 X-10.586 Y-12.182 E0.24262
G1 X-10.158 Y-12.540 E0.05994
G1 X-8.309 Y-13.835 E0.24262
G1 X-7.826 Y-14.114 E0.05994
G1 X-5.781 Y-15.067 E0.24262
G1 X-5.257 Y-15.258 E0.05994
G1 X-3.077 Y-15.842 E0.24262
G1 X-2.527 Y-15.939 E0.05994
G1 X-0.279 Y-16.136 E0.24262
G1 X0.279 Y-16.136 E0.05994
G1 X2.527 Y-15.939 E0.24262
G1 X3.077 Y-15.842 E0.05994
G1 X5.257 Y-15.258 E0.24262
G1 X5.781 Y-15.067 E0.05994
G1 X7.826 Y-14.114 E0.24262
G1 X8.309 Y-13.835 E0.05994
G1 X10.158 Y-12.540 E0.24262
G1 X10.586 Y-12.182 E0.05994
G1 X12.182 Y-10.586 E0.24262
G1 X12.540 Y-10.158 E0.05994
G1 X13.835 Y-8.309 E0.24262
G1 X14.114 Y-7.826 E0.05994
G1 X15.067 Y-5.781 E0.24262
G1 X15.258 Y-5.257 E0.05994
G1 X15.842 Y-3.077 E0.24262
G1 X15.939 Y-2.527 E0.05994
G1 X16.136 Y-0.279 E0.24262
G1 X16.136 Y0.279 E0.05994
G1 X15.939 Y2.527 E0.24262
G1 X15.842 Y3.077 E0.05994
G1 X15.392 Y4.756 E0.18685
G1 X14.289 Y4.460 F7800.000
G1 F1800.000
G1 X14.167 Y4.913 E0.05040
G1 X14.011 Y5.343 E0.04921
G1 X13.099 Y7.298 E0.23189
G1 X12.870 Y7.695 E0.04921
G1 X11.632 Y9.462 E0.23189
G1 X11.338 Y9.813 E0.04921
G1 X9.813 Y11.338 E0.23189
G1 X9.462 Y11.632 E0.04921
G1 X7.695 Y12.870 E0.23189
G1 X7.298 Y13.099 E0.04921
G1 X5.343 Y14.011 E0.23189
G1 X4.913 Y14.167 E0.04921
G1 X2.829 Y14.726 E0.23189
G1 X2.378 Y14.805 E0.04921
G1 X0.229 Y14.993 E0.23189
G1 X-0.229 Y14.993 E0.04921
G1 X-2.378 Y14.805 E0.23189
G1 X-2.829 Y14.726 E0.04921
G1 X-4.913 Y14.167 E0.23189
G1 X-5.343 Y14.011 E0.04921
G1 X-7.298 Y13.099 E0.23189
G1 X-7.695 Y12.870 E0.04921
G1 X-9.462 Y11.632 E0.23189
G1 X-9.813 Y11.338 E0.04921
G1 X-11.338 Y9.813 E0.23189
G1 X-11.632 Y9.462 E0.04921
G1 X-12.870 Y7.695 E0.23189
G1 X-13.099 Y7.298 E0.04921
G1 X-14.011 Y5.343 E0.23189
G1 X-14.167 Y4.913 E0.04921
G1 X-14.726 Y2.829 E0.23189
G1 X-14.805 Y2.378 E0.04921
G1 X-14.993 Y0.229 E0.23189
G1 X-14.993 Y-0.229 E0.04921
G1 X-14.805 Y-2.378 E0.23189
G1 X-14.726 Y-2.829 E0.04921
G1 X-14.167 Y-4.913 E0.23189
G1 X-14.011 Y-5.343 E0.04921
G1 X-13.099 Y-7.298 E0.23189
G1 X-12.870 Y-7.695 E0.04921
G1 X-11.632 Y-9.462 E0.23189
G1 X-11.338 Y-9.813 E0.04921
G1 X-9.813 Y-11.338 E0.23189
G1 X-9.462 Y-11.632 E0.04921
G1 X-7.695 Y-12.870 E0.23189
G1 X-7.298 Y-13.099 E0.04921
G1 X-5.343 Y-14.011 E0.23189
G1 X-4.913 Y-14.167 E0.04921
G1 X-2.829 Y-14.726 E0.23189
G1 X-2.378 Y-14.805 E0.04921
G1 X-0.229 Y-14.993 E0.23189
G1 X0.229 Y-14.993 E0.04921
G1 X2.378 Y-14.805 E0.23189
G1 X2.829 Y-14.726 E0.04921
G1 X4.913 Y-14.167 E0.23189
G1 X5.343 Y-14.011 E0.04921
G1 X7.298 Y-13.099 E0.23189
G1 X7.695 Y-12.870 E0.04921
G1 X9.462 Y-11.632 E0.23189
G1 X9.813 Y-11.338 E0.04921
G1 X11.338 Y-9.813 E0.23189
G1 X11.632 Y-9.462 E0.04921
G1 X12.870 Y-7.695 E0.23189
G1 X13.099 Y-7.298 E0.04921
G1 X14.011 Y-5.343 E0.23189
G1 X14.167 Y-4.913 E0.04921
G1 X14.726 Y-2.829 E0.23189
G1 X14.805 Y-2.378 E0.04921
G1 X14.993 Y-0.229 E0.23189
G1 X14.993 Y0.229 E0.04921
G1 X14.805 Y2.378 E0.23189
G1 X14.726 Y2.829 E0.04921
G1 X14.320 Y4.344 E0.16859
G1 X13.216 Y4.048 F7800.000
G1 F1800.000
G1 X13.076 Y4.569 E0.05794
G1 X12.954 Y4.905 E0.03848
G1 X12.084 Y6.770 E0.22117
G1 X11.905 Y7.080 E0.03849
G1 X10.725 Y8.766 E0.22117
G1 X10.495 Y9.040 E0.03848
G1 X9.040 Y10.495 E0.22117
G1 X8.766 Y10.725 E0.03848
G1 X7.080 Y11.905 E0.22117
G1 X6.770 Y12.084 E0.03849
G1 X4.905 Y12.954 E0.22117
G1 X4.569 Y13.076 E0.03848
G1 X2.581 Y13.609 E0.22117
G1 X2.229 Y13.671 E0.03849
G1 X0.179 Y13.850 E0.22117
G1 X-0.179 Y13.850 E0.03848
G1 X-2.229 Y13.671 E0.22117
G1 X-2.581 Y13.609 E0.03849
G1 X-4.569 Y13.076 E0.22117
G1 X-4.905 Y12.954 E0.03848
G1 X-6.770 Y12.084 E0.22117
G1 X-7.080 Y11.905 E0.03849
G1 X-8.766 Y10.725 E0.22117
G1 X-9.040 Y10.495 E0.03849
G1 X-10.495 Y9.040 E0.22117
G1 X-10.725 Y8.766 E0.03848
G1 X-11.905 Y7.080 E0.22117
G1 X-12.084 Y6.770 E0.03849
G1 X-12.954 Y4.905 E0.22117
G1 X-13.076 Y4.569 E0.03849
G1 X-13.609 Y2.581 E0.22117
G1 X-13.671 Y2.229 E0.03848
G1 X-13.850 Y0.179 E0.22117
G1 X-13.850 Y-0.179 E0.03848
G1 X-13.671 Y-2.229 E0.22117
G1 X-13.609 Y-2.581 E0.03848
G1 X-13.076 Y-4.569 E0.22117
G1 X-12.954 Y-4.905 E0.03848
G1 X-12.084 Y-6.770 E0.22117
G1 X-11.905 Y-7.080 E0.03849
G1 X-10.725 Y-8.766 E0.22117
G1 X-10.495 Y-9.040 E0.03848
G1 X-9.040 Y-10.495 E0.22117
G1 X-8.766 Y-10.725 E0.03848
G1 X-7.080 Y-11.905 E0.22117
G1 X-6.770 Y-12.084 E0.03849
G1 X-4.905 Y-12.954 E0.22117
G1 X-4.569 Y-13.076 E0.03849
G1 X-2.581 Y-13.609 E0.22117
G1 X-2.229 Y-13.671 E0.03848
G1 X-0.179 Y-13.850 E0.22117
G1 X0.179 Y-13.850 E0.03848
G1 X2.229 Y-13.671 E0.22117
G1 X2.581 Y-13.609 E0.03848
G1 X4.569 Y-13.076 E0.22117
G1 X4.905 Y-12.954 E0.03849
G1 X6.770 Y-12.084 E0.22117
G1 X7.080 Y-11.905 E0.03849
G1 X8.766 Y-10.725 E0.22117
G1 X9.040 Y-10.495 E0.03848
G1 X10.495 Y-9.040 E0.22117
G1 X10.725 Y-8.766 E0.03849
G1 X11.905 Y-7.080 E0.22117
G1 X12.084 Y-6.770 E0.03848
G1 X12.954 Y-4.905 E0.22117
G1 X13.076 Y-4.569 E0.03848
G1 X13.609 Y-2.581 E0.22117
G1 X13.671 Y-2.229 E0.03849
G1 X13.850 Y-0.179 E0.22117
G1 X13.850 Y0.179 E0.03848
G1 X13.671 Y2.229 E0.22117
G1 X13.609 Y2.581 E0.03849
G1 X13.247 Y3.932 E0.15033
G1 X12.143 Y3.636 F7800.000
G1 F1800.000
G1 X11.985 Y4.225 E0.06547
G1 X11.897 Y4.467 E0.02776
G1 X11.069 Y6.242 E0.21044
G1 X10.940 Y6.465 E0.02776
G1 X9.817 Y8.069 E0.21044
G1 X9.651 Y8.267 E0.02776
G1 X8.267 Y9.651 E0.21044
G1 X8.069 Y9.817 E0.02776
G1 X6.465 Y10.940 E0.21044
G1 X6.242 Y11.069 E0.02776
G1 X4.467 Y11.897 E0.21044
G1 X4.225 Y11.985 E0.02776
G1 X2.334 Y12.492 E0.21044
G1 X2.079 Y12.537 E0.02776
G1 X0.129 Y12.707 E0.21044
G1 X-0.129 Y12.707 E0.02776
G1 X-2.079 Y12.537 E0.21044
G1 X-2.334 Y12.492 E0.02776
G1 X-4.225 Y11.985 E0.21044
G1 X-4.467 Y11.897 E0.02776
G1 X-6.242 Y11.069 E0.21044
G1 X-6.465 Y10.940 E0.02776
G1 X-8.069 Y9.817 E0.21044
G1 X-8.267 Y9.651 E0.02776
G1 X-9.651 Y8.267 E0.21044
G1 X-9.817 Y8.069 E0.02776
G1 X-10.940 Y6.465 E0.21044
G1 X-11.069 Y6.242 E0.02776
G1 X-11.897 Y4.467 E0.21044
G1 X-11.985 Y4.225 E0.02776
G1 X-12.492 Y2.334 E0.21044
G1 X-12.537 Y2.079 E0.02776
G1 X-12.707 Y0.129 E0.21044
G1 X-12.707 Y-0.129 E0.02776
G1 X-12.537 Y-2.079 E0.21044
G1 X-12.492 Y-2.334 E0.02776
G1 X-11.985 Y-4.225 E0.21044
G1 X-11.897 Y-4.467 E0.02776
G1 X-11.069 Y-6.242 E0.21044
G1 X-10.940 Y-6.465 E0.02776
G1 X-9.817 Y-8.069 E0.21044
G1 X-9.651 Y-8.267 E0.02776
G1 X-8.267 Y-9.651 E0.21044
G1 X-8.069 Y-9.817 E0.02776
G1 X-6.465 Y-10.940 E0.21044
G1 X-6.242 Y-11.069 E0.02776
G1 X-4.467 Y-11.897 E0.21044
G1 X-4.225 Y-11.985 E0.02776
G1 X-2.334 Y-12.492 E0.21044
G1 X-2.079 Y-12.537 E0.02776
G1 X-0.129 Y-12.707 E0.21044
G1 X0.129 Y-12.707 E0.02776
G1 X2.079 Y-12.537 E0.21044
G1 X2.334 Y-12.492 E0.02776
G1 X4.225 Y-11.985 E0.21044
G1 X4.467 Y-11.897 E0.02776
G1 X6.242 Y-11.069 E0.21044
G1 X6.465 Y-10.940 E0.02776
G1 X8.069 Y-9.817 E0.21044
G1 X8.267 Y-9.651 E0.02776
G1 X9.651 Y-8.267 E0.21044
G1 X9.817 Y-8.069 E0.02776
G1 X10.940 Y-6.465 E0.21044
G1 X11.069 Y-6.242 E0.02776
G1 X11.897 Y-4.467 E0.21044
G1 X11.985 Y-4.225 E0.02776
G1 X12.492 Y-2.334 E0.21044
G1 X12.537 Y-2.079 E0.02776
G1 X12.707 Y-0.129 E0.21044
G1 X12.707 Y0.129 E0.02776
G1 X12.537 Y2.079 E0.21044
G1 X12.492 Y2.334 E0.02776
G1 X12.174 Y3.521 E0.13207
G1 X11.070 Y3.225 F7800.000
G1 F1800.000
G1 X10.840 Y4.030 E0.08999
G1 X10.055 Y5.714 E0.19971
G1 X9.976 Y5.851 E0.01703
G1 X8.910 Y7.373 E0.19971
G1 X8.808 Y7.494 E0.01703
G1 X7.494 Y8.808 E0.19971
G1 X7.373 Y8.910 E0.01703
G1 X5.851 Y9.976 E0.19971
G1 X5.714 Y10.055 E0.01703
G1 X4.030 Y10.840 E0.19971
G1 X3.881 Y10.894 E0.01703
G1 X2.086 Y11.375 E0.19971
G1 X1.930 Y11.403 E0.01703
G1 X0.079 Y11.564 E0.19971
G1 X-0.079 Y11.564 E0.01703
G1 X-1.930 Y11.403 E0.19971
G1 X-2.086 Y11.375 E0.01703
G1 X-3.881 Y10.894 E0.19971
G1 X-4.030 Y10.840 E0.01703
G1 X-5.714 Y10.055 E0.19971
G1 X-5.851 Y9.976 E0.01703
G1 X-7.373 Y8.910 E0.19971
G1 X-7.494 Y8.808 E0.01703
G1 X-8.808 Y7.494 E0.19971
G1 X-8.910 Y7.373 E0.01703
G1 X-9.976 Y5.851 E0.19971
G1 X-10.055 Y5.714 E0.01703
G1 X-10.840 Y4.030 E0.19971
G1 X-10.894 Y3.881 E0.01703
G1 X-11.375 Y2.086 E0.19971
G1 X-11.403 Y1.930 E0.01703
G1 X-11.564 Y0.079 E0.19971
G1 X-11.564 Y-0.079 E0.01703
G1 X-11.403 Y-1.930 E0.19971
G1 X-11.375 Y-2.086 E0.01703
G1 X-10.894 Y-3.881 E0.19971
G1 X-10.840 Y-4.030 E0.01703
G1 X-10.055 Y-5.714 E0.19971
G1 X-9.976 Y-5.851 E0.01703
G1 X-8.910 Y-7.373 E0.19971
G1 X-8.808 Y-7.494 E0.01703
G1 X-7.494 Y-8.808 E0.19971
G1 X-7.373 Y-8.910 E0.01703
G1 X-5.851 Y-9.976 E0.19971
G1 X-5.714 Y-10.055 E0.01703
G1 X-4.030 Y-10.840 E0.19971
G1 X-3.881 Y-10.894 E0.01703
G1 X-2.086 Y-11.375 E0.19971
G1 X-1.930 Y-11.403 E0.01703
G1 X-0.079 Y-11.564 E0.19971
G1 X0.079 Y-11.564 E0.01703
G1 X1.930 Y-11.403 E0.19971
G1 X2.086 Y-11.375 E0.01703
G1 X3.881 Y-10.894 E0.19971
G1 X4.030 Y-10.840 E0.01703
G1 X5.714 Y-10.055 E0.19971
G1 X5.851 Y-9.976 E0.01703
G1 X7.373 Y-8.910 E0.19971
G1 X7.494 Y-8.808 E0.01703
G1 X8.808 Y-7.494 E0.19971
G1 X8.910 Y-7.373 E0.01703
G1 X9.976 Y-5.851 E0.19971
G1 X10.055 Y-5.714 E0.01703
G1 X10.840 Y-4.030 E0.19971
G1 X10.894 Y-3.881 E0.01703
G1 X11.375 Y-2.086 E0.19971
G1 X11.403 Y-1.930 E0.01703
G1 X11.564 Y-0.079 E0.19971
G1 X11.564 Y0.079 E0.01703
G1 X11.403 Y1.930 E0.19971
G1 X11.101 Y3.109 E0.13078
G1 X9.997 Y2.813 F7800.000
G1 F1800.000
G1 X9.783 Y3.592 E0.08683
G1 X9.040 Y5.185 E0.18899
G1 X8.002 Y6.676 E0.19527
G1 X6.676 Y8.002 E0.20155
G1 X5.185 Y9.040 E0.19527
G1 X3.592 Y9.783 E0.18899
G1 X1.839 Y10.258 E0.19527
G1 X0.029 Y10.422 E0.19527
G1 X-1.781 Y10.268 E0.19527
G1 X-3.537 Y9.803 E0.19527
G1 X-5.185 Y9.040 E0.19527
G1 X-6.676 Y8.002 E0.19527
G1 X-7.965 Y6.721 E0.19527
G1 X-9.040 Y5.185 E0.20155
G1 X-9.803 Y3.537 E0.19527
G1 X-10.268 Y1.781 E0.19527
G1 X-10.422 Y0.029 E0.18899
G1 X-10.268 Y-1.781 E0.19527
G1 X-9.803 Y-3.537 E0.19527
G1 X-9.011 Y-5.236 E0.20155
G1 X-7.965 Y-6.721 E0.19527
G1 X-6.676 Y-8.002 E0.19527
G1 X-5.185 Y-9.040 E0.19527
G1 X-3.537 Y-9.803 E0.19527
G1 X-1.781 Y-10.268 E0.19527
G1 X0.029 Y-10.422 E0.19527
G1 X1.781 Y-10.268 E0.18899
G1 X3.537 Y-9.803 E0.19527
G1 X5.185 Y-9.040 E0.19527
G1 X6.676 Y-8.002 E0.19527
G1 X7.965 Y-6.721 E0.19527
G1 X9.040 Y-5.185 E0.20155
G1 X9.803 Y-3.537 E0.19527
G1 X10.268 Y-1.781 E0.19527
G1 X10.422 Y0.029 E0.19527
G1 X10.268 Y1.781 E0.18899
G1 X10.028 Y2.697 E0.10182
G1 X8.800 Y2.368 F7800.000
G1 F1800.000
G1 X8.596 Y3.129 E0.07934
G1 X7.922 Y4.574 E0.16066
G1 X7.008 Y5.880 E0.16066
G1 X5.880 Y7.008 E0.16066
G1 X4.574 Y7.922 E0.16066
G1 X3.129 Y8.596 E0.16066
G1 X1.588 Y9.009 E0.16066
G1 X-0.000 Y9.148 E0.16066
G1 X-1.588 Y9.009 E0.16066
G1 X-3.129 Y8.596 E0.16066
G1 X-4.574 Y7.922 E0.16066
G1 X-5.880 Y7.008 E0.16066
G1 X-7.008 Y5.880 E0.16066
G1 X-7.922 Y4.574 E0.16066
G1 X-8.596 Y3.129 E0.16066
G1 X-9.009 Y1.588 E0.16066
G1 X-9.148 Y-0.000 E0.16066
G1 X-9.009 Y-1.588 E0.16066
G1 X-8.596 Y-3.129 E0.16066
G1 X-7.922 Y-4.574 E0.16066
G1 X-7.008 Y-5.880 E0.16066
G1 X-5.880 Y-7.008 E0.16066
G1 X-4.574 Y-7.922 E0.16066
G1 X-3.129 Y-8.596 E0.16066
G1 X-1.588 Y-9.009 E0.16066
G1 X-0.000 Y-9.148 E0.16066
G1 X1.588 Y-9.009 E0.16066
G1 X3.129 Y-8.596 E0.16066
G1 X4.574 Y-7.922 E0.16066
G1 X5.880 Y-7.008 E0.16066
G1 X7.008 Y-5.880 E0.16066
G1 X7.922 Y-4.574 E0.16066
G1 X8.596 Y-3.129 E0.16066
G1 X9.009 Y-1.588 E0.16066
G1 X9.148 Y-0.000 E0.16066
G1 X9.009 Y1.588 E0.16066
G1 X8.831 Y2.252 E0.06922
G1 X8.048 Y2.601 F7800.000
G1 X7.796 Y1.975 F7800.000
G1 F1800.000
G1 X7.586 Y2.761 E0.08199
G1 X6.991 Y4.036 E0.14177
G1 X6.184 Y5.189 E0.14177
G1 X5.189 Y6.184 E0.14177
G1 X4.036 Y6.991 E0.14177
G1 X2.761 Y7.586 E0.14177
G1 X1.402 Y7.950 E0.14177
G1 X-0.000 Y8.072 E0.14177
G1 X-1.402 Y7.950 E0.14177
G1 X-2.761 Y7.586 E0.14177
G1 X-4.036 Y6.991 E0.14177
G1 X-5.189 Y6.184 E0.14177
G1 X-6.184 Y5.189 E0.14177
G1 X-6.991 Y4.036 E0.14177
G1 X-7.586 Y2.761 E0.14177
G1 X-7.950 Y1.402 E0.14177
G1 X-8.072 Y-0.000 E0.14177
G1 X-7.950 Y-1.402 E0.14177
G1 X-7.586 Y-2.761 E0.14177
G1 X-6.991 Y-4.036 E0.14177
G1 X-6.184 Y-5.189 E0.14177
G1 X-5.189 Y-6.184 E0.14177
G1 X-4.036 Y-6.991 E0.14177
G1 X-2.761 Y-7.586 E0.14177
